( pcb2gcode 1.1.4 )

G94     ( Inches per minute feed rate. )
G20     ( Units == INCHES.             )
G90     ( Absolute coordinates.        )
S10000  ( RPM spindle speed.           )
M3      ( Spindle on clockwise.        )

G64 P0.00500 ( set maximum deviation from commanded toolpath )

G04 P0 ( dwell for no time -- G64 should not smooth over this point )
G00 Z0.15000 ( retract )

G00 X-0.00813 Y3.93796 ( rapid move to begin. )
G01 Z-0.00500 F4.00000 ( plunge. )
G04 P0 ( dwell for no time -- G64 should not smooth over this point )
X-0.00813 Y3.93796
X-0.00813 Y1.36996
X8.08087 Y1.36996
X8.08087 Y3.94796
X-0.00813 Y3.94796
X-0.00813 Y3.93796
G04 P0 ( dwell for no time -- G64 should not smooth over this point )
G00 Z0.15000 ( retract )

G00 X3.36987 Y3.77896 ( rapid move to begin. )
G01 Z-0.00500 F4.00000 ( plunge. )
G04 P0 ( dwell for no time -- G64 should not smooth over this point )
X3.36987 Y3.77896
X3.36987 Y3.71596
X3.36887 Y3.71596
X3.36887 Y3.57496
X3.36787 Y3.57496
X3.36787 Y3.43396
X3.36687 Y3.43396
X3.36687 Y3.29196
X3.36587 Y3.29196
X3.36587 Y3.15096
X3.36487 Y3.15096
X3.36487 Y3.00996
X3.36387 Y3.00996
X3.36387 Y2.86896
X3.36287 Y2.86896
X3.36287 Y2.72796
X3.36187 Y2.72796
X3.36187 Y2.58696
X3.36087 Y2.58696
X3.36087 Y2.44496
X3.35987 Y2.44496
X3.35987 Y2.30396
X3.35887 Y2.30396
X3.35887 Y2.16296
X3.35787 Y2.16296
X3.35787 Y2.07096
X3.35887 Y2.07096
X3.35887 Y2.06996
X3.35987 Y2.06996
X3.35987 Y2.06896
X3.38287 Y2.06896
X3.38287 Y2.06996
X3.38387 Y2.06996
X3.38387 Y2.07096
X3.38487 Y2.07096
X3.38487 Y2.14196
X3.38587 Y2.14196
X3.38587 Y2.28296
X3.38687 Y2.28296
X3.38687 Y2.42396
X3.38787 Y2.42396
X3.38787 Y2.56596
X3.38887 Y2.56596
X3.38887 Y2.70696
X3.38987 Y2.70696
X3.38987 Y2.84796
X3.39087 Y2.84796
X3.39087 Y2.98896
X3.39187 Y2.98896
X3.39187 Y3.12996
X3.39287 Y3.12996
X3.39287 Y3.27096
X3.39387 Y3.27096
X3.39387 Y3.41296
X3.39487 Y3.41296
X3.39487 Y3.55396
X3.39587 Y3.55396
X3.39587 Y3.69496
X3.39687 Y3.69496
X3.39687 Y3.76296
X4.65787 Y3.76296
X4.65787 Y2.44596
X4.65887 Y2.44596
X4.65887 Y2.44496
X4.65987 Y2.44496
X4.65987 Y2.44396
X4.68287 Y2.44396
X4.68287 Y2.44496
X4.68387 Y2.44496
X4.68387 Y2.44596
X4.68487 Y2.44596
X4.68487 Y3.78796
X4.68387 Y3.78796
X4.68387 Y3.78896
X4.68287 Y3.78896
X4.68287 Y3.78996
X3.37187 Y3.78996
X3.37187 Y3.78896
X3.37087 Y3.78896
X3.37087 Y3.78796
X3.36987 Y3.78796
X3.36987 Y3.77896
G04 P0 ( dwell for no time -- G64 should not smooth over this point )
G00 Z0.15000 ( retract )

G00 X4.34287 Y3.71396 ( rapid move to begin. )
G01 Z-0.00500 F4.00000 ( plunge. )
G04 P0 ( dwell for no time -- G64 should not smooth over this point )
X4.34287 Y3.71396
X4.34287 Y3.69296
X4.34187 Y3.69296
X4.34187 Y3.66496
X4.61987 Y3.66496
X4.61987 Y3.72496
X4.34287 Y3.72496
X4.34287 Y3.71396
G04 P0 ( dwell for no time -- G64 should not smooth over this point )
G00 Z0.15000 ( retract )

G00 X3.81587 Y3.71396 ( rapid move to begin. )
G01 Z-0.00500 F4.00000 ( plunge. )
G04 P0 ( dwell for no time -- G64 should not smooth over this point )
X3.81587 Y3.71396
X3.81587 Y3.70196
X3.81687 Y3.70196
X3.81687 Y3.69996
X3.81787 Y3.69996
X3.81787 Y3.69696
X3.81887 Y3.69696
X3.81887 Y3.69396
X3.81987 Y3.69396
X3.81987 Y3.68996
X3.82087 Y3.68996
X3.82087 Y3.68596
X3.82187 Y3.68596
X3.82187 Y3.67796
X3.82287 Y3.67796
X3.82287 Y3.66496
X3.99487 Y3.66496
X3.99487 Y3.68596
X3.99587 Y3.68596
X3.99587 Y3.68996
X3.99687 Y3.68996
X3.99687 Y3.69396
X3.99787 Y3.69396
X3.99787 Y3.69696
X3.99887 Y3.69696
X3.99887 Y3.69996
X3.99987 Y3.69996
X3.99987 Y3.70196
X4.00087 Y3.70196
X4.00087 Y3.72496
X3.81587 Y3.72496
X3.81587 Y3.71396
G04 P0 ( dwell for no time -- G64 should not smooth over this point )
G00 Z0.15000 ( retract )

G00 X3.43387 Y3.71396 ( rapid move to begin. )
G01 Z-0.00500 F4.00000 ( plunge. )
G04 P0 ( dwell for no time -- G64 should not smooth over this point )
X3.43387 Y3.71396
X3.43387 Y3.66496
X3.69387 Y3.66496
X3.69387 Y3.67796
X3.69487 Y3.67796
X3.69487 Y3.68596
X3.69587 Y3.68596
X3.69587 Y3.68996
X3.69687 Y3.68996
X3.69687 Y3.69396
X3.69787 Y3.69396
X3.69787 Y3.69696
X3.69887 Y3.69696
X3.69887 Y3.69996
X3.69987 Y3.69996
X3.69987 Y3.70196
X3.70087 Y3.70196
X3.70087 Y3.72496
X3.43487 Y3.72496
X3.43487 Y3.71496
X3.43387 Y3.71496
X3.43387 Y3.71396
G04 P0 ( dwell for no time -- G64 should not smooth over this point )
G00 Z0.15000 ( retract )

G00 X4.21787 Y3.71296 ( rapid move to begin. )
G01 Z-0.00500 F4.00000 ( plunge. )
G04 P0 ( dwell for no time -- G64 should not smooth over this point )
X4.21787 Y3.71296
X4.21787 Y3.64196
X4.23187 Y3.64196
X4.23187 Y3.60696
X4.21787 Y3.60696
X4.21787 Y3.46396
X4.29987 Y3.46396
X4.29987 Y3.60696
X4.28387 Y3.60696
X4.28387 Y3.64196
X4.29987 Y3.64196
X4.29987 Y3.72396
X4.21787 Y3.72396
X4.21787 Y3.71296
G04 P0 ( dwell for no time -- G64 should not smooth over this point )
G00 Z0.15000 ( retract )

G00 X4.11787 Y3.71296 ( rapid move to begin. )
G01 Z-0.00500 F4.00000 ( plunge. )
G04 P0 ( dwell for no time -- G64 should not smooth over this point )
X4.11787 Y3.71296
X4.11787 Y3.70796
X4.09987 Y3.70796
X4.09987 Y3.72396
X4.01787 Y3.72396
X4.01787 Y3.64196
X4.09987 Y3.64196
X4.09987 Y3.65596
X4.11787 Y3.65596
X4.11787 Y3.64196
X4.19987 Y3.64196
X4.19987 Y3.72396
X4.11787 Y3.72396
X4.11787 Y3.71296
G04 P0 ( dwell for no time -- G64 should not smooth over this point )
G00 Z0.15000 ( retract )

G00 X3.71787 Y3.71296 ( rapid move to begin. )
G01 Z-0.00500 F4.00000 ( plunge. )
G04 P0 ( dwell for no time -- G64 should not smooth over this point )
X3.71787 Y3.71296
X3.71787 Y3.64196
X3.73187 Y3.64196
X3.73187 Y3.60696
X3.71787 Y3.60696
X3.71787 Y3.46396
X3.79987 Y3.46396
X3.79987 Y3.60696
X3.78387 Y3.60696
X3.78387 Y3.64196
X3.79987 Y3.64196
X3.79987 Y3.72396
X3.71787 Y3.72396
X3.71787 Y3.71296
G04 P0 ( dwell for no time -- G64 should not smooth over this point )
G00 Z0.15000 ( retract )

G00 X4.51787 Y3.59596 ( rapid move to begin. )
G01 Z-0.00500 F4.00000 ( plunge. )
G04 P0 ( dwell for no time -- G64 should not smooth over this point )
X4.51787 Y3.59596
X4.51787 Y3.46396
X4.59987 Y3.46396
X4.59987 Y3.60696
X4.51787 Y3.60696
X4.51787 Y3.59596
G04 P0 ( dwell for no time -- G64 should not smooth over this point )
G00 Z0.15000 ( retract )

G00 X4.41787 Y3.59596 ( rapid move to begin. )
G01 Z-0.00500 F4.00000 ( plunge. )
G04 P0 ( dwell for no time -- G64 should not smooth over this point )
X4.41787 Y3.59596
X4.41787 Y3.46396
X4.49987 Y3.46396
X4.49987 Y3.60696
X4.41787 Y3.60696
X4.41787 Y3.59596
G04 P0 ( dwell for no time -- G64 should not smooth over this point )
G00 Z0.15000 ( retract )

G00 X4.31787 Y3.59596 ( rapid move to begin. )
G01 Z-0.00500 F4.00000 ( plunge. )
G04 P0 ( dwell for no time -- G64 should not smooth over this point )
X4.31787 Y3.59596
X4.31787 Y3.46396
X4.39987 Y3.46396
X4.39987 Y3.60696
X4.31787 Y3.60696
X4.31787 Y3.59596
G04 P0 ( dwell for no time -- G64 should not smooth over this point )
G00 Z0.15000 ( retract )

G00 X4.11787 Y3.59596 ( rapid move to begin. )
G01 Z-0.00500 F4.00000 ( plunge. )
G04 P0 ( dwell for no time -- G64 should not smooth over this point )
X4.11787 Y3.59596
X4.11787 Y3.46396
X4.19987 Y3.46396
X4.19987 Y3.60696
X4.11787 Y3.60696
X4.11787 Y3.59596
G04 P0 ( dwell for no time -- G64 should not smooth over this point )
G00 Z0.15000 ( retract )

G00 X4.01787 Y3.59596 ( rapid move to begin. )
G01 Z-0.00500 F4.00000 ( plunge. )
G04 P0 ( dwell for no time -- G64 should not smooth over this point )
X4.01787 Y3.59596
X4.01787 Y3.46396
X4.09987 Y3.46396
X4.09987 Y3.60696
X4.01787 Y3.60696
X4.01787 Y3.59596
G04 P0 ( dwell for no time -- G64 should not smooth over this point )
G00 Z0.15000 ( retract )

G00 X3.91787 Y3.59596 ( rapid move to begin. )
G01 Z-0.00500 F4.00000 ( plunge. )
G04 P0 ( dwell for no time -- G64 should not smooth over this point )
X3.91787 Y3.59596
X3.91787 Y3.46396
X3.99987 Y3.46396
X3.99987 Y3.60696
X3.91787 Y3.60696
X3.91787 Y3.59596
G04 P0 ( dwell for no time -- G64 should not smooth over this point )
G00 Z0.15000 ( retract )

G00 X3.81787 Y3.59596 ( rapid move to begin. )
G01 Z-0.00500 F4.00000 ( plunge. )
G04 P0 ( dwell for no time -- G64 should not smooth over this point )
X3.81787 Y3.59596
X3.81787 Y3.46396
X3.89987 Y3.46396
X3.89987 Y3.60696
X3.81787 Y3.60696
X3.81787 Y3.59596
G04 P0 ( dwell for no time -- G64 should not smooth over this point )
G00 Z0.15000 ( retract )

G00 X3.61787 Y3.59596 ( rapid move to begin. )
G01 Z-0.00500 F4.00000 ( plunge. )
G04 P0 ( dwell for no time -- G64 should not smooth over this point )
X3.61787 Y3.59596
X3.61787 Y3.46396
X3.69987 Y3.46396
X3.69987 Y3.60696
X3.61787 Y3.60696
X3.61787 Y3.59596
G04 P0 ( dwell for no time -- G64 should not smooth over this point )
G00 Z0.15000 ( retract )

G00 X3.51787 Y3.59596 ( rapid move to begin. )
G01 Z-0.00500 F4.00000 ( plunge. )
G04 P0 ( dwell for no time -- G64 should not smooth over this point )
X3.51787 Y3.59596
X3.51787 Y3.46396
X3.59987 Y3.46396
X3.59987 Y3.60696
X3.51787 Y3.60696
X3.51787 Y3.59596
G04 P0 ( dwell for no time -- G64 should not smooth over this point )
G00 Z0.15000 ( retract )

G00 X3.41787 Y3.59596 ( rapid move to begin. )
G01 Z-0.00500 F4.00000 ( plunge. )
G04 P0 ( dwell for no time -- G64 should not smooth over this point )
X3.41787 Y3.59596
X3.41787 Y3.46396
X3.49987 Y3.46396
X3.49987 Y3.60696
X3.41787 Y3.60696
X3.41787 Y3.59596
G04 P0 ( dwell for no time -- G64 should not smooth over this point )
G00 Z0.15000 ( retract )

G00 X3.43187 Y3.39496 ( rapid move to begin. )
G01 Z-0.00500 F4.00000 ( plunge. )
G04 P0 ( dwell for no time -- G64 should not smooth over this point )
X3.43187 Y3.39496
X3.43187 Y3.29196
X3.43087 Y3.29196
X3.43087 Y3.15096
X3.42987 Y3.15096
X3.42987 Y3.06496
X4.61987 Y3.06496
X4.61987 Y3.40596
X3.43187 Y3.40596
X3.43187 Y3.39496
G04 P0 ( dwell for no time -- G64 should not smooth over this point )
G00 Z0.15000 ( retract )

G00 X6.55787 Y3.04196 ( rapid move to begin. )
G01 Z-0.00500 F4.00000 ( plunge. )
G04 P0 ( dwell for no time -- G64 should not smooth over this point )
X6.55787 Y3.04196
X6.55787 Y1.82796
X6.55887 Y1.82796
X6.55887 Y1.82696
X6.55987 Y1.82696
X6.55987 Y1.82596
X6.61987 Y1.82596
X6.61987 Y1.82896
X6.62087 Y1.82896
X6.62087 Y1.84996
X6.61987 Y1.84996
X6.61987 Y1.85296
X6.58487 Y1.85296
X6.58487 Y3.02596
X7.75787 Y3.02596
X7.75787 Y1.85296
X6.71587 Y1.85296
X6.71587 Y1.85196
X6.71487 Y1.85196
X6.71487 Y1.85096
X6.71387 Y1.85096
X6.71387 Y1.82796
X6.71487 Y1.82796
X6.71487 Y1.82696
X6.71587 Y1.82696
X6.71587 Y1.82596
X7.78287 Y1.82596
X7.78287 Y1.82696
X7.78387 Y1.82696
X7.78387 Y1.82796
X7.78487 Y1.82796
X7.78487 Y3.05096
X7.78387 Y3.05096
X7.78387 Y3.05196
X7.78287 Y3.05196
X7.78287 Y3.05296
X6.55987 Y3.05296
X6.55987 Y3.05196
X6.55887 Y3.05196
X6.55887 Y3.05096
X6.55787 Y3.05096
X6.55787 Y3.04196
G04 P0 ( dwell for no time -- G64 should not smooth over this point )
G00 Z0.15000 ( retract )

G00 X4.95787 Y3.04196 ( rapid move to begin. )
G01 Z-0.00500 F4.00000 ( plunge. )
G04 P0 ( dwell for no time -- G64 should not smooth over this point )
X4.95787 Y3.04196
X4.95787 Y2.07096
X4.95887 Y2.07096
X4.95887 Y2.06996
X4.95987 Y2.06996
X4.95987 Y2.06896
X4.98287 Y2.06896
X4.98287 Y2.06996
X4.98387 Y2.06996
X4.98387 Y2.07096
X4.98487 Y2.07096
X4.98487 Y3.02596
X6.15787 Y3.02596
X6.15787 Y1.85296
X4.98487 Y1.85296
X4.98487 Y1.97596
X4.98387 Y1.97596
X4.98387 Y1.97696
X4.98287 Y1.97696
X4.98287 Y1.97796
X4.95987 Y1.97796
X4.95987 Y1.97696
X4.95887 Y1.97696
X4.95887 Y1.97596
X4.95787 Y1.97596
X4.95787 Y1.82796
X4.95887 Y1.82796
X4.95887 Y1.82696
X4.95987 Y1.82696
X4.95987 Y1.82596
X6.18287 Y1.82596
X6.18287 Y1.82696
X6.18387 Y1.82696
X6.18387 Y1.82796
X6.18487 Y1.82796
X6.18487 Y3.05096
X6.18387 Y3.05096
X6.18387 Y3.05196
X6.18287 Y3.05196
X6.18287 Y3.05296
X4.95987 Y3.05296
X4.95987 Y3.05196
X4.95887 Y3.05196
X4.95887 Y3.05096
X4.95787 Y3.05096
X4.95787 Y3.04196
G04 P0 ( dwell for no time -- G64 should not smooth over this point )
G00 Z0.15000 ( retract )

G00 X1.90787 Y3.04196 ( rapid move to begin. )
G01 Z-0.00500 F4.00000 ( plunge. )
G04 P0 ( dwell for no time -- G64 should not smooth over this point )
X1.90787 Y3.04196
X1.90787 Y1.82796
X1.90887 Y1.82796
X1.90887 Y1.82696
X1.90987 Y1.82696
X1.90987 Y1.82596
X3.13287 Y1.82596
X3.13287 Y1.82696
X3.13387 Y1.82696
X3.13387 Y1.82796
X3.13487 Y1.82796
X3.13487 Y1.98196
X3.13387 Y1.98196
X3.13387 Y1.98296
X3.13287 Y1.98296
X3.13287 Y1.98396
X3.10987 Y1.98396
X3.10987 Y1.98296
X3.10887 Y1.98296
X3.10887 Y1.98196
X3.10787 Y1.98196
X3.10787 Y1.85296
X1.93487 Y1.85296
X1.93487 Y3.02596
X3.10787 Y3.02596
X3.10787 Y2.07096
X3.10887 Y2.07096
X3.10887 Y2.06996
X3.10987 Y2.06996
X3.10987 Y2.06896
X3.13287 Y2.06896
X3.13287 Y2.06996
X3.13387 Y2.06996
X3.13387 Y2.07096
X3.13487 Y2.07096
X3.13487 Y3.05096
X3.13387 Y3.05096
X3.13387 Y3.05196
X3.13287 Y3.05196
X3.13287 Y3.05296
X1.90987 Y3.05296
X1.90987 Y3.05196
X1.90887 Y3.05196
X1.90887 Y3.05096
X1.90787 Y3.05096
X1.90787 Y3.04196
G04 P0 ( dwell for no time -- G64 should not smooth over this point )
G00 Z0.15000 ( retract )

G00 X0.30787 Y3.04196 ( rapid move to begin. )
G01 Z-0.00500 F4.00000 ( plunge. )
G04 P0 ( dwell for no time -- G64 should not smooth over this point )
X0.30787 Y3.04196
X0.30787 Y1.82796
X0.30887 Y1.82796
X0.30887 Y1.82696
X0.30987 Y1.82696
X0.30987 Y1.82596
X1.37687 Y1.82596
X1.37687 Y1.82696
X1.37787 Y1.82696
X1.37787 Y1.82796
X1.37887 Y1.82796
X1.37887 Y1.85096
X1.37787 Y1.85096
X1.37787 Y1.85196
X1.37687 Y1.85196
X1.37687 Y1.85296
X0.33487 Y1.85296
X0.33487 Y3.02596
X1.50787 Y3.02596
X1.50787 Y1.85296
X1.47187 Y1.85296
X1.47187 Y1.85196
X1.47087 Y1.85196
X1.47087 Y1.85096
X1.46987 Y1.85096
X1.46987 Y1.82796
X1.47087 Y1.82796
X1.47087 Y1.82696
X1.47187 Y1.82696
X1.47187 Y1.82596
X1.53287 Y1.82596
X1.53287 Y1.82696
X1.53387 Y1.82696
X1.53387 Y1.82796
X1.53487 Y1.82796
X1.53487 Y3.05096
X1.53387 Y3.05096
X1.53387 Y3.05196
X1.53287 Y3.05196
X1.53287 Y3.05296
X0.30987 Y3.05296
X0.30987 Y3.05196
X0.30887 Y3.05196
X0.30887 Y3.05096
X0.30787 Y3.05096
X0.30787 Y3.04196
G04 P0 ( dwell for no time -- G64 should not smooth over this point )
G00 Z0.15000 ( retract )

G00 X4.51787 Y2.99596 ( rapid move to begin. )
G01 Z-0.00500 F4.00000 ( plunge. )
G04 P0 ( dwell for no time -- G64 should not smooth over this point )
X4.51787 Y2.99596
X4.51787 Y2.86396
X4.59987 Y2.86396
X4.59987 Y3.00696
X4.51787 Y3.00696
X4.51787 Y2.99596
G04 P0 ( dwell for no time -- G64 should not smooth over this point )
G00 Z0.15000 ( retract )

G00 X4.41787 Y2.99596 ( rapid move to begin. )
G01 Z-0.00500 F4.00000 ( plunge. )
G04 P0 ( dwell for no time -- G64 should not smooth over this point )
X4.41787 Y2.99596
X4.41787 Y2.86396
X4.49987 Y2.86396
X4.49987 Y3.00696
X4.41787 Y3.00696
X4.41787 Y2.99596
G04 P0 ( dwell for no time -- G64 should not smooth over this point )
G00 Z0.15000 ( retract )

G00 X4.31787 Y2.99596 ( rapid move to begin. )
G01 Z-0.00500 F4.00000 ( plunge. )
G04 P0 ( dwell for no time -- G64 should not smooth over this point )
X4.31787 Y2.99596
X4.31787 Y2.87196
X4.31687 Y2.87196
X4.31687 Y2.87096
X4.31587 Y2.87096
X4.31587 Y2.86996
X4.31487 Y2.86996
X4.31487 Y2.86896
X4.31387 Y2.86896
X4.31387 Y2.86796
X4.31287 Y2.86796
X4.31287 Y2.86696
X4.31187 Y2.86696
X4.31187 Y2.86596
X4.31087 Y2.86596
X4.31087 Y2.86496
X4.30987 Y2.86496
X4.30987 Y2.86396
X4.30887 Y2.86396
X4.30887 Y2.86296
X4.30787 Y2.86296
X4.30787 Y2.86196
X4.30687 Y2.86196
X4.30687 Y2.86096
X4.30587 Y2.86096
X4.30587 Y2.85996
X4.30487 Y2.85996
X4.30487 Y2.85896
X4.30387 Y2.85896
X4.30387 Y2.85796
X4.30287 Y2.85796
X4.30287 Y2.85696
X4.30187 Y2.85696
X4.30187 Y2.85596
X4.30087 Y2.85596
X4.30087 Y2.85496
X4.29987 Y2.85496
X4.29987 Y2.85396
X4.29887 Y2.85396
X4.29887 Y2.85296
X4.29787 Y2.85296
X4.29787 Y2.85196
X4.29687 Y2.85196
X4.29687 Y2.85096
X4.29587 Y2.85096
X4.29587 Y2.84996
X4.29487 Y2.84996
X4.29487 Y2.84896
X4.29387 Y2.84896
X4.29387 Y2.84796
X4.29287 Y2.84796
X4.29287 Y2.84696
X4.29187 Y2.84696
X4.29187 Y2.84596
X4.29087 Y2.84596
X4.29087 Y2.84496
X4.28987 Y2.84496
X4.28987 Y2.84396
X4.28887 Y2.84396
X4.28887 Y2.84296
X4.28787 Y2.84296
X4.28787 Y2.84196
X4.28687 Y2.84196
X4.28687 Y2.84096
X4.28587 Y2.84096
X4.28587 Y2.83996
X4.28487 Y2.83996
X4.28487 Y2.83896
X4.28387 Y2.83896
X4.28387 Y2.83796
X4.28287 Y2.83796
X4.28287 Y2.83696
X4.28187 Y2.83696
X4.28187 Y2.83596
X4.28087 Y2.83596
X4.28087 Y2.83496
X4.27987 Y2.83496
X4.27987 Y2.83396
X4.27887 Y2.83396
X4.27887 Y2.83296
X4.27787 Y2.83296
X4.27787 Y2.83196
X4.27687 Y2.83196
X4.27687 Y2.83096
X4.27587 Y2.83096
X4.27587 Y2.82996
X4.27487 Y2.82996
X4.27487 Y2.82896
X4.27387 Y2.82896
X4.27387 Y2.82796
X4.27287 Y2.82796
X4.27287 Y2.82696
X4.27187 Y2.82696
X4.27187 Y2.82596
X4.27087 Y2.82596
X4.27087 Y2.82496
X4.26987 Y2.82496
X4.26987 Y2.82396
X4.26887 Y2.82396
X4.26887 Y2.82296
X4.26787 Y2.82296
X4.26787 Y2.82196
X4.26687 Y2.82196
X4.26687 Y2.82096
X4.26587 Y2.82096
X4.26587 Y2.81996
X4.26487 Y2.81996
X4.26487 Y2.81896
X4.26387 Y2.81896
X4.26387 Y2.81796
X4.26287 Y2.81796
X4.26287 Y2.81696
X4.26187 Y2.81696
X4.26187 Y2.81596
X4.26087 Y2.81596
X4.26087 Y2.81496
X4.25987 Y2.81496
X4.25987 Y2.81396
X4.25887 Y2.81396
X4.25887 Y2.81296
X4.25787 Y2.81296
X4.25787 Y2.81196
X4.25687 Y2.81196
X4.25687 Y2.81096
X4.25587 Y2.81096
X4.25587 Y2.80996
X4.25487 Y2.80996
X4.25487 Y2.80896
X4.25387 Y2.80896
X4.25387 Y2.80796
X4.25287 Y2.80796
X4.25287 Y2.80696
X4.25187 Y2.80696
X4.25187 Y2.80596
X4.25087 Y2.80596
X4.25087 Y2.80496
X4.24987 Y2.80496
X4.24987 Y2.80396
X4.24887 Y2.80396
X4.24887 Y2.80296
X4.24787 Y2.80296
X4.24787 Y2.80196
X4.24687 Y2.80196
X4.24687 Y2.80096
X4.24587 Y2.80096
X4.24587 Y2.79996
X4.24487 Y2.79996
X4.24487 Y2.79896
X4.24387 Y2.79896
X4.24387 Y2.79796
X4.24287 Y2.79796
X4.24287 Y2.79696
X4.24187 Y2.79696
X4.24187 Y2.79596
X4.24087 Y2.79596
X4.24087 Y2.79496
X4.23987 Y2.79496
X4.23987 Y2.79396
X4.23887 Y2.79396
X4.23887 Y2.79296
X4.23787 Y2.79296
X4.23787 Y2.79196
X4.23687 Y2.79196
X4.23687 Y2.79096
X4.23587 Y2.79096
X4.23587 Y2.78996
X4.23487 Y2.78996
X4.23487 Y2.78896
X4.23387 Y2.78896
X4.23387 Y2.78796
X4.23287 Y2.78796
X4.23287 Y2.78696
X4.23187 Y2.78696
X4.23187 Y2.78596
X4.23087 Y2.78596
X4.23087 Y2.78496
X4.22987 Y2.78496
X4.22987 Y2.78396
X4.22887 Y2.78396
X4.22887 Y2.78296
X4.22787 Y2.78296
X4.22787 Y2.78096
X4.22687 Y2.78096
X4.22687 Y2.77696
X4.22587 Y2.77696
X4.22587 Y2.75596
X4.21987 Y2.75596
X4.21987 Y2.61296
X4.30187 Y2.61296
X4.30187 Y2.75596
X4.28787 Y2.75596
X4.28787 Y2.75696
X4.28887 Y2.75696
X4.28887 Y2.75796
X4.28987 Y2.75796
X4.28987 Y2.75896
X4.29087 Y2.75896
X4.29087 Y2.75996
X4.29187 Y2.75996
X4.29187 Y2.76096
X4.29287 Y2.76096
X4.29287 Y2.76196
X4.29387 Y2.76196
X4.29387 Y2.76296
X4.29487 Y2.76296
X4.29487 Y2.76396
X4.29587 Y2.76396
X4.29587 Y2.76496
X4.29687 Y2.76496
X4.29687 Y2.76596
X4.29787 Y2.76596
X4.29787 Y2.76696
X4.29887 Y2.76696
X4.29887 Y2.76796
X4.29987 Y2.76796
X4.29987 Y2.76896
X4.30087 Y2.76896
X4.30087 Y2.76996
X4.30187 Y2.76996
X4.30187 Y2.77096
X4.30287 Y2.77096
X4.30287 Y2.77196
X4.30387 Y2.77196
X4.30387 Y2.77296
X4.30487 Y2.77296
X4.30487 Y2.77396
X4.30587 Y2.77396
X4.30587 Y2.77496
X4.30687 Y2.77496
X4.30687 Y2.77596
X4.30787 Y2.77596
X4.30787 Y2.77696
X4.30887 Y2.77696
X4.30887 Y2.77796
X4.30987 Y2.77796
X4.30987 Y2.77896
X4.31087 Y2.77896
X4.31087 Y2.77996
X4.31187 Y2.77996
X4.31187 Y2.78096
X4.31287 Y2.78096
X4.31287 Y2.78196
X4.31387 Y2.78196
X4.31387 Y2.78296
X4.31487 Y2.78296
X4.31487 Y2.78396
X4.31587 Y2.78396
X4.31587 Y2.78496
X4.31687 Y2.78496
X4.31687 Y2.78596
X4.31787 Y2.78596
X4.31787 Y2.78696
X4.31887 Y2.78696
X4.31887 Y2.78796
X4.31987 Y2.78796
X4.31987 Y2.78896
X4.32087 Y2.78896
X4.32087 Y2.78996
X4.32187 Y2.78996
X4.32187 Y2.79096
X4.32287 Y2.79096
X4.32287 Y2.79196
X4.32387 Y2.79196
X4.32387 Y2.79296
X4.32487 Y2.79296
X4.32487 Y2.79396
X4.32587 Y2.79396
X4.32587 Y2.79496
X4.32687 Y2.79496
X4.32687 Y2.79596
X4.32787 Y2.79596
X4.32787 Y2.79696
X4.32887 Y2.79696
X4.32887 Y2.79796
X4.32987 Y2.79796
X4.32987 Y2.79896
X4.33087 Y2.79896
X4.33087 Y2.79996
X4.33187 Y2.79996
X4.33187 Y2.80096
X4.33287 Y2.80096
X4.33287 Y2.80196
X4.33387 Y2.80196
X4.33387 Y2.80296
X4.33487 Y2.80296
X4.33487 Y2.80396
X4.33587 Y2.80396
X4.33587 Y2.80496
X4.33687 Y2.80496
X4.33687 Y2.80596
X4.33787 Y2.80596
X4.33787 Y2.80696
X4.33887 Y2.80696
X4.33887 Y2.80796
X4.33987 Y2.80796
X4.33987 Y2.80896
X4.34087 Y2.80896
X4.34087 Y2.80996
X4.34187 Y2.80996
X4.34187 Y2.81096
X4.34287 Y2.81096
X4.34287 Y2.81196
X4.34387 Y2.81196
X4.34387 Y2.81296
X4.34487 Y2.81296
X4.34487 Y2.81396
X4.34587 Y2.81396
X4.34587 Y2.81496
X4.34687 Y2.81496
X4.34687 Y2.81596
X4.34787 Y2.81596
X4.34787 Y2.81696
X4.34887 Y2.81696
X4.34887 Y2.81796
X4.34987 Y2.81796
X4.34987 Y2.81896
X4.35087 Y2.81896
X4.35087 Y2.81996
X4.35187 Y2.81996
X4.35187 Y2.82096
X4.35287 Y2.82096
X4.35287 Y2.82196
X4.35387 Y2.82196
X4.35387 Y2.82296
X4.35487 Y2.82296
X4.35487 Y2.82396
X4.35587 Y2.82396
X4.35587 Y2.82496
X4.35687 Y2.82496
X4.35687 Y2.82596
X4.35787 Y2.82596
X4.35787 Y2.82696
X4.35887 Y2.82696
X4.35887 Y2.82796
X4.35987 Y2.82796
X4.35987 Y2.82896
X4.36087 Y2.82896
X4.36087 Y2.82996
X4.36187 Y2.82996
X4.36187 Y2.83096
X4.36287 Y2.83096
X4.36287 Y2.83196
X4.36387 Y2.83196
X4.36387 Y2.83296
X4.36487 Y2.83296
X4.36487 Y2.83396
X4.36587 Y2.83396
X4.36587 Y2.83496
X4.36687 Y2.83496
X4.36687 Y2.83596
X4.36787 Y2.83596
X4.36787 Y2.83696
X4.36887 Y2.83696
X4.36887 Y2.83796
X4.36987 Y2.83796
X4.36987 Y2.83896
X4.37087 Y2.83896
X4.37087 Y2.83996
X4.37187 Y2.83996
X4.37187 Y2.84096
X4.37287 Y2.84096
X4.37287 Y2.84196
X4.37387 Y2.84196
X4.37387 Y2.84296
X4.37487 Y2.84296
X4.37487 Y2.84396
X4.37587 Y2.84396
X4.37587 Y2.84496
X4.37687 Y2.84496
X4.37687 Y2.84596
X4.37787 Y2.84596
X4.37787 Y2.84696
X4.37887 Y2.84696
X4.37887 Y2.84796
X4.37987 Y2.84796
X4.37987 Y2.84896
X4.38087 Y2.84896
X4.38087 Y2.84996
X4.38187 Y2.84996
X4.38187 Y2.85096
X4.38287 Y2.85096
X4.38287 Y2.85296
X4.38387 Y2.85296
X4.38387 Y2.85696
X4.38487 Y2.85696
X4.38487 Y2.86396
X4.39987 Y2.86396
X4.39987 Y3.00696
X4.31787 Y3.00696
X4.31787 Y2.99596
G04 P0 ( dwell for no time -- G64 should not smooth over this point )
G00 Z0.15000 ( retract )

G00 X4.21787 Y2.99596 ( rapid move to begin. )
G01 Z-0.00500 F4.00000 ( plunge. )
G04 P0 ( dwell for no time -- G64 should not smooth over this point )
X4.21787 Y2.99596
X4.21787 Y2.86396
X4.29987 Y2.86396
X4.29987 Y3.00696
X4.21787 Y3.00696
X4.21787 Y2.99596
G04 P0 ( dwell for no time -- G64 should not smooth over this point )
G00 Z0.15000 ( retract )

G00 X4.11787 Y2.99596 ( rapid move to begin. )
G01 Z-0.00500 F4.00000 ( plunge. )
G04 P0 ( dwell for no time -- G64 should not smooth over this point )
X4.11787 Y2.99596
X4.11787 Y2.86396
X4.13287 Y2.86396
X4.13287 Y2.75596
X4.11987 Y2.75596
X4.11987 Y2.61296
X4.20187 Y2.61296
X4.20187 Y2.75596
X4.18487 Y2.75596
X4.18487 Y2.86396
X4.19987 Y2.86396
X4.19987 Y3.00696
X4.11787 Y3.00696
X4.11787 Y2.99596
G04 P0 ( dwell for no time -- G64 should not smooth over this point )
G00 Z0.15000 ( retract )

G00 X4.01787 Y2.99596 ( rapid move to begin. )
G01 Z-0.00500 F4.00000 ( plunge. )
G04 P0 ( dwell for no time -- G64 should not smooth over this point )
X4.01787 Y2.99596
X4.01787 Y2.86396
X4.02787 Y2.86396
X4.02787 Y2.86296
X4.02687 Y2.86296
X4.02687 Y2.86196
X4.02587 Y2.86196
X4.02587 Y2.86096
X4.02487 Y2.86096
X4.02487 Y2.85996
X4.02387 Y2.85996
X4.02387 Y2.85896
X4.02287 Y2.85896
X4.02287 Y2.85796
X4.02187 Y2.85796
X4.02187 Y2.85696
X4.02087 Y2.85696
X4.02087 Y2.85596
X4.01987 Y2.85596
X4.01987 Y2.85496
X4.01887 Y2.85496
X4.01887 Y2.85396
X4.01787 Y2.85396
X4.01787 Y2.85296
X4.01687 Y2.85296
X4.01687 Y2.85196
X4.01587 Y2.85196
X4.01587 Y2.85096
X4.01487 Y2.85096
X4.01487 Y2.84996
X4.01387 Y2.84996
X4.01387 Y2.84896
X4.01287 Y2.84896
X4.01287 Y2.84796
X4.01187 Y2.84796
X4.01187 Y2.84696
X4.01087 Y2.84696
X4.01087 Y2.84596
X4.00987 Y2.84596
X4.00987 Y2.84496
X4.00887 Y2.84496
X4.00887 Y2.84396
X4.00787 Y2.84396
X4.00787 Y2.84296
X4.00687 Y2.84296
X4.00687 Y2.84196
X4.00587 Y2.84196
X4.00587 Y2.84096
X4.00487 Y2.84096
X4.00487 Y2.83996
X4.00387 Y2.83996
X4.00387 Y2.83896
X4.00287 Y2.83896
X4.00287 Y2.83796
X4.00187 Y2.83796
X4.00187 Y2.83696
X4.00087 Y2.83696
X4.00087 Y2.83596
X3.99987 Y2.83596
X3.99987 Y2.83496
X3.99887 Y2.83496
X3.99887 Y2.83396
X3.99787 Y2.83396
X3.99787 Y2.83296
X3.99687 Y2.83296
X3.99687 Y2.83196
X3.99587 Y2.83196
X3.99587 Y2.83096
X3.99487 Y2.83096
X3.99487 Y2.82996
X3.99387 Y2.82996
X3.99387 Y2.82896
X3.99287 Y2.82896
X3.99287 Y2.82796
X3.99187 Y2.82796
X3.99187 Y2.82696
X3.99087 Y2.82696
X3.99087 Y2.82596
X3.98987 Y2.82596
X3.98987 Y2.82496
X3.98887 Y2.82496
X3.98887 Y2.82396
X3.98787 Y2.82396
X3.98787 Y2.82296
X3.98687 Y2.82296
X3.98687 Y2.82196
X3.98587 Y2.82196
X3.98587 Y2.82096
X3.98487 Y2.82096
X3.98487 Y2.81996
X3.98387 Y2.81996
X3.98387 Y2.81896
X3.98287 Y2.81896
X3.98287 Y2.81796
X3.98187 Y2.81796
X3.98187 Y2.81696
X3.98087 Y2.81696
X3.98087 Y2.81596
X3.97987 Y2.81596
X3.97987 Y2.81496
X3.97887 Y2.81496
X3.97887 Y2.81396
X3.97787 Y2.81396
X3.97787 Y2.81296
X3.97687 Y2.81296
X3.97687 Y2.81196
X3.97587 Y2.81196
X3.97587 Y2.81096
X3.97487 Y2.81096
X3.97487 Y2.80996
X3.97387 Y2.80996
X3.97387 Y2.80896
X3.97287 Y2.80896
X3.97287 Y2.80796
X3.97187 Y2.80796
X3.97187 Y2.80696
X3.97087 Y2.80696
X3.97087 Y2.80596
X3.96987 Y2.80596
X3.96987 Y2.80496
X3.96887 Y2.80496
X3.96887 Y2.80396
X3.96787 Y2.80396
X3.96787 Y2.80296
X3.96687 Y2.80296
X3.96687 Y2.80196
X3.96587 Y2.80196
X3.96587 Y2.80096
X3.96487 Y2.80096
X3.96487 Y2.79996
X3.96387 Y2.79996
X3.96387 Y2.79896
X3.96287 Y2.79896
X3.96287 Y2.79796
X3.96187 Y2.79796
X3.96187 Y2.79696
X3.96087 Y2.79696
X3.96087 Y2.79596
X3.95987 Y2.79596
X3.95987 Y2.79496
X3.95887 Y2.79496
X3.95887 Y2.79396
X3.95787 Y2.79396
X3.95787 Y2.79296
X3.95687 Y2.79296
X3.95687 Y2.79196
X3.95587 Y2.79196
X3.95587 Y2.79096
X3.95487 Y2.79096
X3.95487 Y2.78996
X3.95387 Y2.78996
X3.95387 Y2.78896
X3.95287 Y2.78896
X3.95287 Y2.78796
X3.95187 Y2.78796
X3.95187 Y2.78696
X3.95087 Y2.78696
X3.95087 Y2.78596
X3.94987 Y2.78596
X3.94987 Y2.78496
X3.94887 Y2.78496
X3.94887 Y2.78396
X3.94787 Y2.78396
X3.94787 Y2.78296
X3.94687 Y2.78296
X3.94687 Y2.78196
X3.94587 Y2.78196
X3.94587 Y2.78096
X3.94487 Y2.78096
X3.94487 Y2.77996
X3.94387 Y2.77996
X3.94387 Y2.77896
X3.94287 Y2.77896
X3.94287 Y2.77796
X3.94187 Y2.77796
X3.94187 Y2.77696
X3.94087 Y2.77696
X3.94087 Y2.77596
X3.93987 Y2.77596
X3.93987 Y2.77496
X3.93887 Y2.77496
X3.93887 Y2.77396
X3.93787 Y2.77396
X3.93787 Y2.77296
X3.93687 Y2.77296
X3.93687 Y2.77196
X3.93587 Y2.77196
X3.93587 Y2.76996
X3.93487 Y2.76996
X3.93487 Y2.76596
X3.93387 Y2.76596
X3.93387 Y2.75596
X3.91987 Y2.75596
X3.91987 Y2.61296
X4.00187 Y2.61296
X4.00187 Y2.75296
X4.00287 Y2.75296
X4.00287 Y2.75396
X4.00387 Y2.75396
X4.00387 Y2.75496
X4.00487 Y2.75496
X4.00487 Y2.75596
X4.00587 Y2.75596
X4.00587 Y2.75696
X4.00687 Y2.75696
X4.00687 Y2.75796
X4.00787 Y2.75796
X4.00787 Y2.75896
X4.00887 Y2.75896
X4.00887 Y2.75996
X4.00987 Y2.75996
X4.00987 Y2.76096
X4.01087 Y2.76096
X4.01087 Y2.76196
X4.01187 Y2.76196
X4.01187 Y2.76296
X4.01287 Y2.76296
X4.01287 Y2.76396
X4.01387 Y2.76396
X4.01387 Y2.76496
X4.01487 Y2.76496
X4.01487 Y2.76596
X4.01587 Y2.76596
X4.01587 Y2.76696
X4.01687 Y2.76696
X4.01687 Y2.76796
X4.01787 Y2.76796
X4.01787 Y2.76896
X4.01887 Y2.76896
X4.01887 Y2.76996
X4.01987 Y2.76996
X4.01987 Y2.77096
X4.02087 Y2.77096
X4.02087 Y2.77196
X4.02187 Y2.77196
X4.02187 Y2.77296
X4.02287 Y2.77296
X4.02287 Y2.77396
X4.02387 Y2.77396
X4.02387 Y2.77496
X4.02487 Y2.77496
X4.02487 Y2.77596
X4.02587 Y2.77596
X4.02587 Y2.77696
X4.02687 Y2.77696
X4.02687 Y2.77796
X4.02787 Y2.77796
X4.02787 Y2.77896
X4.02887 Y2.77896
X4.02887 Y2.77996
X4.02987 Y2.77996
X4.02987 Y2.78096
X4.03087 Y2.78096
X4.03087 Y2.78196
X4.03187 Y2.78196
X4.03187 Y2.78296
X4.03287 Y2.78296
X4.03287 Y2.78396
X4.03387 Y2.78396
X4.03387 Y2.78496
X4.03487 Y2.78496
X4.03487 Y2.78596
X4.03587 Y2.78596
X4.03587 Y2.78696
X4.03687 Y2.78696
X4.03687 Y2.78796
X4.03787 Y2.78796
X4.03787 Y2.78896
X4.03887 Y2.78896
X4.03887 Y2.78996
X4.03987 Y2.78996
X4.03987 Y2.79096
X4.04087 Y2.79096
X4.04087 Y2.79196
X4.04187 Y2.79196
X4.04187 Y2.79296
X4.04287 Y2.79296
X4.04287 Y2.79396
X4.04387 Y2.79396
X4.04387 Y2.79496
X4.04487 Y2.79496
X4.04487 Y2.79596
X4.04587 Y2.79596
X4.04587 Y2.79696
X4.04687 Y2.79696
X4.04687 Y2.79796
X4.04787 Y2.79796
X4.04787 Y2.79896
X4.04887 Y2.79896
X4.04887 Y2.79996
X4.04987 Y2.79996
X4.04987 Y2.80096
X4.05087 Y2.80096
X4.05087 Y2.80196
X4.05187 Y2.80196
X4.05187 Y2.80296
X4.05287 Y2.80296
X4.05287 Y2.80396
X4.05387 Y2.80396
X4.05387 Y2.80496
X4.05487 Y2.80496
X4.05487 Y2.80596
X4.05587 Y2.80596
X4.05587 Y2.80696
X4.05687 Y2.80696
X4.05687 Y2.80796
X4.05787 Y2.80796
X4.05787 Y2.80896
X4.05887 Y2.80896
X4.05887 Y2.80996
X4.05987 Y2.80996
X4.05987 Y2.81096
X4.06087 Y2.81096
X4.06087 Y2.81196
X4.06187 Y2.81196
X4.06187 Y2.81296
X4.06287 Y2.81296
X4.06287 Y2.81396
X4.06387 Y2.81396
X4.06387 Y2.81496
X4.06487 Y2.81496
X4.06487 Y2.81596
X4.06587 Y2.81596
X4.06587 Y2.81696
X4.06687 Y2.81696
X4.06687 Y2.81796
X4.06787 Y2.81796
X4.06787 Y2.81896
X4.06887 Y2.81896
X4.06887 Y2.81996
X4.06987 Y2.81996
X4.06987 Y2.82096
X4.07087 Y2.82096
X4.07087 Y2.82196
X4.07187 Y2.82196
X4.07187 Y2.82296
X4.07287 Y2.82296
X4.07287 Y2.82396
X4.07387 Y2.82396
X4.07387 Y2.82496
X4.07487 Y2.82496
X4.07487 Y2.82596
X4.07587 Y2.82596
X4.07587 Y2.82696
X4.07687 Y2.82696
X4.07687 Y2.82796
X4.07787 Y2.82796
X4.07787 Y2.82896
X4.07887 Y2.82896
X4.07887 Y2.82996
X4.07987 Y2.82996
X4.07987 Y2.83096
X4.08087 Y2.83096
X4.08087 Y2.83196
X4.08187 Y2.83196
X4.08187 Y2.83396
X4.08287 Y2.83396
X4.08287 Y2.83796
X4.08387 Y2.83796
X4.08387 Y2.86396
X4.09987 Y2.86396
X4.09987 Y3.00696
X4.01787 Y3.00696
X4.01787 Y2.99596
G04 P0 ( dwell for no time -- G64 should not smooth over this point )
G00 Z0.15000 ( retract )

G00 X3.91787 Y2.99596 ( rapid move to begin. )
G01 Z-0.00500 F4.00000 ( plunge. )
G04 P0 ( dwell for no time -- G64 should not smooth over this point )
X3.91787 Y2.99596
X3.91787 Y2.86396
X3.92787 Y2.86396
X3.92787 Y2.86296
X3.92687 Y2.86296
X3.92687 Y2.86196
X3.92587 Y2.86196
X3.92587 Y2.86096
X3.92487 Y2.86096
X3.92487 Y2.85996
X3.92387 Y2.85996
X3.92387 Y2.85896
X3.92287 Y2.85896
X3.92287 Y2.85796
X3.92187 Y2.85796
X3.92187 Y2.85696
X3.92087 Y2.85696
X3.92087 Y2.85596
X3.91987 Y2.85596
X3.91987 Y2.85496
X3.91887 Y2.85496
X3.91887 Y2.85396
X3.91787 Y2.85396
X3.91787 Y2.85296
X3.91687 Y2.85296
X3.91687 Y2.85196
X3.91587 Y2.85196
X3.91587 Y2.85096
X3.91487 Y2.85096
X3.91487 Y2.84996
X3.91387 Y2.84996
X3.91387 Y2.84896
X3.91287 Y2.84896
X3.91287 Y2.84796
X3.91187 Y2.84796
X3.91187 Y2.84696
X3.91087 Y2.84696
X3.91087 Y2.84596
X3.90987 Y2.84596
X3.90987 Y2.84496
X3.90887 Y2.84496
X3.90887 Y2.84396
X3.90787 Y2.84396
X3.90787 Y2.84296
X3.90687 Y2.84296
X3.90687 Y2.84196
X3.90587 Y2.84196
X3.90587 Y2.84096
X3.90487 Y2.84096
X3.90487 Y2.83996
X3.90387 Y2.83996
X3.90387 Y2.83896
X3.90287 Y2.83896
X3.90287 Y2.83796
X3.90187 Y2.83796
X3.90187 Y2.83696
X3.90087 Y2.83696
X3.90087 Y2.83596
X3.89987 Y2.83596
X3.89987 Y2.83496
X3.89887 Y2.83496
X3.89887 Y2.83396
X3.89787 Y2.83396
X3.89787 Y2.83296
X3.89687 Y2.83296
X3.89687 Y2.83196
X3.89587 Y2.83196
X3.89587 Y2.83096
X3.89487 Y2.83096
X3.89487 Y2.82996
X3.89387 Y2.82996
X3.89387 Y2.82896
X3.89287 Y2.82896
X3.89287 Y2.82796
X3.89187 Y2.82796
X3.89187 Y2.82696
X3.89087 Y2.82696
X3.89087 Y2.82596
X3.88987 Y2.82596
X3.88987 Y2.82496
X3.88887 Y2.82496
X3.88887 Y2.82396
X3.88787 Y2.82396
X3.88787 Y2.82296
X3.88687 Y2.82296
X3.88687 Y2.82196
X3.88587 Y2.82196
X3.88587 Y2.82096
X3.88487 Y2.82096
X3.88487 Y2.81996
X3.88387 Y2.81996
X3.88387 Y2.81896
X3.88287 Y2.81896
X3.88287 Y2.81796
X3.88187 Y2.81796
X3.88187 Y2.81696
X3.88087 Y2.81696
X3.88087 Y2.81596
X3.87987 Y2.81596
X3.87987 Y2.81496
X3.87887 Y2.81496
X3.87887 Y2.81396
X3.87787 Y2.81396
X3.87787 Y2.81296
X3.87687 Y2.81296
X3.87687 Y2.81196
X3.87587 Y2.81196
X3.87587 Y2.81096
X3.87487 Y2.81096
X3.87487 Y2.80996
X3.87387 Y2.80996
X3.87387 Y2.80896
X3.87287 Y2.80896
X3.87287 Y2.80796
X3.87187 Y2.80796
X3.87187 Y2.80696
X3.87087 Y2.80696
X3.87087 Y2.80596
X3.86987 Y2.80596
X3.86987 Y2.80496
X3.86887 Y2.80496
X3.86887 Y2.80396
X3.86787 Y2.80396
X3.86787 Y2.80296
X3.86687 Y2.80296
X3.86687 Y2.80196
X3.86587 Y2.80196
X3.86587 Y2.80096
X3.86487 Y2.80096
X3.86487 Y2.79996
X3.86387 Y2.79996
X3.86387 Y2.79896
X3.86287 Y2.79896
X3.86287 Y2.79796
X3.86187 Y2.79796
X3.86187 Y2.79696
X3.86087 Y2.79696
X3.86087 Y2.79596
X3.85987 Y2.79596
X3.85987 Y2.79496
X3.85887 Y2.79496
X3.85887 Y2.79396
X3.85787 Y2.79396
X3.85787 Y2.79296
X3.85687 Y2.79296
X3.85687 Y2.79196
X3.85587 Y2.79196
X3.85587 Y2.79096
X3.85487 Y2.79096
X3.85487 Y2.78996
X3.85387 Y2.78996
X3.85387 Y2.78896
X3.85287 Y2.78896
X3.85287 Y2.78796
X3.85187 Y2.78796
X3.85187 Y2.78696
X3.85087 Y2.78696
X3.85087 Y2.78596
X3.84987 Y2.78596
X3.84987 Y2.78496
X3.84887 Y2.78496
X3.84887 Y2.78396
X3.84787 Y2.78396
X3.84787 Y2.78296
X3.84687 Y2.78296
X3.84687 Y2.78196
X3.84587 Y2.78196
X3.84587 Y2.78096
X3.84487 Y2.78096
X3.84487 Y2.77996
X3.84387 Y2.77996
X3.84387 Y2.77896
X3.84287 Y2.77896
X3.84287 Y2.77796
X3.84187 Y2.77796
X3.84187 Y2.77696
X3.84087 Y2.77696
X3.84087 Y2.77596
X3.83987 Y2.77596
X3.83987 Y2.77496
X3.83887 Y2.77496
X3.83887 Y2.77396
X3.83787 Y2.77396
X3.83787 Y2.77296
X3.83687 Y2.77296
X3.83687 Y2.77196
X3.83587 Y2.77196
X3.83587 Y2.76996
X3.83487 Y2.76996
X3.83487 Y2.76596
X3.83387 Y2.76596
X3.83387 Y2.75596
X3.81987 Y2.75596
X3.81987 Y2.61296
X3.90187 Y2.61296
X3.90187 Y2.75296
X3.90287 Y2.75296
X3.90287 Y2.75396
X3.90387 Y2.75396
X3.90387 Y2.75496
X3.90487 Y2.75496
X3.90487 Y2.75596
X3.90587 Y2.75596
X3.90587 Y2.75696
X3.90687 Y2.75696
X3.90687 Y2.75796
X3.90787 Y2.75796
X3.90787 Y2.75896
X3.90887 Y2.75896
X3.90887 Y2.75996
X3.90987 Y2.75996
X3.90987 Y2.76096
X3.91087 Y2.76096
X3.91087 Y2.76196
X3.91187 Y2.76196
X3.91187 Y2.76296
X3.91287 Y2.76296
X3.91287 Y2.76396
X3.91387 Y2.76396
X3.91387 Y2.76496
X3.91487 Y2.76496
X3.91487 Y2.76596
X3.91587 Y2.76596
X3.91587 Y2.76696
X3.91687 Y2.76696
X3.91687 Y2.76796
X3.91787 Y2.76796
X3.91787 Y2.76896
X3.91887 Y2.76896
X3.91887 Y2.76996
X3.91987 Y2.76996
X3.91987 Y2.77096
X3.92087 Y2.77096
X3.92087 Y2.77196
X3.92187 Y2.77196
X3.92187 Y2.77296
X3.92287 Y2.77296
X3.92287 Y2.77396
X3.92387 Y2.77396
X3.92387 Y2.77496
X3.92487 Y2.77496
X3.92487 Y2.77596
X3.92587 Y2.77596
X3.92587 Y2.77696
X3.92687 Y2.77696
X3.92687 Y2.77796
X3.92787 Y2.77796
X3.92787 Y2.77896
X3.92887 Y2.77896
X3.92887 Y2.77996
X3.92987 Y2.77996
X3.92987 Y2.78096
X3.93087 Y2.78096
X3.93087 Y2.78196
X3.93187 Y2.78196
X3.93187 Y2.78296
X3.93287 Y2.78296
X3.93287 Y2.78396
X3.93387 Y2.78396
X3.93387 Y2.78496
X3.93487 Y2.78496
X3.93487 Y2.78596
X3.93587 Y2.78596
X3.93587 Y2.78696
X3.93687 Y2.78696
X3.93687 Y2.78796
X3.93787 Y2.78796
X3.93787 Y2.78896
X3.93887 Y2.78896
X3.93887 Y2.78996
X3.93987 Y2.78996
X3.93987 Y2.79096
X3.94087 Y2.79096
X3.94087 Y2.79196
X3.94187 Y2.79196
X3.94187 Y2.79296
X3.94287 Y2.79296
X3.94287 Y2.79396
X3.94387 Y2.79396
X3.94387 Y2.79496
X3.94487 Y2.79496
X3.94487 Y2.79596
X3.94587 Y2.79596
X3.94587 Y2.79696
X3.94687 Y2.79696
X3.94687 Y2.79796
X3.94787 Y2.79796
X3.94787 Y2.79896
X3.94887 Y2.79896
X3.94887 Y2.79996
X3.94987 Y2.79996
X3.94987 Y2.80096
X3.95087 Y2.80096
X3.95087 Y2.80196
X3.95187 Y2.80196
X3.95187 Y2.80296
X3.95287 Y2.80296
X3.95287 Y2.80396
X3.95387 Y2.80396
X3.95387 Y2.80496
X3.95487 Y2.80496
X3.95487 Y2.80596
X3.95587 Y2.80596
X3.95587 Y2.80696
X3.95687 Y2.80696
X3.95687 Y2.80796
X3.95787 Y2.80796
X3.95787 Y2.80896
X3.95887 Y2.80896
X3.95887 Y2.80996
X3.95987 Y2.80996
X3.95987 Y2.81096
X3.96087 Y2.81096
X3.96087 Y2.81196
X3.96187 Y2.81196
X3.96187 Y2.81296
X3.96287 Y2.81296
X3.96287 Y2.81396
X3.96387 Y2.81396
X3.96387 Y2.81496
X3.96487 Y2.81496
X3.96487 Y2.81596
X3.96587 Y2.81596
X3.96587 Y2.81696
X3.96687 Y2.81696
X3.96687 Y2.81796
X3.96787 Y2.81796
X3.96787 Y2.81896
X3.96887 Y2.81896
X3.96887 Y2.81996
X3.96987 Y2.81996
X3.96987 Y2.82096
X3.97087 Y2.82096
X3.97087 Y2.82196
X3.97187 Y2.82196
X3.97187 Y2.82296
X3.97287 Y2.82296
X3.97287 Y2.82396
X3.97387 Y2.82396
X3.97387 Y2.82496
X3.97487 Y2.82496
X3.97487 Y2.82596
X3.97587 Y2.82596
X3.97587 Y2.82696
X3.97687 Y2.82696
X3.97687 Y2.82796
X3.97787 Y2.82796
X3.97787 Y2.82896
X3.97887 Y2.82896
X3.97887 Y2.82996
X3.97987 Y2.82996
X3.97987 Y2.83096
X3.98087 Y2.83096
X3.98087 Y2.83196
X3.98187 Y2.83196
X3.98187 Y2.83396
X3.98287 Y2.83396
X3.98287 Y2.83796
X3.98387 Y2.83796
X3.98387 Y2.86396
X3.99987 Y2.86396
X3.99987 Y3.00696
X3.91787 Y3.00696
X3.91787 Y2.99596
G04 P0 ( dwell for no time -- G64 should not smooth over this point )
G00 Z0.15000 ( retract )

G00 X3.81787 Y2.99596 ( rapid move to begin. )
G01 Z-0.00500 F4.00000 ( plunge. )
G04 P0 ( dwell for no time -- G64 should not smooth over this point )
X3.81787 Y2.99596
X3.81787 Y2.86396
X3.82787 Y2.86396
X3.82787 Y2.86296
X3.82687 Y2.86296
X3.82687 Y2.86196
X3.82587 Y2.86196
X3.82587 Y2.86096
X3.82487 Y2.86096
X3.82487 Y2.85996
X3.82387 Y2.85996
X3.82387 Y2.85896
X3.82287 Y2.85896
X3.82287 Y2.85796
X3.82187 Y2.85796
X3.82187 Y2.85696
X3.82087 Y2.85696
X3.82087 Y2.85596
X3.81987 Y2.85596
X3.81987 Y2.85496
X3.81887 Y2.85496
X3.81887 Y2.85396
X3.81787 Y2.85396
X3.81787 Y2.85296
X3.81687 Y2.85296
X3.81687 Y2.85196
X3.81587 Y2.85196
X3.81587 Y2.85096
X3.81487 Y2.85096
X3.81487 Y2.84996
X3.81387 Y2.84996
X3.81387 Y2.84896
X3.81287 Y2.84896
X3.81287 Y2.84796
X3.81187 Y2.84796
X3.81187 Y2.84696
X3.81087 Y2.84696
X3.81087 Y2.84596
X3.80987 Y2.84596
X3.80987 Y2.84496
X3.80887 Y2.84496
X3.80887 Y2.84396
X3.80787 Y2.84396
X3.80787 Y2.84296
X3.80687 Y2.84296
X3.80687 Y2.84196
X3.80587 Y2.84196
X3.80587 Y2.84096
X3.80487 Y2.84096
X3.80487 Y2.83996
X3.80387 Y2.83996
X3.80387 Y2.83896
X3.80287 Y2.83896
X3.80287 Y2.83796
X3.80187 Y2.83796
X3.80187 Y2.83696
X3.80087 Y2.83696
X3.80087 Y2.83596
X3.79987 Y2.83596
X3.79987 Y2.83496
X3.79887 Y2.83496
X3.79887 Y2.83396
X3.79787 Y2.83396
X3.79787 Y2.83296
X3.79687 Y2.83296
X3.79687 Y2.83196
X3.79587 Y2.83196
X3.79587 Y2.83096
X3.79487 Y2.83096
X3.79487 Y2.82996
X3.79387 Y2.82996
X3.79387 Y2.82896
X3.79287 Y2.82896
X3.79287 Y2.82796
X3.79187 Y2.82796
X3.79187 Y2.82696
X3.79087 Y2.82696
X3.79087 Y2.82596
X3.78987 Y2.82596
X3.78987 Y2.82496
X3.78887 Y2.82496
X3.78887 Y2.82396
X3.78787 Y2.82396
X3.78787 Y2.82296
X3.78687 Y2.82296
X3.78687 Y2.82196
X3.78587 Y2.82196
X3.78587 Y2.82096
X3.78487 Y2.82096
X3.78487 Y2.81996
X3.78387 Y2.81996
X3.78387 Y2.81896
X3.78287 Y2.81896
X3.78287 Y2.81796
X3.78187 Y2.81796
X3.78187 Y2.81696
X3.78087 Y2.81696
X3.78087 Y2.81596
X3.77987 Y2.81596
X3.77987 Y2.81496
X3.77887 Y2.81496
X3.77887 Y2.81396
X3.77787 Y2.81396
X3.77787 Y2.81296
X3.77687 Y2.81296
X3.77687 Y2.81196
X3.77587 Y2.81196
X3.77587 Y2.81096
X3.77487 Y2.81096
X3.77487 Y2.80996
X3.77387 Y2.80996
X3.77387 Y2.80896
X3.77287 Y2.80896
X3.77287 Y2.80796
X3.77187 Y2.80796
X3.77187 Y2.80696
X3.77087 Y2.80696
X3.77087 Y2.80596
X3.76987 Y2.80596
X3.76987 Y2.80496
X3.76887 Y2.80496
X3.76887 Y2.80396
X3.76787 Y2.80396
X3.76787 Y2.80296
X3.76687 Y2.80296
X3.76687 Y2.80196
X3.76587 Y2.80196
X3.76587 Y2.80096
X3.76487 Y2.80096
X3.76487 Y2.79996
X3.76387 Y2.79996
X3.76387 Y2.79896
X3.76287 Y2.79896
X3.76287 Y2.79796
X3.76187 Y2.79796
X3.76187 Y2.79696
X3.76087 Y2.79696
X3.76087 Y2.79596
X3.75987 Y2.79596
X3.75987 Y2.79496
X3.75887 Y2.79496
X3.75887 Y2.79396
X3.75787 Y2.79396
X3.75787 Y2.79296
X3.75687 Y2.79296
X3.75687 Y2.79196
X3.75587 Y2.79196
X3.75587 Y2.79096
X3.75487 Y2.79096
X3.75487 Y2.78996
X3.75387 Y2.78996
X3.75387 Y2.78896
X3.75287 Y2.78896
X3.75287 Y2.78796
X3.75187 Y2.78796
X3.75187 Y2.78696
X3.75087 Y2.78696
X3.75087 Y2.78596
X3.74987 Y2.78596
X3.74987 Y2.78496
X3.74887 Y2.78496
X3.74887 Y2.78396
X3.74787 Y2.78396
X3.74787 Y2.78296
X3.74687 Y2.78296
X3.74687 Y2.78196
X3.74587 Y2.78196
X3.74587 Y2.78096
X3.74487 Y2.78096
X3.74487 Y2.77996
X3.74387 Y2.77996
X3.74387 Y2.77896
X3.74287 Y2.77896
X3.74287 Y2.77796
X3.74187 Y2.77796
X3.74187 Y2.77696
X3.74087 Y2.77696
X3.74087 Y2.77596
X3.73987 Y2.77596
X3.73987 Y2.77496
X3.73887 Y2.77496
X3.73887 Y2.77396
X3.73787 Y2.77396
X3.73787 Y2.77296
X3.73687 Y2.77296
X3.73687 Y2.77196
X3.73587 Y2.77196
X3.73587 Y2.76996
X3.73487 Y2.76996
X3.73487 Y2.76596
X3.73387 Y2.76596
X3.73387 Y2.75596
X3.71987 Y2.75596
X3.71987 Y2.61296
X3.80187 Y2.61296
X3.80187 Y2.75296
X3.80287 Y2.75296
X3.80287 Y2.75396
X3.80387 Y2.75396
X3.80387 Y2.75496
X3.80487 Y2.75496
X3.80487 Y2.75596
X3.80587 Y2.75596
X3.80587 Y2.75696
X3.80687 Y2.75696
X3.80687 Y2.75796
X3.80787 Y2.75796
X3.80787 Y2.75896
X3.80887 Y2.75896
X3.80887 Y2.75996
X3.80987 Y2.75996
X3.80987 Y2.76096
X3.81087 Y2.76096
X3.81087 Y2.76196
X3.81187 Y2.76196
X3.81187 Y2.76296
X3.81287 Y2.76296
X3.81287 Y2.76396
X3.81387 Y2.76396
X3.81387 Y2.76496
X3.81487 Y2.76496
X3.81487 Y2.76596
X3.81587 Y2.76596
X3.81587 Y2.76696
X3.81687 Y2.76696
X3.81687 Y2.76796
X3.81787 Y2.76796
X3.81787 Y2.76896
X3.81887 Y2.76896
X3.81887 Y2.76996
X3.81987 Y2.76996
X3.81987 Y2.77096
X3.82087 Y2.77096
X3.82087 Y2.77196
X3.82187 Y2.77196
X3.82187 Y2.77296
X3.82287 Y2.77296
X3.82287 Y2.77396
X3.82387 Y2.77396
X3.82387 Y2.77496
X3.82487 Y2.77496
X3.82487 Y2.77596
X3.82587 Y2.77596
X3.82587 Y2.77696
X3.82687 Y2.77696
X3.82687 Y2.77796
X3.82787 Y2.77796
X3.82787 Y2.77896
X3.82887 Y2.77896
X3.82887 Y2.77996
X3.82987 Y2.77996
X3.82987 Y2.78096
X3.83087 Y2.78096
X3.83087 Y2.78196
X3.83187 Y2.78196
X3.83187 Y2.78296
X3.83287 Y2.78296
X3.83287 Y2.78396
X3.83387 Y2.78396
X3.83387 Y2.78496
X3.83487 Y2.78496
X3.83487 Y2.78596
X3.83587 Y2.78596
X3.83587 Y2.78696
X3.83687 Y2.78696
X3.83687 Y2.78796
X3.83787 Y2.78796
X3.83787 Y2.78896
X3.83887 Y2.78896
X3.83887 Y2.78996
X3.83987 Y2.78996
X3.83987 Y2.79096
X3.84087 Y2.79096
X3.84087 Y2.79196
X3.84187 Y2.79196
X3.84187 Y2.79296
X3.84287 Y2.79296
X3.84287 Y2.79396
X3.84387 Y2.79396
X3.84387 Y2.79496
X3.84487 Y2.79496
X3.84487 Y2.79596
X3.84587 Y2.79596
X3.84587 Y2.79696
X3.84687 Y2.79696
X3.84687 Y2.79796
X3.84787 Y2.79796
X3.84787 Y2.79896
X3.84887 Y2.79896
X3.84887 Y2.79996
X3.84987 Y2.79996
X3.84987 Y2.80096
X3.85087 Y2.80096
X3.85087 Y2.80196
X3.85187 Y2.80196
X3.85187 Y2.80296
X3.85287 Y2.80296
X3.85287 Y2.80396
X3.85387 Y2.80396
X3.85387 Y2.80496
X3.85487 Y2.80496
X3.85487 Y2.80596
X3.85587 Y2.80596
X3.85587 Y2.80696
X3.85687 Y2.80696
X3.85687 Y2.80796
X3.85787 Y2.80796
X3.85787 Y2.80896
X3.85887 Y2.80896
X3.85887 Y2.80996
X3.85987 Y2.80996
X3.85987 Y2.81096
X3.86087 Y2.81096
X3.86087 Y2.81196
X3.86187 Y2.81196
X3.86187 Y2.81296
X3.86287 Y2.81296
X3.86287 Y2.81396
X3.86387 Y2.81396
X3.86387 Y2.81496
X3.86487 Y2.81496
X3.86487 Y2.81596
X3.86587 Y2.81596
X3.86587 Y2.81696
X3.86687 Y2.81696
X3.86687 Y2.81796
X3.86787 Y2.81796
X3.86787 Y2.81896
X3.86887 Y2.81896
X3.86887 Y2.81996
X3.86987 Y2.81996
X3.86987 Y2.82096
X3.87087 Y2.82096
X3.87087 Y2.82196
X3.87187 Y2.82196
X3.87187 Y2.82296
X3.87287 Y2.82296
X3.87287 Y2.82396
X3.87387 Y2.82396
X3.87387 Y2.82496
X3.87487 Y2.82496
X3.87487 Y2.82596
X3.87587 Y2.82596
X3.87587 Y2.82696
X3.87687 Y2.82696
X3.87687 Y2.82796
X3.87787 Y2.82796
X3.87787 Y2.82896
X3.87887 Y2.82896
X3.87887 Y2.82996
X3.87987 Y2.82996
X3.87987 Y2.83096
X3.88087 Y2.83096
X3.88087 Y2.83196
X3.88187 Y2.83196
X3.88187 Y2.83396
X3.88287 Y2.83396
X3.88287 Y2.83796
X3.88387 Y2.83796
X3.88387 Y2.86396
X3.89987 Y2.86396
X3.89987 Y3.00696
X3.81787 Y3.00696
X3.81787 Y2.99596
G04 P0 ( dwell for no time -- G64 should not smooth over this point )
G00 Z0.15000 ( retract )

G00 X3.71787 Y2.99596 ( rapid move to begin. )
G01 Z-0.00500 F4.00000 ( plunge. )
G04 P0 ( dwell for no time -- G64 should not smooth over this point )
X3.71787 Y2.99596
X3.71787 Y2.86396
X3.79987 Y2.86396
X3.79987 Y3.00696
X3.71787 Y3.00696
X3.71787 Y2.99596
G04 P0 ( dwell for no time -- G64 should not smooth over this point )
G00 Z0.15000 ( retract )

G00 X3.61787 Y2.99596 ( rapid move to begin. )
G01 Z-0.00500 F4.00000 ( plunge. )
G04 P0 ( dwell for no time -- G64 should not smooth over this point )
X3.61787 Y2.99596
X3.61787 Y2.86396
X3.69987 Y2.86396
X3.69987 Y3.00696
X3.61787 Y3.00696
X3.61787 Y2.99596
G04 P0 ( dwell for no time -- G64 should not smooth over this point )
G00 Z0.15000 ( retract )

G00 X3.51787 Y2.99596 ( rapid move to begin. )
G01 Z-0.00500 F4.00000 ( plunge. )
G04 P0 ( dwell for no time -- G64 should not smooth over this point )
X3.51787 Y2.99596
X3.51787 Y2.86396
X3.53287 Y2.86396
X3.53287 Y2.33796
X3.53387 Y2.33796
X3.53387 Y2.33396
X3.53487 Y2.33396
X3.53487 Y2.33196
X3.53587 Y2.33196
X3.53587 Y2.33096
X3.53687 Y2.33096
X3.53687 Y2.32996
X3.53787 Y2.32996
X3.53787 Y2.32896
X3.53887 Y2.32896
X3.53887 Y2.32796
X3.53987 Y2.32796
X3.53987 Y2.32696
X3.54087 Y2.32696
X3.54087 Y2.32596
X3.54187 Y2.32596
X3.54187 Y2.32496
X3.54287 Y2.32496
X3.54287 Y2.32396
X3.54387 Y2.32396
X3.54387 Y2.32296
X3.54487 Y2.32296
X3.54487 Y2.32196
X3.54587 Y2.32196
X3.54587 Y2.32096
X3.54687 Y2.32096
X3.54687 Y2.31996
X3.54787 Y2.31996
X3.54787 Y2.31896
X3.54887 Y2.31896
X3.54887 Y2.31796
X3.54987 Y2.31796
X3.54987 Y2.31696
X3.55087 Y2.31696
X3.55087 Y2.31596
X3.55187 Y2.31596
X3.55187 Y2.31496
X3.55287 Y2.31496
X3.55287 Y2.31396
X3.55387 Y2.31396
X3.55387 Y2.31296
X3.55487 Y2.31296
X3.55487 Y2.31196
X3.55587 Y2.31196
X3.55587 Y2.31096
X3.55687 Y2.31096
X3.55687 Y2.30996
X3.55787 Y2.30996
X3.55787 Y2.30896
X3.55887 Y2.30896
X3.55887 Y2.30796
X3.55987 Y2.30796
X3.55987 Y2.30696
X3.56087 Y2.30696
X3.56087 Y2.30596
X3.56187 Y2.30596
X3.56187 Y2.30496
X3.56287 Y2.30496
X3.56287 Y2.30396
X3.56387 Y2.30396
X3.56387 Y2.30296
X3.56487 Y2.30296
X3.56487 Y2.30196
X3.56587 Y2.30196
X3.56587 Y2.30096
X3.56687 Y2.30096
X3.56687 Y2.29996
X3.56787 Y2.29996
X3.56787 Y2.29896
X3.56887 Y2.29896
X3.56887 Y2.29796
X3.56987 Y2.29796
X3.56987 Y2.29696
X3.57087 Y2.29696
X3.57087 Y2.29596
X3.57187 Y2.29596
X3.57187 Y2.29496
X3.57287 Y2.29496
X3.57287 Y2.29396
X3.57387 Y2.29396
X3.57387 Y2.29296
X3.57487 Y2.29296
X3.57487 Y2.29196
X3.57587 Y2.29196
X3.57587 Y2.29096
X3.57687 Y2.29096
X3.57687 Y2.28996
X3.57787 Y2.28996
X3.57787 Y2.28896
X3.57887 Y2.28896
X3.57887 Y2.28796
X3.57987 Y2.28796
X3.57987 Y2.28696
X3.58087 Y2.28696
X3.58087 Y2.28596
X3.58187 Y2.28596
X3.58187 Y2.28496
X3.58287 Y2.28496
X3.58287 Y2.28396
X3.58387 Y2.28396
X3.58387 Y2.28296
X3.58487 Y2.28296
X3.58487 Y2.28196
X3.58587 Y2.28196
X3.58587 Y2.28096
X3.58687 Y2.28096
X3.58687 Y2.27996
X3.58787 Y2.27996
X3.58787 Y2.27896
X3.58887 Y2.27896
X3.58887 Y2.27796
X3.58987 Y2.27796
X3.58987 Y2.27696
X3.59087 Y2.27696
X3.59087 Y2.27596
X3.59187 Y2.27596
X3.59187 Y2.27496
X3.59287 Y2.27496
X3.59287 Y2.27396
X3.59387 Y2.27396
X3.59387 Y2.27296
X3.59487 Y2.27296
X3.59487 Y2.27196
X3.59587 Y2.27196
X3.59587 Y2.27096
X3.59687 Y2.27096
X3.59687 Y2.26996
X3.59787 Y2.26996
X3.59787 Y2.26896
X3.59887 Y2.26896
X3.59887 Y2.26796
X3.59987 Y2.26796
X3.59987 Y2.26696
X3.60087 Y2.26696
X3.60087 Y2.26596
X3.60187 Y2.26596
X3.60187 Y2.26496
X3.60287 Y2.26496
X3.60287 Y2.26396
X3.60387 Y2.26396
X3.60387 Y2.26296
X3.60487 Y2.26296
X3.60487 Y2.26196
X3.60587 Y2.26196
X3.60587 Y2.26096
X3.60687 Y2.26096
X3.60687 Y2.25996
X3.60787 Y2.25996
X3.60787 Y2.25896
X3.60887 Y2.25896
X3.60887 Y2.25796
X3.60987 Y2.25796
X3.60987 Y2.25696
X3.61087 Y2.25696
X3.61087 Y2.25596
X3.61187 Y2.25596
X3.61187 Y2.25496
X3.61287 Y2.25496
X3.61287 Y2.25396
X3.61387 Y2.25396
X3.61387 Y2.25296
X3.61487 Y2.25296
X3.61487 Y2.25196
X3.61587 Y2.25196
X3.61587 Y2.25096
X3.61687 Y2.25096
X3.61687 Y2.24996
X3.61787 Y2.24996
X3.61787 Y2.24896
X3.61887 Y2.24896
X3.61887 Y2.24796
X3.61987 Y2.24796
X3.61987 Y2.24696
X3.62087 Y2.24696
X3.62087 Y2.24596
X3.62187 Y2.24596
X3.62187 Y2.24496
X3.62287 Y2.24496
X3.62287 Y2.24396
X3.62387 Y2.24396
X3.62387 Y2.24296
X3.62487 Y2.24296
X3.62487 Y2.24196
X3.62587 Y2.24196
X3.62587 Y2.24096
X3.62687 Y2.24096
X3.62687 Y2.23996
X3.62787 Y2.23996
X3.62787 Y2.23896
X3.62887 Y2.23896
X3.62887 Y2.23796
X3.62987 Y2.23796
X3.62987 Y2.23696
X3.63087 Y2.23696
X3.63087 Y2.23596
X3.63187 Y2.23596
X3.63187 Y2.23496
X3.63287 Y2.23496
X3.63287 Y2.23396
X3.63387 Y2.23396
X3.63387 Y2.23296
X3.63487 Y2.23296
X3.63487 Y2.23196
X3.63587 Y2.23196
X3.63587 Y2.23096
X3.63687 Y2.23096
X3.63687 Y2.22996
X3.63787 Y2.22996
X3.63787 Y2.22896
X3.63887 Y2.22896
X3.63887 Y2.22796
X3.63987 Y2.22796
X3.63987 Y2.22696
X3.64087 Y2.22696
X3.64087 Y2.22596
X3.64187 Y2.22596
X3.64187 Y2.22496
X3.64287 Y2.22496
X3.64287 Y2.22396
X3.64387 Y2.22396
X3.64387 Y2.22296
X3.64487 Y2.22296
X3.64487 Y2.22196
X3.64587 Y2.22196
X3.64587 Y2.22096
X3.64687 Y2.22096
X3.64687 Y2.21996
X3.64787 Y2.21996
X3.64787 Y2.21896
X3.64887 Y2.21896
X3.64887 Y2.21796
X3.64987 Y2.21796
X3.64987 Y2.21696
X3.65087 Y2.21696
X3.65087 Y2.21596
X3.65187 Y2.21596
X3.65187 Y2.21496
X3.65287 Y2.21496
X3.65287 Y2.21396
X3.65387 Y2.21396
X3.65387 Y2.21296
X3.65487 Y2.21296
X3.65487 Y2.21196
X3.65587 Y2.21196
X3.65587 Y2.21096
X3.65687 Y2.21096
X3.65687 Y2.20996
X3.65787 Y2.20996
X3.65787 Y2.20896
X3.65887 Y2.20896
X3.65887 Y2.20796
X3.65987 Y2.20796
X3.65987 Y2.20696
X3.66087 Y2.20696
X3.66087 Y2.20596
X3.66187 Y2.20596
X3.66187 Y2.20496
X3.66287 Y2.20496
X3.66287 Y2.20396
X3.66387 Y2.20396
X3.66387 Y2.20296
X3.66487 Y2.20296
X3.66487 Y2.20196
X3.66587 Y2.20196
X3.66587 Y2.20096
X3.66687 Y2.20096
X3.66687 Y2.19996
X3.66787 Y2.19996
X3.66787 Y2.19896
X3.66887 Y2.19896
X3.66887 Y2.19796
X3.66987 Y2.19796
X3.66987 Y2.19696
X3.67087 Y2.19696
X3.67087 Y2.19596
X3.67187 Y2.19596
X3.67187 Y2.19496
X3.67287 Y2.19496
X3.67287 Y2.19396
X3.67387 Y2.19396
X3.67387 Y2.19296
X3.67487 Y2.19296
X3.67487 Y2.19196
X3.67587 Y2.19196
X3.67587 Y2.19096
X3.67687 Y2.19096
X3.67687 Y2.18996
X3.67787 Y2.18996
X3.67787 Y2.18896
X3.67887 Y2.18896
X3.67887 Y2.18796
X3.67987 Y2.18796
X3.67987 Y2.18696
X3.68087 Y2.18696
X3.68087 Y2.18596
X3.68187 Y2.18596
X3.68187 Y2.18496
X3.68287 Y2.18496
X3.68287 Y2.18396
X3.68387 Y2.18396
X3.68387 Y2.18296
X3.68487 Y2.18296
X3.68487 Y2.18196
X3.68587 Y2.18196
X3.68587 Y2.18096
X3.68687 Y2.18096
X3.68687 Y2.17996
X3.68787 Y2.17996
X3.68787 Y2.17896
X3.68887 Y2.17896
X3.68887 Y2.17796
X3.68987 Y2.17796
X3.68987 Y2.17696
X3.69087 Y2.17696
X3.69087 Y2.17596
X3.69187 Y2.17596
X3.69187 Y2.17496
X3.69287 Y2.17496
X3.69287 Y2.17396
X3.69387 Y2.17396
X3.69387 Y2.17296
X3.69487 Y2.17296
X3.69487 Y2.17196
X3.69587 Y2.17196
X3.69587 Y2.17096
X3.69687 Y2.17096
X3.69687 Y2.16996
X3.69787 Y2.16996
X3.69787 Y2.16896
X3.69887 Y2.16896
X3.69887 Y2.16796
X3.69987 Y2.16796
X3.69987 Y2.16696
X3.70087 Y2.16696
X3.70087 Y2.16596
X3.70187 Y2.16596
X3.70187 Y2.16496
X3.70287 Y2.16496
X3.70287 Y2.16396
X3.70387 Y2.16396
X3.70387 Y2.16296
X3.70487 Y2.16296
X3.70487 Y2.16196
X3.70587 Y2.16196
X3.70587 Y2.16096
X3.70687 Y2.16096
X3.70687 Y2.15996
X3.70787 Y2.15996
X3.70787 Y2.15896
X3.70887 Y2.15896
X3.70887 Y2.15796
X3.70987 Y2.15796
X3.70987 Y2.15696
X3.71087 Y2.15696
X3.71087 Y2.15596
X3.71187 Y2.15596
X3.71187 Y2.15496
X3.71287 Y2.15496
X3.71287 Y2.15396
X3.71387 Y2.15396
X3.71387 Y2.15296
X3.71487 Y2.15296
X3.71487 Y2.15196
X3.71587 Y2.15196
X3.71587 Y2.15096
X3.71687 Y2.15096
X3.71687 Y2.14996
X3.71787 Y2.14996
X3.71787 Y2.14896
X3.71887 Y2.14896
X3.71887 Y2.14796
X3.71987 Y2.14796
X3.71987 Y2.14696
X3.72087 Y2.14696
X3.72087 Y2.14596
X3.72187 Y2.14596
X3.72187 Y2.14496
X3.72287 Y2.14496
X3.72287 Y2.14396
X3.72387 Y2.14396
X3.72387 Y2.14296
X3.72487 Y2.14296
X3.72487 Y2.14196
X3.72587 Y2.14196
X3.72587 Y2.14096
X3.72687 Y2.14096
X3.72687 Y2.13996
X3.72787 Y2.13996
X3.72787 Y2.13896
X3.72887 Y2.13896
X3.72887 Y2.13796
X3.72987 Y2.13796
X3.72987 Y2.13696
X3.73087 Y2.13696
X3.73087 Y2.13596
X3.73187 Y2.13596
X3.73187 Y2.13496
X3.73287 Y2.13496
X3.73287 Y2.13396
X3.73387 Y2.13396
X3.73387 Y2.13296
X3.73487 Y2.13296
X3.73487 Y2.13196
X3.73587 Y2.13196
X3.73587 Y2.13096
X3.73687 Y2.13096
X3.73687 Y2.12996
X3.73787 Y2.12996
X3.73787 Y2.12896
X3.73887 Y2.12896
X3.73887 Y2.12796
X3.73987 Y2.12796
X3.73987 Y2.12696
X3.74087 Y2.12696
X3.74087 Y2.12596
X3.74187 Y2.12596
X3.74187 Y2.12496
X3.74287 Y2.12496
X3.74287 Y2.12396
X3.74387 Y2.12396
X3.74387 Y2.12296
X3.74487 Y2.12296
X3.74487 Y1.93696
X3.71687 Y1.93696
X3.71687 Y1.79396
X3.79887 Y1.79396
X3.79887 Y1.93696
X3.79687 Y1.93696
X3.79687 Y2.15196
X3.79587 Y2.15196
X3.79587 Y2.15596
X3.79487 Y2.15596
X3.79487 Y2.15796
X3.79387 Y2.15796
X3.79387 Y2.15896
X3.79287 Y2.15896
X3.79287 Y2.15996
X3.79187 Y2.15996
X3.79187 Y2.16096
X3.79087 Y2.16096
X3.79087 Y2.16196
X3.78987 Y2.16196
X3.78987 Y2.16296
X3.78887 Y2.16296
X3.78887 Y2.16396
X3.78787 Y2.16396
X3.78787 Y2.16496
X3.78687 Y2.16496
X3.78687 Y2.16596
X3.78587 Y2.16596
X3.78587 Y2.16696
X3.78487 Y2.16696
X3.78487 Y2.16796
X3.78387 Y2.16796
X3.78387 Y2.16896
X3.78287 Y2.16896
X3.78287 Y2.16996
X3.78187 Y2.16996
X3.78187 Y2.17096
X3.78087 Y2.17096
X3.78087 Y2.17196
X3.77987 Y2.17196
X3.77987 Y2.17296
X3.77887 Y2.17296
X3.77887 Y2.17396
X3.77787 Y2.17396
X3.77787 Y2.17496
X3.77687 Y2.17496
X3.77687 Y2.17596
X3.77587 Y2.17596
X3.77587 Y2.17696
X3.77487 Y2.17696
X3.77487 Y2.17796
X3.77387 Y2.17796
X3.77387 Y2.17896
X3.77287 Y2.17896
X3.77287 Y2.17996
X3.77187 Y2.17996
X3.77187 Y2.18096
X3.77087 Y2.18096
X3.77087 Y2.18196
X3.76987 Y2.18196
X3.76987 Y2.18296
X3.76887 Y2.18296
X3.76887 Y2.18396
X3.76787 Y2.18396
X3.76787 Y2.18496
X3.76687 Y2.18496
X3.76687 Y2.18596
X3.76587 Y2.18596
X3.76587 Y2.18696
X3.76487 Y2.18696
X3.76487 Y2.18796
X3.76387 Y2.18796
X3.76387 Y2.18896
X3.76287 Y2.18896
X3.76287 Y2.18996
X3.76187 Y2.18996
X3.76187 Y2.19096
X3.76087 Y2.19096
X3.76087 Y2.19196
X3.75987 Y2.19196
X3.75987 Y2.19296
X3.75887 Y2.19296
X3.75887 Y2.19396
X3.75787 Y2.19396
X3.75787 Y2.19496
X3.75687 Y2.19496
X3.75687 Y2.19596
X3.75587 Y2.19596
X3.75587 Y2.19696
X3.75487 Y2.19696
X3.75487 Y2.19796
X3.75387 Y2.19796
X3.75387 Y2.19896
X3.75287 Y2.19896
X3.75287 Y2.19996
X3.75187 Y2.19996
X3.75187 Y2.20096
X3.75087 Y2.20096
X3.75087 Y2.20196
X3.74987 Y2.20196
X3.74987 Y2.20296
X3.74887 Y2.20296
X3.74887 Y2.20396
X3.74787 Y2.20396
X3.74787 Y2.20496
X3.74687 Y2.20496
X3.74687 Y2.20596
X3.74587 Y2.20596
X3.74587 Y2.20696
X3.74487 Y2.20696
X3.74487 Y2.20796
X3.74387 Y2.20796
X3.74387 Y2.20896
X3.74287 Y2.20896
X3.74287 Y2.20996
X3.74187 Y2.20996
X3.74187 Y2.21096
X3.74087 Y2.21096
X3.74087 Y2.21196
X3.73987 Y2.21196
X3.73987 Y2.21296
X3.73887 Y2.21296
X3.73887 Y2.21396
X3.73787 Y2.21396
X3.73787 Y2.21496
X3.73687 Y2.21496
X3.73687 Y2.21596
X3.73587 Y2.21596
X3.73587 Y2.21696
X3.73487 Y2.21696
X3.73487 Y2.21796
X3.73387 Y2.21796
X3.73387 Y2.21896
X3.73287 Y2.21896
X3.73287 Y2.21996
X3.73187 Y2.21996
X3.73187 Y2.22096
X3.73087 Y2.22096
X3.73087 Y2.22196
X3.72987 Y2.22196
X3.72987 Y2.22296
X3.72887 Y2.22296
X3.72887 Y2.22396
X3.72787 Y2.22396
X3.72787 Y2.22496
X3.72687 Y2.22496
X3.72687 Y2.22596
X3.72587 Y2.22596
X3.72587 Y2.22696
X3.72487 Y2.22696
X3.72487 Y2.22796
X3.72387 Y2.22796
X3.72387 Y2.22896
X3.72287 Y2.22896
X3.72287 Y2.22996
X3.72187 Y2.22996
X3.72187 Y2.23096
X3.72087 Y2.23096
X3.72087 Y2.23196
X3.71987 Y2.23196
X3.71987 Y2.23296
X3.71887 Y2.23296
X3.71887 Y2.23396
X3.71787 Y2.23396
X3.71787 Y2.23496
X3.71687 Y2.23496
X3.71687 Y2.23596
X3.71587 Y2.23596
X3.71587 Y2.23696
X3.71487 Y2.23696
X3.71487 Y2.23796
X3.71387 Y2.23796
X3.71387 Y2.23896
X3.71287 Y2.23896
X3.71287 Y2.23996
X3.71187 Y2.23996
X3.71187 Y2.24096
X3.71087 Y2.24096
X3.71087 Y2.24196
X3.70987 Y2.24196
X3.70987 Y2.24296
X3.70887 Y2.24296
X3.70887 Y2.24396
X3.70787 Y2.24396
X3.70787 Y2.24496
X3.70687 Y2.24496
X3.70687 Y2.24596
X3.70587 Y2.24596
X3.70587 Y2.24696
X3.70487 Y2.24696
X3.70487 Y2.24796
X3.70387 Y2.24796
X3.70387 Y2.24896
X3.70287 Y2.24896
X3.70287 Y2.24996
X3.70187 Y2.24996
X3.70187 Y2.25096
X3.70087 Y2.25096
X3.70087 Y2.25196
X3.69987 Y2.25196
X3.69987 Y2.25296
X3.69887 Y2.25296
X3.69887 Y2.25396
X3.69787 Y2.25396
X3.69787 Y2.25496
X3.69687 Y2.25496
X3.69687 Y2.25596
X3.69587 Y2.25596
X3.69587 Y2.25696
X3.69487 Y2.25696
X3.69487 Y2.25796
X3.69387 Y2.25796
X3.69387 Y2.25896
X3.69287 Y2.25896
X3.69287 Y2.25996
X3.69187 Y2.25996
X3.69187 Y2.26096
X3.69087 Y2.26096
X3.69087 Y2.26196
X3.68987 Y2.26196
X3.68987 Y2.26296
X3.68887 Y2.26296
X3.68887 Y2.26396
X3.68787 Y2.26396
X3.68787 Y2.26496
X3.68687 Y2.26496
X3.68687 Y2.26596
X3.68587 Y2.26596
X3.68587 Y2.26696
X3.68487 Y2.26696
X3.68487 Y2.26796
X3.68387 Y2.26796
X3.68387 Y2.26896
X3.68287 Y2.26896
X3.68287 Y2.26996
X3.68187 Y2.26996
X3.68187 Y2.27096
X3.68087 Y2.27096
X3.68087 Y2.27196
X3.67987 Y2.27196
X3.67987 Y2.27296
X3.67887 Y2.27296
X3.67887 Y2.27396
X3.67787 Y2.27396
X3.67787 Y2.27496
X3.67687 Y2.27496
X3.67687 Y2.27596
X3.67587 Y2.27596
X3.67587 Y2.27696
X3.67487 Y2.27696
X3.67487 Y2.27796
X3.67387 Y2.27796
X3.67387 Y2.27896
X3.67287 Y2.27896
X3.67287 Y2.27996
X3.67187 Y2.27996
X3.67187 Y2.28096
X3.67087 Y2.28096
X3.67087 Y2.28196
X3.66987 Y2.28196
X3.66987 Y2.28296
X3.66887 Y2.28296
X3.66887 Y2.28396
X3.66787 Y2.28396
X3.66787 Y2.28496
X3.66687 Y2.28496
X3.66687 Y2.28596
X3.66587 Y2.28596
X3.66587 Y2.28696
X3.66487 Y2.28696
X3.66487 Y2.28796
X3.66387 Y2.28796
X3.66387 Y2.28896
X3.66287 Y2.28896
X3.66287 Y2.28996
X3.66187 Y2.28996
X3.66187 Y2.29096
X3.66087 Y2.29096
X3.66087 Y2.29196
X3.65987 Y2.29196
X3.65987 Y2.29296
X3.65887 Y2.29296
X3.65887 Y2.29396
X3.65787 Y2.29396
X3.65787 Y2.29496
X3.65687 Y2.29496
X3.65687 Y2.29596
X3.65587 Y2.29596
X3.65587 Y2.29696
X3.65487 Y2.29696
X3.65487 Y2.29796
X3.65387 Y2.29796
X3.65387 Y2.29896
X3.65287 Y2.29896
X3.65287 Y2.29996
X3.65187 Y2.29996
X3.65187 Y2.30096
X3.65087 Y2.30096
X3.65087 Y2.30196
X3.64987 Y2.30196
X3.64987 Y2.30296
X3.64887 Y2.30296
X3.64887 Y2.30396
X3.64787 Y2.30396
X3.64787 Y2.30496
X3.64687 Y2.30496
X3.64687 Y2.30596
X3.64587 Y2.30596
X3.64587 Y2.30696
X3.64487 Y2.30696
X3.64487 Y2.30796
X3.64387 Y2.30796
X3.64387 Y2.30896
X3.64287 Y2.30896
X3.64287 Y2.30996
X3.64187 Y2.30996
X3.64187 Y2.31096
X3.64087 Y2.31096
X3.64087 Y2.31196
X3.63987 Y2.31196
X3.63987 Y2.31296
X3.63887 Y2.31296
X3.63887 Y2.31396
X3.63787 Y2.31396
X3.63787 Y2.31496
X3.63687 Y2.31496
X3.63687 Y2.31596
X3.63587 Y2.31596
X3.63587 Y2.31696
X3.63487 Y2.31696
X3.63487 Y2.31796
X3.63387 Y2.31796
X3.63387 Y2.31896
X3.63287 Y2.31896
X3.63287 Y2.31996
X3.63187 Y2.31996
X3.63187 Y2.32096
X3.63087 Y2.32096
X3.63087 Y2.32196
X3.62987 Y2.32196
X3.62987 Y2.32296
X3.62887 Y2.32296
X3.62887 Y2.32396
X3.62787 Y2.32396
X3.62787 Y2.32496
X3.62687 Y2.32496
X3.62687 Y2.32596
X3.62587 Y2.32596
X3.62587 Y2.32696
X3.62487 Y2.32696
X3.62487 Y2.32796
X3.62387 Y2.32796
X3.62387 Y2.32896
X3.62287 Y2.32896
X3.62287 Y2.32996
X3.62187 Y2.32996
X3.62187 Y2.33096
X3.62087 Y2.33096
X3.62087 Y2.33196
X3.61987 Y2.33196
X3.61987 Y2.33296
X3.61887 Y2.33296
X3.61887 Y2.33396
X3.61787 Y2.33396
X3.61787 Y2.33496
X3.61687 Y2.33496
X3.61687 Y2.33596
X3.61587 Y2.33596
X3.61587 Y2.33696
X3.61487 Y2.33696
X3.61487 Y2.33796
X3.61387 Y2.33796
X3.61387 Y2.33896
X3.61287 Y2.33896
X3.61287 Y2.33996
X3.61187 Y2.33996
X3.61187 Y2.34096
X3.61087 Y2.34096
X3.61087 Y2.34196
X3.60987 Y2.34196
X3.60987 Y2.34296
X3.60887 Y2.34296
X3.60887 Y2.34396
X3.60787 Y2.34396
X3.60787 Y2.34496
X3.60687 Y2.34496
X3.60687 Y2.34596
X3.60587 Y2.34596
X3.60587 Y2.34696
X3.60487 Y2.34696
X3.60487 Y2.34796
X3.60387 Y2.34796
X3.60387 Y2.34896
X3.60287 Y2.34896
X3.60287 Y2.34996
X3.60187 Y2.34996
X3.60187 Y2.35096
X3.60087 Y2.35096
X3.60087 Y2.35196
X3.59987 Y2.35196
X3.59987 Y2.35296
X3.59887 Y2.35296
X3.59887 Y2.35396
X3.59787 Y2.35396
X3.59787 Y2.35496
X3.59687 Y2.35496
X3.59687 Y2.35596
X3.59587 Y2.35596
X3.59587 Y2.35696
X3.59487 Y2.35696
X3.59487 Y2.35796
X3.59387 Y2.35796
X3.59387 Y2.35896
X3.59287 Y2.35896
X3.59287 Y2.35996
X3.59187 Y2.35996
X3.59187 Y2.36096
X3.59087 Y2.36096
X3.59087 Y2.36196
X3.58987 Y2.36196
X3.58987 Y2.36296
X3.58887 Y2.36296
X3.58887 Y2.36396
X3.58787 Y2.36396
X3.58787 Y2.36496
X3.58687 Y2.36496
X3.58687 Y2.36596
X3.58587 Y2.36596
X3.58587 Y2.36696
X3.58487 Y2.36696
X3.58487 Y2.86396
X3.59987 Y2.86396
X3.59987 Y3.00696
X3.51787 Y3.00696
X3.51787 Y2.99596
G04 P0 ( dwell for no time -- G64 should not smooth over this point )
G00 Z0.15000 ( retract )

G00 X3.41787 Y2.99596 ( rapid move to begin. )
G01 Z-0.00500 F4.00000 ( plunge. )
G04 P0 ( dwell for no time -- G64 should not smooth over this point )
X3.41787 Y2.99596
X3.41787 Y2.86396
X3.49987 Y2.86396
X3.49987 Y3.00696
X3.41787 Y3.00696
X3.41787 Y2.99596
G04 P0 ( dwell for no time -- G64 should not smooth over this point )
G00 Z0.15000 ( retract )

G00 X6.62287 Y2.97696 ( rapid move to begin. )
G01 Z-0.00500 F4.00000 ( plunge. )
G04 P0 ( dwell for no time -- G64 should not smooth over this point )
X6.62287 Y2.97696
X6.62287 Y1.95896
X6.61887 Y1.95896
X6.61887 Y1.85296
X6.61987 Y1.85296
X6.61987 Y1.84996
X6.62087 Y1.84996
X6.62087 Y1.82896
X6.61987 Y1.82896
X6.61987 Y1.82596
X6.61887 Y1.82596
X6.61887 Y1.81996
X6.63887 Y1.81996
X6.63887 Y1.79196
X6.63787 Y1.79196
X6.63787 Y1.79096
X6.63687 Y1.79096
X6.63687 Y1.78996
X6.63587 Y1.78996
X6.63587 Y1.78896
X6.63487 Y1.78896
X6.63487 Y1.78796
X6.63287 Y1.78796
X6.63287 Y1.78696
X6.63187 Y1.78696
X6.63187 Y1.78596
X6.63087 Y1.78596
X6.63087 Y1.78496
X6.62987 Y1.78496
X6.62987 Y1.78396
X6.62887 Y1.78396
X6.62887 Y1.78296
X6.62787 Y1.78296
X6.62787 Y1.78196
X6.62687 Y1.78196
X6.62687 Y1.78096
X6.62587 Y1.78096
X6.62587 Y1.77996
X6.62487 Y1.77996
X6.62487 Y1.77896
X6.62387 Y1.77896
X6.62387 Y1.77796
X6.62287 Y1.77796
X6.62287 Y1.77696
X6.62187 Y1.77696
X6.62187 Y1.77596
X6.62087 Y1.77596
X6.62087 Y1.77496
X6.61987 Y1.77496
X6.61987 Y1.77396
X6.61887 Y1.77396
X6.61887 Y1.77296
X6.61787 Y1.77296
X6.61787 Y1.77196
X6.61687 Y1.77196
X6.61687 Y1.77096
X6.61587 Y1.77096
X6.61587 Y1.76996
X6.61487 Y1.76996
X6.61487 Y1.76896
X6.61387 Y1.76896
X6.61387 Y1.76796
X6.61287 Y1.76796
X6.61287 Y1.76696
X6.61187 Y1.76696
X6.61187 Y1.76596
X6.61087 Y1.76596
X6.61087 Y1.76496
X6.60987 Y1.76496
X6.60987 Y1.76396
X6.60887 Y1.76396
X6.60887 Y1.76296
X6.60787 Y1.76296
X6.60787 Y1.76196
X6.60687 Y1.76196
X6.60687 Y1.76096
X6.60587 Y1.76096
X6.60587 Y1.75996
X6.60487 Y1.75996
X6.60487 Y1.75896
X6.60387 Y1.75896
X6.60387 Y1.75796
X6.60287 Y1.75796
X6.60287 Y1.75696
X6.60187 Y1.75696
X6.60187 Y1.75596
X6.60087 Y1.75596
X6.60087 Y1.75496
X6.59987 Y1.75496
X6.59987 Y1.75396
X6.59887 Y1.75396
X6.59887 Y1.75296
X6.59787 Y1.75296
X6.59787 Y1.75196
X6.59687 Y1.75196
X6.59687 Y1.75096
X6.59587 Y1.75096
X6.59587 Y1.74996
X6.59487 Y1.74996
X6.59487 Y1.74896
X6.59387 Y1.74896
X6.59387 Y1.74796
X6.59287 Y1.74796
X6.59287 Y1.74696
X6.59187 Y1.74696
X6.59187 Y1.74596
X6.59087 Y1.74596
X6.59087 Y1.74496
X6.58987 Y1.74496
X6.58987 Y1.74396
X6.58887 Y1.74396
X6.58887 Y1.74296
X6.58787 Y1.74296
X6.58787 Y1.74196
X6.58687 Y1.74196
X6.58687 Y1.74096
X6.58587 Y1.74096
X6.58587 Y1.73996
X6.58487 Y1.73996
X6.58487 Y1.73896
X6.58387 Y1.73896
X6.58387 Y1.73796
X6.58287 Y1.73796
X6.58287 Y1.73696
X6.58187 Y1.73696
X6.58187 Y1.73596
X6.58087 Y1.73596
X6.58087 Y1.73496
X6.57987 Y1.73496
X6.57987 Y1.73396
X6.57887 Y1.73396
X6.57887 Y1.73296
X6.57787 Y1.73296
X6.57787 Y1.73196
X6.57687 Y1.73196
X6.57687 Y1.73096
X6.57587 Y1.73096
X6.57587 Y1.72996
X6.57487 Y1.72996
X6.57487 Y1.72896
X6.57387 Y1.72896
X6.57387 Y1.72796
X6.57287 Y1.72796
X6.57287 Y1.72696
X6.57187 Y1.72696
X6.57187 Y1.72596
X6.57087 Y1.72596
X6.57087 Y1.72496
X6.56987 Y1.72496
X6.56987 Y1.72396
X6.56887 Y1.72396
X6.56887 Y1.72296
X6.56787 Y1.72296
X6.56787 Y1.72196
X6.56687 Y1.72196
X6.56687 Y1.72096
X6.56587 Y1.72096
X6.56587 Y1.71996
X6.56487 Y1.71996
X6.56487 Y1.71896
X6.56387 Y1.71896
X6.56387 Y1.71796
X6.56287 Y1.71796
X6.56287 Y1.71696
X6.56187 Y1.71696
X6.56187 Y1.71596
X6.56087 Y1.71596
X6.56087 Y1.71496
X6.55987 Y1.71496
X6.55987 Y1.71396
X6.55887 Y1.71396
X6.55887 Y1.71296
X6.55787 Y1.71296
X6.55787 Y1.71196
X6.55687 Y1.71196
X6.55687 Y1.71096
X6.55587 Y1.71096
X6.55587 Y1.70996
X6.55487 Y1.70996
X6.55487 Y1.70896
X6.55387 Y1.70896
X6.55387 Y1.70796
X6.55287 Y1.70796
X6.55287 Y1.70696
X6.55187 Y1.70696
X6.55187 Y1.70596
X6.55087 Y1.70596
X6.55087 Y1.70496
X6.54987 Y1.70496
X6.54987 Y1.70396
X6.54887 Y1.70396
X6.54887 Y1.70296
X6.54787 Y1.70296
X6.54787 Y1.70196
X6.54687 Y1.70196
X6.54687 Y1.70096
X6.54587 Y1.70096
X6.54587 Y1.69996
X6.54487 Y1.69996
X6.54487 Y1.69896
X6.54387 Y1.69896
X6.54387 Y1.69796
X6.54287 Y1.69796
X6.54287 Y1.69696
X6.54187 Y1.69696
X6.54187 Y1.69596
X4.25587 Y1.69596
X4.25587 Y1.69696
X4.25487 Y1.69696
X4.25487 Y1.69796
X4.25387 Y1.69796
X4.25387 Y1.69896
X4.25287 Y1.69896
X4.25287 Y1.69996
X4.25187 Y1.69996
X4.25187 Y1.70096
X4.25087 Y1.70096
X4.25087 Y1.70196
X4.24987 Y1.70196
X4.24987 Y1.70296
X4.24887 Y1.70296
X4.24887 Y1.70396
X4.24787 Y1.70396
X4.24787 Y1.70496
X4.24687 Y1.70496
X4.24687 Y1.70596
X4.24587 Y1.70596
X4.24587 Y1.70696
X4.24487 Y1.70696
X4.24487 Y1.70796
X4.24387 Y1.70796
X4.24387 Y1.70896
X4.24287 Y1.70896
X4.24287 Y1.70996
X4.24187 Y1.70996
X4.24187 Y1.71096
X4.24087 Y1.71096
X4.24087 Y1.71196
X4.23987 Y1.71196
X4.23987 Y1.71296
X4.23887 Y1.71296
X4.23887 Y1.71396
X4.23787 Y1.71396
X4.23787 Y1.71496
X4.23687 Y1.71496
X4.23687 Y1.71596
X4.23587 Y1.71596
X4.23587 Y1.71696
X4.23487 Y1.71696
X4.23487 Y1.71796
X4.23387 Y1.71796
X4.23387 Y1.71896
X4.23287 Y1.71896
X4.23287 Y1.71996
X4.23187 Y1.71996
X4.23187 Y1.72096
X4.23087 Y1.72096
X4.23087 Y1.72196
X4.22987 Y1.72196
X4.22987 Y1.72296
X4.22887 Y1.72296
X4.22887 Y1.72396
X4.22787 Y1.72396
X4.22787 Y1.72496
X4.22687 Y1.72496
X4.22687 Y1.72596
X4.22587 Y1.72596
X4.22587 Y1.72696
X4.22487 Y1.72696
X4.22487 Y1.72796
X4.22387 Y1.72796
X4.22387 Y1.72896
X4.22287 Y1.72896
X4.22287 Y1.72996
X4.22187 Y1.72996
X4.22187 Y1.73096
X4.22087 Y1.73096
X4.22087 Y1.73196
X4.21987 Y1.73196
X4.21987 Y1.73296
X4.21887 Y1.73296
X4.21887 Y1.73396
X4.21787 Y1.73396
X4.21787 Y1.73496
X4.21687 Y1.73496
X4.21687 Y1.73596
X4.21587 Y1.73596
X4.21587 Y1.73696
X4.21487 Y1.73696
X4.21487 Y1.73796
X4.21387 Y1.73796
X4.21387 Y1.73896
X4.21287 Y1.73896
X4.21287 Y1.73996
X4.21187 Y1.73996
X4.21187 Y1.74096
X4.21087 Y1.74096
X4.21087 Y1.74196
X4.20987 Y1.74196
X4.20987 Y1.74296
X4.20887 Y1.74296
X4.20887 Y1.74396
X4.20787 Y1.74396
X4.20787 Y1.74496
X4.20687 Y1.74496
X4.20687 Y1.74596
X4.20587 Y1.74596
X4.20587 Y1.74696
X4.20487 Y1.74696
X4.20487 Y1.74796
X4.20387 Y1.74796
X4.20387 Y1.74896
X4.20287 Y1.74896
X4.20287 Y1.74996
X4.20187 Y1.74996
X4.20187 Y1.75096
X4.20087 Y1.75096
X4.20087 Y1.75196
X4.19987 Y1.75196
X4.19987 Y1.75296
X4.19887 Y1.75296
X4.19887 Y1.75396
X4.19787 Y1.75396
X4.19787 Y1.75496
X4.19687 Y1.75496
X4.19687 Y1.75596
X4.19587 Y1.75596
X4.19587 Y1.75696
X4.19487 Y1.75696
X4.19487 Y1.75796
X4.19387 Y1.75796
X4.19387 Y1.75896
X4.19287 Y1.75896
X4.19287 Y1.75996
X4.19187 Y1.75996
X4.19187 Y1.76096
X4.19087 Y1.76096
X4.19087 Y1.76196
X4.18987 Y1.76196
X4.18987 Y1.76296
X4.18887 Y1.76296
X4.18887 Y1.76396
X4.18787 Y1.76396
X4.18787 Y1.76496
X4.18687 Y1.76496
X4.18687 Y1.76596
X4.18487 Y1.76596
X4.18487 Y1.76696
X4.18387 Y1.76696
X4.18387 Y1.79396
X4.19887 Y1.79396
X4.19887 Y1.93696
X4.11687 Y1.93696
X4.11687 Y1.79396
X4.13187 Y1.79396
X4.13187 Y1.73796
X4.13287 Y1.73796
X4.13287 Y1.73396
X4.13387 Y1.73396
X4.13387 Y1.73196
X4.13487 Y1.73196
X4.13487 Y1.73096
X4.13587 Y1.73096
X4.13587 Y1.72996
X4.13687 Y1.72996
X4.13687 Y1.72896
X4.13787 Y1.72896
X4.13787 Y1.72796
X4.13887 Y1.72796
X4.13887 Y1.72696
X4.13987 Y1.72696
X4.13987 Y1.72596
X4.14087 Y1.72596
X4.14087 Y1.72496
X4.14187 Y1.72496
X4.14187 Y1.72396
X4.14287 Y1.72396
X4.14287 Y1.72296
X4.14387 Y1.72296
X4.14387 Y1.72196
X4.14487 Y1.72196
X4.14487 Y1.72096
X4.14587 Y1.72096
X4.14587 Y1.71996
X4.14687 Y1.71996
X4.14687 Y1.71896
X4.14787 Y1.71896
X4.14787 Y1.71796
X4.14887 Y1.71796
X4.14887 Y1.71696
X4.14987 Y1.71696
X4.14987 Y1.71596
X4.15087 Y1.71596
X4.15087 Y1.71496
X4.15187 Y1.71496
X4.15187 Y1.71396
X4.15287 Y1.71396
X4.15287 Y1.71296
X4.15387 Y1.71296
X4.15387 Y1.71196
X4.15487 Y1.71196
X4.15487 Y1.71096
X4.15587 Y1.71096
X4.15587 Y1.70996
X4.15687 Y1.70996
X4.15687 Y1.70896
X4.15787 Y1.70896
X4.15787 Y1.70796
X4.15887 Y1.70796
X4.15887 Y1.70696
X4.15987 Y1.70696
X4.15987 Y1.70596
X4.16087 Y1.70596
X4.16087 Y1.70496
X4.16187 Y1.70496
X4.16187 Y1.70396
X4.16287 Y1.70396
X4.16287 Y1.70296
X4.16387 Y1.70296
X4.16387 Y1.70196
X4.16487 Y1.70196
X4.16487 Y1.70096
X4.16587 Y1.70096
X4.16587 Y1.69996
X4.16687 Y1.69996
X4.16687 Y1.69896
X4.16787 Y1.69896
X4.16787 Y1.69796
X4.16887 Y1.69796
X4.16887 Y1.69696
X4.16987 Y1.69696
X4.16987 Y1.69596
X4.17087 Y1.69596
X4.17087 Y1.69496
X4.17187 Y1.69496
X4.17187 Y1.69396
X4.17287 Y1.69396
X4.17287 Y1.69296
X4.17387 Y1.69296
X4.17387 Y1.69196
X4.17487 Y1.69196
X4.17487 Y1.69096
X4.17587 Y1.69096
X4.17587 Y1.68996
X4.17687 Y1.68996
X4.17687 Y1.68896
X4.17787 Y1.68896
X4.17787 Y1.68796
X4.17887 Y1.68796
X4.17887 Y1.68696
X4.17987 Y1.68696
X4.17987 Y1.68596
X4.18087 Y1.68596
X4.18087 Y1.68496
X4.18187 Y1.68496
X4.18187 Y1.68396
X4.18287 Y1.68396
X4.18287 Y1.68296
X4.18387 Y1.68296
X4.18387 Y1.68196
X4.18487 Y1.68196
X4.18487 Y1.68096
X4.18587 Y1.68096
X4.18587 Y1.67996
X4.18687 Y1.67996
X4.18687 Y1.67896
X4.18787 Y1.67896
X4.18787 Y1.67796
X4.18887 Y1.67796
X4.18887 Y1.67696
X4.18987 Y1.67696
X4.18987 Y1.67596
X4.19087 Y1.67596
X4.19087 Y1.67496
X4.19187 Y1.67496
X4.19187 Y1.67396
X4.19287 Y1.67396
X4.19287 Y1.67296
X4.19387 Y1.67296
X4.19387 Y1.67196
X4.19487 Y1.67196
X4.19487 Y1.67096
X4.19587 Y1.67096
X4.19587 Y1.66996
X4.19687 Y1.66996
X4.19687 Y1.66896
X4.19787 Y1.66896
X4.19787 Y1.66796
X4.19887 Y1.66796
X4.19887 Y1.66696
X4.19987 Y1.66696
X4.19987 Y1.66596
X4.20087 Y1.66596
X4.20087 Y1.66496
X4.20187 Y1.66496
X4.20187 Y1.66396
X4.20287 Y1.66396
X4.20287 Y1.66296
X4.20387 Y1.66296
X4.20387 Y1.66196
X4.20487 Y1.66196
X4.20487 Y1.66096
X4.20587 Y1.66096
X4.20587 Y1.65996
X4.20687 Y1.65996
X4.20687 Y1.65896
X4.20787 Y1.65896
X4.20787 Y1.65796
X4.20887 Y1.65796
X4.20887 Y1.65696
X4.20987 Y1.65696
X4.20987 Y1.65596
X4.21087 Y1.65596
X4.21087 Y1.65496
X4.21287 Y1.65496
X4.21287 Y1.65396
X4.21387 Y1.65396
X4.21387 Y1.65296
X4.21487 Y1.65296
X4.21487 Y1.65196
X4.21587 Y1.65196
X4.21587 Y1.65096
X4.21687 Y1.65096
X4.21687 Y1.64996
X4.21787 Y1.64996
X4.21787 Y1.64896
X4.21887 Y1.64896
X4.21887 Y1.64796
X4.21987 Y1.64796
X4.21987 Y1.64696
X4.22087 Y1.64696
X4.22087 Y1.64596
X4.22287 Y1.64596
X4.22287 Y1.64496
X4.22587 Y1.64496
X4.22587 Y1.64396
X6.57187 Y1.64396
X6.57187 Y1.64496
X6.57487 Y1.64496
X6.57487 Y1.64596
X6.57687 Y1.64596
X6.57687 Y1.64696
X6.57787 Y1.64696
X6.57787 Y1.64796
X6.57887 Y1.64796
X6.57887 Y1.64896
X6.57987 Y1.64896
X6.57987 Y1.64996
X6.58087 Y1.64996
X6.58087 Y1.65096
X6.58187 Y1.65096
X6.58187 Y1.65196
X6.58287 Y1.65196
X6.58287 Y1.65296
X6.58387 Y1.65296
X6.58387 Y1.65396
X6.58487 Y1.65396
X6.58487 Y1.65496
X6.58587 Y1.65496
X6.58587 Y1.65596
X6.58787 Y1.65596
X6.58787 Y1.65696
X6.58887 Y1.65696
X6.58887 Y1.65796
X6.58987 Y1.65796
X6.58987 Y1.65896
X6.59087 Y1.65896
X6.59087 Y1.65996
X6.59187 Y1.65996
X6.59187 Y1.66096
X6.59287 Y1.66096
X6.59287 Y1.66196
X6.59387 Y1.66196
X6.59387 Y1.66296
X6.59487 Y1.66296
X6.59487 Y1.66396
X6.59587 Y1.66396
X6.59587 Y1.66496
X6.59687 Y1.66496
X6.59687 Y1.66596
X6.59787 Y1.66596
X6.59787 Y1.66696
X6.59887 Y1.66696
X6.59887 Y1.66796
X6.59987 Y1.66796
X6.59987 Y1.66896
X6.60087 Y1.66896
X6.60087 Y1.66996
X6.60187 Y1.66996
X6.60187 Y1.67096
X6.60287 Y1.67096
X6.60287 Y1.67196
X6.60387 Y1.67196
X6.60387 Y1.67296
X6.60487 Y1.67296
X6.60487 Y1.67396
X6.60587 Y1.67396
X6.60587 Y1.67496
X6.60687 Y1.67496
X6.60687 Y1.67596
X6.60787 Y1.67596
X6.60787 Y1.67696
X6.60887 Y1.67696
X6.60887 Y1.67796
X6.60987 Y1.67796
X6.60987 Y1.67896
X6.61087 Y1.67896
X6.61087 Y1.67996
X6.61187 Y1.67996
X6.61187 Y1.68096
X6.61287 Y1.68096
X6.61287 Y1.68196
X6.61387 Y1.68196
X6.61387 Y1.68296
X6.61487 Y1.68296
X6.61487 Y1.68396
X6.61587 Y1.68396
X6.61587 Y1.68496
X6.61687 Y1.68496
X6.61687 Y1.68596
X6.61787 Y1.68596
X6.61787 Y1.68696
X6.61887 Y1.68696
X6.61887 Y1.68796
X6.61987 Y1.68796
X6.61987 Y1.68896
X6.62087 Y1.68896
X6.62087 Y1.68996
X6.62187 Y1.68996
X6.62187 Y1.69096
X6.62287 Y1.69096
X6.62287 Y1.69196
X6.62387 Y1.69196
X6.62387 Y1.69296
X6.62487 Y1.69296
X6.62487 Y1.69396
X6.62587 Y1.69396
X6.62587 Y1.69496
X6.62687 Y1.69496
X6.62687 Y1.69596
X6.62787 Y1.69596
X6.62787 Y1.69696
X6.62887 Y1.69696
X6.62887 Y1.69796
X6.62987 Y1.69796
X6.62987 Y1.69896
X6.63087 Y1.69896
X6.63087 Y1.69996
X6.63187 Y1.69996
X6.63187 Y1.70096
X6.63287 Y1.70096
X6.63287 Y1.70196
X6.63387 Y1.70196
X6.63387 Y1.70296
X6.63487 Y1.70296
X6.63487 Y1.70396
X6.63587 Y1.70396
X6.63587 Y1.70496
X6.63687 Y1.70496
X6.63687 Y1.70596
X6.63787 Y1.70596
X6.63787 Y1.70696
X6.63887 Y1.70696
X6.63887 Y1.70796
X6.63987 Y1.70796
X6.63987 Y1.70896
X6.64087 Y1.70896
X6.64087 Y1.70996
X6.64187 Y1.70996
X6.64187 Y1.71096
X6.64287 Y1.71096
X6.64287 Y1.71196
X6.64387 Y1.71196
X6.64387 Y1.71296
X6.64487 Y1.71296
X6.64487 Y1.71396
X6.64587 Y1.71396
X6.64587 Y1.71496
X6.64687 Y1.71496
X6.64687 Y1.71596
X6.64787 Y1.71596
X6.64787 Y1.71696
X6.64887 Y1.71696
X6.64887 Y1.71796
X6.64987 Y1.71796
X6.64987 Y1.71896
X6.65087 Y1.71896
X6.65087 Y1.71996
X6.65187 Y1.71996
X6.65187 Y1.72096
X6.65287 Y1.72096
X6.65287 Y1.72196
X6.65387 Y1.72196
X6.65387 Y1.72296
X6.65487 Y1.72296
X6.65487 Y1.72396
X6.65587 Y1.72396
X6.65587 Y1.72496
X6.65687 Y1.72496
X6.65687 Y1.72596
X6.65787 Y1.72596
X6.65787 Y1.72696
X6.65887 Y1.72696
X6.65887 Y1.72796
X6.65987 Y1.72796
X6.65987 Y1.72896
X6.66087 Y1.72896
X6.66087 Y1.72996
X6.66187 Y1.72996
X6.66187 Y1.73096
X6.66287 Y1.73096
X6.66287 Y1.73196
X6.66387 Y1.73196
X6.66387 Y1.73296
X6.66487 Y1.73296
X6.66487 Y1.73396
X6.66587 Y1.73396
X6.66587 Y1.73496
X6.66687 Y1.73496
X6.66687 Y1.73596
X6.66787 Y1.73596
X6.66787 Y1.73696
X6.66887 Y1.73696
X6.66887 Y1.73796
X6.66987 Y1.73796
X6.66987 Y1.73896
X6.67087 Y1.73896
X6.67087 Y1.73996
X6.67187 Y1.73996
X6.67187 Y1.74096
X6.67287 Y1.74096
X6.67287 Y1.74196
X6.67387 Y1.74196
X6.67387 Y1.74296
X6.67487 Y1.74296
X6.67487 Y1.74396
X6.67587 Y1.74396
X6.67587 Y1.74496
X6.67687 Y1.74496
X6.67687 Y1.74596
X6.67787 Y1.74596
X6.67787 Y1.74696
X6.67887 Y1.74696
X6.67887 Y1.74796
X6.67987 Y1.74796
X6.67987 Y1.74896
X6.68087 Y1.74896
X6.68087 Y1.74996
X6.68187 Y1.74996
X6.68187 Y1.75096
X6.68287 Y1.75096
X6.68287 Y1.75196
X6.68387 Y1.75196
X6.68387 Y1.75296
X6.68487 Y1.75296
X6.68487 Y1.75396
X6.68587 Y1.75396
X6.68587 Y1.75496
X6.68687 Y1.75496
X6.68687 Y1.75596
X6.68787 Y1.75596
X6.68787 Y1.75696
X6.68887 Y1.75696
X6.68887 Y1.75896
X6.68987 Y1.75896
X6.68987 Y1.76296
X6.69087 Y1.76296
X6.69087 Y1.81996
X6.69987 Y1.81996
X6.69987 Y1.88396
X6.71087 Y1.88396
X6.71087 Y1.88496
X6.71287 Y1.88496
X6.71287 Y1.88596
X6.71487 Y1.88596
X6.71487 Y1.88696
X6.71787 Y1.88696
X6.71787 Y1.88796
X6.72087 Y1.88796
X6.72087 Y1.88896
X6.72487 Y1.88896
X6.72487 Y1.88996
X6.73187 Y1.88996
X6.73187 Y1.89096
X7.71987 Y1.89096
X7.71987 Y2.98796
X6.62287 Y2.98796
X6.62287 Y2.97696
G04 P0 ( dwell for no time -- G64 should not smooth over this point )
G00 Z0.15000 ( retract )

G00 X5.02287 Y2.97696 ( rapid move to begin. )
G01 Z-0.00500 F4.00000 ( plunge. )
G04 P0 ( dwell for no time -- G64 should not smooth over this point )
X5.02287 Y2.97696
X5.02287 Y2.08696
X5.02187 Y2.08696
X5.02187 Y2.07996
X5.02087 Y2.07996
X5.02087 Y2.07596
X5.01987 Y2.07596
X5.01987 Y2.07296
X5.01887 Y2.07296
X5.01887 Y2.06996
X5.01787 Y2.06996
X5.01787 Y2.06796
X5.01687 Y2.06796
X5.01687 Y2.06696
X4.90187 Y2.06696
X4.90187 Y2.05196
X4.31887 Y2.05196
X4.31887 Y2.05096
X4.31587 Y2.05096
X4.31587 Y2.04996
X4.31387 Y2.04996
X4.31387 Y2.04896
X4.31287 Y2.04896
X4.31287 Y2.04796
X4.31187 Y2.04796
X4.31187 Y2.04696
X4.31087 Y2.04696
X4.31087 Y2.04596
X4.30987 Y2.04596
X4.30987 Y2.04496
X4.30887 Y2.04496
X4.30887 Y2.04396
X4.30787 Y2.04396
X4.30787 Y2.04296
X4.30687 Y2.04296
X4.30687 Y2.04196
X4.30587 Y2.04196
X4.30587 Y2.04096
X4.30487 Y2.04096
X4.30487 Y2.03996
X4.30387 Y2.03996
X4.30387 Y2.03896
X4.30287 Y2.03896
X4.30287 Y2.03796
X4.30187 Y2.03796
X4.30187 Y2.03696
X4.30087 Y2.03696
X4.30087 Y2.03596
X4.29987 Y2.03596
X4.29987 Y2.03496
X4.29887 Y2.03496
X4.29887 Y2.03396
X4.29787 Y2.03396
X4.29787 Y2.03296
X4.29687 Y2.03296
X4.29687 Y2.03196
X4.29587 Y2.03196
X4.29587 Y2.03096
X4.29487 Y2.03096
X4.29487 Y2.02996
X4.29387 Y2.02996
X4.29387 Y2.02896
X4.29287 Y2.02896
X4.29287 Y2.02796
X4.29187 Y2.02796
X4.29187 Y2.02696
X4.29087 Y2.02696
X4.29087 Y2.02596
X4.28987 Y2.02596
X4.28987 Y2.02496
X4.28887 Y2.02496
X4.28887 Y2.02396
X4.28787 Y2.02396
X4.28787 Y2.02296
X4.28687 Y2.02296
X4.28687 Y2.02196
X4.28587 Y2.02196
X4.28587 Y2.02096
X4.28487 Y2.02096
X4.28487 Y2.01996
X4.28387 Y2.01996
X4.28387 Y2.01896
X4.28287 Y2.01896
X4.28287 Y2.01796
X4.28187 Y2.01796
X4.28187 Y2.01696
X4.28087 Y2.01696
X4.28087 Y2.01596
X4.27987 Y2.01596
X4.27987 Y2.01496
X4.27887 Y2.01496
X4.27887 Y2.01396
X4.27787 Y2.01396
X4.27787 Y2.01296
X4.27687 Y2.01296
X4.27687 Y2.01196
X4.27587 Y2.01196
X4.27587 Y2.01096
X4.27487 Y2.01096
X4.27487 Y2.00996
X4.27387 Y2.00996
X4.27387 Y2.00896
X4.27287 Y2.00896
X4.27287 Y2.00796
X4.27187 Y2.00796
X4.27187 Y2.00696
X4.27087 Y2.00696
X4.27087 Y2.00596
X4.26987 Y2.00596
X4.26987 Y2.00496
X4.26887 Y2.00496
X4.26887 Y2.00396
X4.26787 Y2.00396
X4.26787 Y2.00296
X4.26687 Y2.00296
X4.26687 Y2.00196
X4.26587 Y2.00196
X4.26587 Y2.00096
X4.26487 Y2.00096
X4.26487 Y1.99996
X4.26387 Y1.99996
X4.26387 Y1.99896
X4.26287 Y1.99896
X4.26287 Y1.99796
X4.26187 Y1.99796
X4.26187 Y1.99696
X4.26087 Y1.99696
X4.26087 Y1.99596
X4.25987 Y1.99596
X4.25987 Y1.99496
X4.25887 Y1.99496
X4.25887 Y1.99396
X4.25787 Y1.99396
X4.25787 Y1.99296
X4.25687 Y1.99296
X4.25687 Y1.99196
X4.25587 Y1.99196
X4.25587 Y1.99096
X4.25487 Y1.99096
X4.25487 Y1.98996
X4.25387 Y1.98996
X4.25387 Y1.98896
X4.25287 Y1.98896
X4.25287 Y1.98796
X4.25187 Y1.98796
X4.25187 Y1.98696
X4.25087 Y1.98696
X4.25087 Y1.98596
X4.24987 Y1.98596
X4.24987 Y1.98496
X4.24887 Y1.98496
X4.24887 Y1.98396
X4.24787 Y1.98396
X4.24787 Y1.98296
X4.24687 Y1.98296
X4.24687 Y1.98196
X4.24587 Y1.98196
X4.24587 Y1.98096
X4.24487 Y1.98096
X4.24487 Y1.97996
X4.24387 Y1.97996
X4.24387 Y1.97896
X4.24287 Y1.97896
X4.24287 Y1.97796
X4.24187 Y1.97796
X4.24187 Y1.97696
X4.24087 Y1.97696
X4.24087 Y1.97596
X4.23987 Y1.97596
X4.23987 Y1.97496
X4.23887 Y1.97496
X4.23887 Y1.97396
X4.23787 Y1.97396
X4.23787 Y1.97296
X4.23687 Y1.97296
X4.23687 Y1.97196
X4.23587 Y1.97196
X4.23587 Y1.97096
X4.23487 Y1.97096
X4.23487 Y1.96996
X4.23387 Y1.96996
X4.23387 Y1.96796
X4.23287 Y1.96796
X4.23287 Y1.96396
X4.23187 Y1.96396
X4.23187 Y1.93696
X4.21687 Y1.93696
X4.21687 Y1.79396
X4.29887 Y1.79396
X4.29887 Y1.93696
X4.28687 Y1.93696
X4.28687 Y1.93796
X4.28787 Y1.93796
X4.28787 Y1.93896
X4.28887 Y1.93896
X4.28887 Y1.93996
X4.28987 Y1.93996
X4.28987 Y1.94096
X4.29087 Y1.94096
X4.29087 Y1.94196
X4.29187 Y1.94196
X4.29187 Y1.94296
X4.29287 Y1.94296
X4.29287 Y1.94396
X4.29387 Y1.94396
X4.29387 Y1.94496
X4.29487 Y1.94496
X4.29487 Y1.94596
X4.29587 Y1.94596
X4.29587 Y1.94696
X4.29687 Y1.94696
X4.29687 Y1.94796
X4.29787 Y1.94796
X4.29787 Y1.94896
X4.29887 Y1.94896
X4.29887 Y1.94996
X4.29987 Y1.94996
X4.29987 Y1.95096
X4.30087 Y1.95096
X4.30087 Y1.95196
X4.30187 Y1.95196
X4.30187 Y1.95296
X4.30287 Y1.95296
X4.30287 Y1.95396
X4.30387 Y1.95396
X4.30387 Y1.95496
X4.30487 Y1.95496
X4.30487 Y1.95596
X4.30587 Y1.95596
X4.30587 Y1.95696
X4.30687 Y1.95696
X4.30687 Y1.95796
X4.30787 Y1.95796
X4.30787 Y1.95896
X4.30887 Y1.95896
X4.30887 Y1.95996
X4.30987 Y1.95996
X4.30987 Y1.96096
X4.31087 Y1.96096
X4.31087 Y1.96196
X4.31187 Y1.96196
X4.31187 Y1.96296
X4.31287 Y1.96296
X4.31287 Y1.96396
X4.31387 Y1.96396
X4.31387 Y1.96496
X4.31487 Y1.96496
X4.31487 Y1.96596
X4.31587 Y1.96596
X4.31587 Y1.96696
X4.31687 Y1.96696
X4.31687 Y1.96796
X4.31787 Y1.96796
X4.31787 Y1.96896
X4.31887 Y1.96896
X4.31887 Y1.96996
X4.31987 Y1.96996
X4.31987 Y1.97096
X4.32087 Y1.97096
X4.32087 Y1.97196
X4.32187 Y1.97196
X4.32187 Y1.97296
X4.32287 Y1.97296
X4.32287 Y1.97396
X4.32387 Y1.97396
X4.32387 Y1.97496
X4.32487 Y1.97496
X4.32487 Y1.97596
X4.32587 Y1.97596
X4.32587 Y1.97696
X4.32687 Y1.97696
X4.32687 Y1.97796
X4.32787 Y1.97796
X4.32787 Y1.97896
X4.32887 Y1.97896
X4.32887 Y1.97996
X4.32987 Y1.97996
X4.32987 Y1.98096
X4.33087 Y1.98096
X4.33087 Y1.98196
X4.33187 Y1.98196
X4.33187 Y1.98296
X4.33287 Y1.98296
X4.33287 Y1.98396
X4.33387 Y1.98396
X4.33387 Y1.98496
X4.33487 Y1.98496
X4.33487 Y1.98596
X4.33587 Y1.98596
X4.33587 Y1.98696
X4.33687 Y1.98696
X4.33687 Y1.98796
X4.33787 Y1.98796
X4.33787 Y1.98896
X4.33887 Y1.98896
X4.33887 Y1.98996
X4.33987 Y1.98996
X4.33987 Y1.99096
X4.34087 Y1.99096
X4.34087 Y1.99196
X4.34187 Y1.99196
X4.34187 Y1.99296
X4.34287 Y1.99296
X4.34287 Y1.99396
X4.34387 Y1.99396
X4.34387 Y1.99496
X4.34487 Y1.99496
X4.34487 Y1.99596
X4.34587 Y1.99596
X4.34587 Y1.99696
X4.34687 Y1.99696
X4.34687 Y1.99796
X4.34787 Y1.99796
X4.34787 Y1.99896
X4.34887 Y1.99896
X4.34887 Y1.99996
X4.90187 Y1.99996
X4.90187 Y1.98596
X5.01387 Y1.98596
X5.01387 Y1.98496
X5.01487 Y1.98496
X5.01487 Y1.98296
X5.01587 Y1.98296
X5.01587 Y1.98096
X5.01687 Y1.98096
X5.01687 Y1.97896
X5.01787 Y1.97896
X5.01787 Y1.97696
X5.01887 Y1.97696
X5.01887 Y1.97396
X5.01987 Y1.97396
X5.01987 Y1.97096
X5.02087 Y1.97096
X5.02087 Y1.96696
X5.02187 Y1.96696
X5.02187 Y1.95996
X5.02287 Y1.95996
X5.02287 Y1.89096
X6.11987 Y1.89096
X6.11987 Y2.98796
X5.02287 Y2.98796
X5.02287 Y2.97696
G04 P0 ( dwell for no time -- G64 should not smooth over this point )
G00 Z0.15000 ( retract )

G00 X1.97287 Y2.97696 ( rapid move to begin. )
G01 Z-0.00500 F4.00000 ( plunge. )
G04 P0 ( dwell for no time -- G64 should not smooth over this point )
X1.97287 Y2.97696
X1.97287 Y1.89096
X3.06987 Y1.89096
X3.06987 Y1.96596
X3.07087 Y1.96596
X3.07087 Y1.97296
X3.07187 Y1.97296
X3.07187 Y1.97696
X3.07287 Y1.97696
X3.07287 Y1.97996
X3.07387 Y1.97996
X3.07387 Y1.98296
X3.07487 Y1.98296
X3.07487 Y1.98496
X3.07587 Y1.98496
X3.07587 Y1.98596
X3.19087 Y1.98596
X3.19087 Y1.99996
X3.57987 Y1.99996
X3.57987 Y1.95496
X3.66287 Y1.95496
X3.66287 Y2.09796
X3.57987 Y2.09796
X3.57987 Y2.05196
X3.19087 Y2.05196
X3.19087 Y2.06696
X3.07587 Y2.06696
X3.07587 Y2.06796
X3.07487 Y2.06796
X3.07487 Y2.06996
X3.07387 Y2.06996
X3.07387 Y2.07296
X3.07287 Y2.07296
X3.07287 Y2.07596
X3.07187 Y2.07596
X3.07187 Y2.07996
X3.07087 Y2.07996
X3.07087 Y2.08696
X3.06987 Y2.08696
X3.06987 Y2.98796
X1.97287 Y2.98796
X1.97287 Y2.97696
G04 P0 ( dwell for no time -- G64 should not smooth over this point )
G00 Z0.15000 ( retract )

G00 X0.37287 Y2.97696 ( rapid move to begin. )
G01 Z-0.00500 F4.00000 ( plunge. )
G04 P0 ( dwell for no time -- G64 should not smooth over this point )
X0.37287 Y2.97696
X0.37287 Y1.89096
X1.36087 Y1.89096
X1.36087 Y1.88996
X1.36787 Y1.88996
X1.36787 Y1.88896
X1.37187 Y1.88896
X1.37187 Y1.88796
X1.37487 Y1.88796
X1.37487 Y1.88696
X1.37787 Y1.88696
X1.37787 Y1.88596
X1.37987 Y1.88596
X1.37987 Y1.88496
X1.38187 Y1.88496
X1.38187 Y1.88396
X1.38387 Y1.88396
X1.38387 Y1.88296
X1.38587 Y1.88296
X1.38587 Y1.88196
X1.38687 Y1.88196
X1.38687 Y1.78796
X1.40087 Y1.78796
X1.40087 Y1.71296
X1.40187 Y1.71296
X1.40187 Y1.70896
X1.40287 Y1.70896
X1.40287 Y1.70696
X1.40387 Y1.70696
X1.40387 Y1.70596
X1.40487 Y1.70596
X1.40487 Y1.70496
X1.40587 Y1.70496
X1.40587 Y1.70396
X1.40687 Y1.70396
X1.40687 Y1.70296
X1.40787 Y1.70296
X1.40787 Y1.70196
X1.40887 Y1.70196
X1.40887 Y1.70096
X1.40987 Y1.70096
X1.40987 Y1.69996
X1.41087 Y1.69996
X1.41087 Y1.69896
X1.41187 Y1.69896
X1.41187 Y1.69796
X1.41287 Y1.69796
X1.41287 Y1.69696
X1.41387 Y1.69696
X1.41387 Y1.69596
X1.41487 Y1.69596
X1.41487 Y1.69496
X1.41587 Y1.69496
X1.41587 Y1.69396
X1.41687 Y1.69396
X1.41687 Y1.69296
X1.41787 Y1.69296
X1.41787 Y1.69196
X1.41887 Y1.69196
X1.41887 Y1.69096
X1.41987 Y1.69096
X1.41987 Y1.68996
X1.42087 Y1.68996
X1.42087 Y1.68896
X1.42187 Y1.68896
X1.42187 Y1.68796
X1.42287 Y1.68796
X1.42287 Y1.68696
X1.42387 Y1.68696
X1.42387 Y1.68596
X1.42487 Y1.68596
X1.42487 Y1.68496
X1.42587 Y1.68496
X1.42587 Y1.68396
X1.42687 Y1.68396
X1.42687 Y1.68296
X1.42787 Y1.68296
X1.42787 Y1.68196
X1.42887 Y1.68196
X1.42887 Y1.68096
X1.42987 Y1.68096
X1.42987 Y1.67996
X1.43087 Y1.67996
X1.43087 Y1.67896
X1.43187 Y1.67896
X1.43187 Y1.67796
X1.43287 Y1.67796
X1.43287 Y1.67696
X1.43387 Y1.67696
X1.43387 Y1.67596
X1.43487 Y1.67596
X1.43487 Y1.67496
X1.43587 Y1.67496
X1.43587 Y1.67396
X1.43687 Y1.67396
X1.43687 Y1.67296
X1.43787 Y1.67296
X1.43787 Y1.67196
X1.43887 Y1.67196
X1.43887 Y1.67096
X1.43987 Y1.67096
X1.43987 Y1.66996
X1.44087 Y1.66996
X1.44087 Y1.66896
X1.44187 Y1.66896
X1.44187 Y1.66796
X1.44287 Y1.66796
X1.44287 Y1.66696
X1.44387 Y1.66696
X1.44387 Y1.66596
X1.44487 Y1.66596
X1.44487 Y1.66496
X1.44587 Y1.66496
X1.44587 Y1.66396
X1.44687 Y1.66396
X1.44687 Y1.66296
X1.44787 Y1.66296
X1.44787 Y1.66196
X1.44887 Y1.66196
X1.44887 Y1.66096
X1.44987 Y1.66096
X1.44987 Y1.65996
X1.45087 Y1.65996
X1.45087 Y1.65896
X1.45187 Y1.65896
X1.45187 Y1.65796
X1.45287 Y1.65796
X1.45287 Y1.65696
X1.45387 Y1.65696
X1.45387 Y1.65596
X1.45487 Y1.65596
X1.45487 Y1.65496
X1.45587 Y1.65496
X1.45587 Y1.65396
X1.45687 Y1.65396
X1.45687 Y1.65296
X1.45787 Y1.65296
X1.45787 Y1.65196
X1.45887 Y1.65196
X1.45887 Y1.65096
X1.45987 Y1.65096
X1.45987 Y1.64996
X1.46087 Y1.64996
X1.46087 Y1.64896
X1.46187 Y1.64896
X1.46187 Y1.64796
X1.46287 Y1.64796
X1.46287 Y1.64696
X1.46387 Y1.64696
X1.46387 Y1.64596
X1.46587 Y1.64596
X1.46587 Y1.64496
X1.46887 Y1.64496
X1.46887 Y1.64396
X3.36087 Y1.64396
X3.36087 Y1.64496
X3.38187 Y1.64496
X3.38187 Y1.64396
X3.77887 Y1.64396
X3.77887 Y1.64496
X3.78187 Y1.64496
X3.78187 Y1.64596
X3.78387 Y1.64596
X3.78387 Y1.64696
X3.78487 Y1.64696
X3.78487 Y1.64796
X3.78587 Y1.64796
X3.78587 Y1.64896
X3.78687 Y1.64896
X3.78687 Y1.64996
X3.78787 Y1.64996
X3.78787 Y1.65096
X3.78887 Y1.65096
X3.78887 Y1.65196
X3.78987 Y1.65196
X3.78987 Y1.65296
X3.79087 Y1.65296
X3.79087 Y1.65396
X3.79187 Y1.65396
X3.79187 Y1.65496
X3.79287 Y1.65496
X3.79287 Y1.65596
X3.79387 Y1.65596
X3.79387 Y1.65696
X3.79487 Y1.65696
X3.79487 Y1.65796
X3.79587 Y1.65796
X3.79587 Y1.65896
X3.79687 Y1.65896
X3.79687 Y1.65996
X3.79787 Y1.65996
X3.79787 Y1.66096
X3.79887 Y1.66096
X3.79887 Y1.66196
X3.79987 Y1.66196
X3.79987 Y1.66296
X3.80087 Y1.66296
X3.80087 Y1.66396
X3.80187 Y1.66396
X3.80187 Y1.66496
X3.80287 Y1.66496
X3.80287 Y1.66596
X3.80387 Y1.66596
X3.80387 Y1.66696
X3.80487 Y1.66696
X3.80487 Y1.66796
X3.80587 Y1.66796
X3.80587 Y1.66896
X3.80687 Y1.66896
X3.80687 Y1.66996
X3.80787 Y1.66996
X3.80787 Y1.67096
X3.80887 Y1.67096
X3.80887 Y1.67196
X3.80987 Y1.67196
X3.80987 Y1.67296
X3.81087 Y1.67296
X3.81087 Y1.67396
X3.81187 Y1.67396
X3.81187 Y1.67496
X3.81287 Y1.67496
X3.81287 Y1.67596
X3.81387 Y1.67596
X3.81387 Y1.67696
X3.81487 Y1.67696
X3.81487 Y1.67796
X3.81587 Y1.67796
X3.81587 Y1.67896
X3.81687 Y1.67896
X3.81687 Y1.67996
X3.81787 Y1.67996
X3.81787 Y1.68096
X3.81887 Y1.68096
X3.81887 Y1.68196
X3.81987 Y1.68196
X3.81987 Y1.68296
X3.82087 Y1.68296
X3.82087 Y1.68396
X3.82187 Y1.68396
X3.82187 Y1.68496
X3.82287 Y1.68496
X3.82287 Y1.68596
X3.82387 Y1.68596
X3.82387 Y1.68696
X3.82487 Y1.68696
X3.82487 Y1.68796
X3.82587 Y1.68796
X3.82587 Y1.68896
X3.82687 Y1.68896
X3.82687 Y1.68996
X3.82787 Y1.68996
X3.82787 Y1.69096
X3.82887 Y1.69096
X3.82887 Y1.69196
X3.82987 Y1.69196
X3.82987 Y1.69296
X3.83087 Y1.69296
X3.83087 Y1.69396
X3.83187 Y1.69396
X3.83187 Y1.69496
X3.83287 Y1.69496
X3.83287 Y1.69596
X3.83387 Y1.69596
X3.83387 Y1.69696
X3.83487 Y1.69696
X3.83487 Y1.69796
X3.83587 Y1.69796
X3.83587 Y1.69896
X3.83687 Y1.69896
X3.83687 Y1.69996
X3.83787 Y1.69996
X3.83787 Y1.70096
X3.83887 Y1.70096
X3.83887 Y1.70196
X3.83987 Y1.70196
X3.83987 Y1.70296
X3.84087 Y1.70296
X3.84087 Y1.70396
X3.84187 Y1.70396
X3.84187 Y1.70496
X3.84287 Y1.70496
X3.84287 Y1.70596
X3.84387 Y1.70596
X3.84387 Y1.70696
X3.84487 Y1.70696
X3.84487 Y1.70796
X3.84587 Y1.70796
X3.84587 Y1.70896
X3.84687 Y1.70896
X3.84687 Y1.70996
X3.84787 Y1.70996
X3.84787 Y1.71096
X3.84887 Y1.71096
X3.84887 Y1.71196
X3.84987 Y1.71196
X3.84987 Y1.71296
X3.85087 Y1.71296
X3.85087 Y1.71396
X3.85187 Y1.71396
X3.85187 Y1.71496
X3.85287 Y1.71496
X3.85287 Y1.71596
X3.85387 Y1.71596
X3.85387 Y1.71696
X3.85487 Y1.71696
X3.85487 Y1.71796
X3.85587 Y1.71796
X3.85587 Y1.71896
X3.85687 Y1.71896
X3.85687 Y1.71996
X3.85787 Y1.71996
X3.85787 Y1.72096
X3.85887 Y1.72096
X3.85887 Y1.72196
X3.85987 Y1.72196
X3.85987 Y1.72296
X3.86087 Y1.72296
X3.86087 Y1.72396
X3.86187 Y1.72396
X3.86187 Y1.72496
X3.86287 Y1.72496
X3.86287 Y1.72596
X3.86387 Y1.72596
X3.86387 Y1.72696
X3.86487 Y1.72696
X3.86487 Y1.72796
X3.86587 Y1.72796
X3.86587 Y1.72896
X3.86687 Y1.72896
X3.86687 Y1.72996
X3.86787 Y1.72996
X3.86787 Y1.73096
X3.86887 Y1.73096
X3.86887 Y1.73196
X3.86987 Y1.73196
X3.86987 Y1.73296
X3.87087 Y1.73296
X3.87087 Y1.73396
X3.87187 Y1.73396
X3.87187 Y1.73496
X3.87287 Y1.73496
X3.87287 Y1.73596
X3.87387 Y1.73596
X3.87387 Y1.73696
X3.87487 Y1.73696
X3.87487 Y1.73796
X3.87587 Y1.73796
X3.87587 Y1.73996
X3.87687 Y1.73996
X3.87687 Y1.74396
X3.87787 Y1.74396
X3.87787 Y1.79396
X3.89887 Y1.79396
X3.89887 Y1.93696
X3.81687 Y1.93696
X3.81687 Y1.79396
X3.82587 Y1.79396
X3.82587 Y1.77296
X3.82487 Y1.77296
X3.82487 Y1.77196
X3.82387 Y1.77196
X3.82387 Y1.77096
X3.82287 Y1.77096
X3.82287 Y1.76996
X3.82187 Y1.76996
X3.82187 Y1.76896
X3.82087 Y1.76896
X3.82087 Y1.76796
X3.81987 Y1.76796
X3.81987 Y1.76696
X3.81887 Y1.76696
X3.81887 Y1.76596
X3.81787 Y1.76596
X3.81787 Y1.76496
X3.81687 Y1.76496
X3.81687 Y1.76396
X3.81587 Y1.76396
X3.81587 Y1.76296
X3.81487 Y1.76296
X3.81487 Y1.76196
X3.81387 Y1.76196
X3.81387 Y1.76096
X3.81287 Y1.76096
X3.81287 Y1.75996
X3.81187 Y1.75996
X3.81187 Y1.75896
X3.81087 Y1.75896
X3.81087 Y1.75796
X3.80987 Y1.75796
X3.80987 Y1.75696
X3.80887 Y1.75696
X3.80887 Y1.75596
X3.80787 Y1.75596
X3.80787 Y1.75496
X3.80687 Y1.75496
X3.80687 Y1.75396
X3.80587 Y1.75396
X3.80587 Y1.75296
X3.80487 Y1.75296
X3.80487 Y1.75196
X3.80387 Y1.75196
X3.80387 Y1.75096
X3.80287 Y1.75096
X3.80287 Y1.74996
X3.80187 Y1.74996
X3.80187 Y1.74896
X3.80087 Y1.74896
X3.80087 Y1.74796
X3.79987 Y1.74796
X3.79987 Y1.74696
X3.79887 Y1.74696
X3.79887 Y1.74596
X3.79787 Y1.74596
X3.79787 Y1.74496
X3.79687 Y1.74496
X3.79687 Y1.74396
X3.79587 Y1.74396
X3.79587 Y1.74296
X3.79487 Y1.74296
X3.79487 Y1.74196
X3.79387 Y1.74196
X3.79387 Y1.74096
X3.79287 Y1.74096
X3.79287 Y1.73996
X3.79187 Y1.73996
X3.79187 Y1.73896
X3.79087 Y1.73896
X3.79087 Y1.73796
X3.78987 Y1.73796
X3.78987 Y1.73696
X3.78887 Y1.73696
X3.78887 Y1.73596
X3.78787 Y1.73596
X3.78787 Y1.73496
X3.78687 Y1.73496
X3.78687 Y1.73396
X3.78587 Y1.73396
X3.78587 Y1.73296
X3.78487 Y1.73296
X3.78487 Y1.73196
X3.78387 Y1.73196
X3.78387 Y1.73096
X3.78287 Y1.73096
X3.78287 Y1.72996
X3.78187 Y1.72996
X3.78187 Y1.72896
X3.78087 Y1.72896
X3.78087 Y1.72796
X3.77987 Y1.72796
X3.77987 Y1.72696
X3.77887 Y1.72696
X3.77887 Y1.72596
X3.77787 Y1.72596
X3.77787 Y1.72496
X3.77687 Y1.72496
X3.77687 Y1.72396
X3.77587 Y1.72396
X3.77587 Y1.72296
X3.77487 Y1.72296
X3.77487 Y1.72196
X3.77387 Y1.72196
X3.77387 Y1.72096
X3.77287 Y1.72096
X3.77287 Y1.71996
X3.77187 Y1.71996
X3.77187 Y1.71896
X3.77087 Y1.71896
X3.77087 Y1.71796
X3.76987 Y1.71796
X3.76987 Y1.71696
X3.76887 Y1.71696
X3.76887 Y1.71596
X3.76787 Y1.71596
X3.76787 Y1.71496
X3.76687 Y1.71496
X3.76687 Y1.71396
X3.76587 Y1.71396
X3.76587 Y1.71296
X3.76487 Y1.71296
X3.76487 Y1.71196
X3.76387 Y1.71196
X3.76387 Y1.71096
X3.76287 Y1.71096
X3.76287 Y1.70996
X3.76187 Y1.70996
X3.76187 Y1.70896
X3.76087 Y1.70896
X3.76087 Y1.70796
X3.75987 Y1.70796
X3.75987 Y1.70696
X3.75887 Y1.70696
X3.75887 Y1.70596
X3.75787 Y1.70596
X3.75787 Y1.70496
X3.75687 Y1.70496
X3.75687 Y1.70396
X3.75587 Y1.70396
X3.75587 Y1.70296
X3.75487 Y1.70296
X3.75487 Y1.70196
X3.75387 Y1.70196
X3.75387 Y1.70096
X3.75287 Y1.70096
X3.75287 Y1.69996
X3.75187 Y1.69996
X3.75187 Y1.69896
X3.75087 Y1.69896
X3.75087 Y1.69796
X3.74987 Y1.69796
X3.74987 Y1.69696
X3.74887 Y1.69696
X3.74887 Y1.69596
X1.49887 Y1.69596
X1.49887 Y1.69696
X1.49787 Y1.69696
X1.49787 Y1.69796
X1.49687 Y1.69796
X1.49687 Y1.69896
X1.49587 Y1.69896
X1.49587 Y1.69996
X1.49487 Y1.69996
X1.49487 Y1.70096
X1.49387 Y1.70096
X1.49387 Y1.70196
X1.49287 Y1.70196
X1.49287 Y1.70296
X1.49187 Y1.70296
X1.49187 Y1.70396
X1.49087 Y1.70396
X1.49087 Y1.70496
X1.48987 Y1.70496
X1.48987 Y1.70596
X1.48887 Y1.70596
X1.48887 Y1.70696
X1.48787 Y1.70696
X1.48787 Y1.70796
X1.48687 Y1.70796
X1.48687 Y1.70896
X1.48587 Y1.70896
X1.48587 Y1.70996
X1.48487 Y1.70996
X1.48487 Y1.71096
X1.48387 Y1.71096
X1.48387 Y1.71196
X1.48287 Y1.71196
X1.48287 Y1.71296
X1.48187 Y1.71296
X1.48187 Y1.71396
X1.48087 Y1.71396
X1.48087 Y1.71496
X1.47987 Y1.71496
X1.47987 Y1.71596
X1.47887 Y1.71596
X1.47887 Y1.71696
X1.47787 Y1.71696
X1.47787 Y1.71796
X1.47687 Y1.71796
X1.47687 Y1.71896
X1.47587 Y1.71896
X1.47587 Y1.71996
X1.47487 Y1.71996
X1.47487 Y1.72096
X1.47387 Y1.72096
X1.47387 Y1.72196
X1.47287 Y1.72196
X1.47287 Y1.72296
X1.47187 Y1.72296
X1.47187 Y1.72396
X1.47087 Y1.72396
X1.47087 Y1.72496
X1.46987 Y1.72496
X1.46987 Y1.72596
X1.46887 Y1.72596
X1.46887 Y1.72696
X1.46787 Y1.72696
X1.46787 Y1.72796
X1.46687 Y1.72796
X1.46687 Y1.72896
X1.46587 Y1.72896
X1.46587 Y1.72996
X1.46487 Y1.72996
X1.46487 Y1.73096
X1.46387 Y1.73096
X1.46387 Y1.73196
X1.46287 Y1.73196
X1.46287 Y1.73296
X1.46187 Y1.73296
X1.46187 Y1.73396
X1.46087 Y1.73396
X1.46087 Y1.73496
X1.45987 Y1.73496
X1.45987 Y1.73596
X1.45887 Y1.73596
X1.45887 Y1.73696
X1.45787 Y1.73696
X1.45787 Y1.73796
X1.45687 Y1.73796
X1.45687 Y1.73896
X1.45587 Y1.73896
X1.45587 Y1.73996
X1.45487 Y1.73996
X1.45487 Y1.74096
X1.45387 Y1.74096
X1.45387 Y1.74196
X1.45287 Y1.74196
X1.45287 Y1.78796
X1.46787 Y1.78796
X1.46787 Y1.88496
X1.46887 Y1.88496
X1.46887 Y1.88596
X1.46987 Y1.88596
X1.46987 Y2.98796
X0.37287 Y2.98796
X0.37287 Y2.97696
G04 P0 ( dwell for no time -- G64 should not smooth over this point )
G00 Z0.15000 ( retract )

G00 X4.36887 Y2.79496 ( rapid move to begin. )
G01 Z-0.00500 F4.00000 ( plunge. )
G04 P0 ( dwell for no time -- G64 should not smooth over this point )
X4.36887 Y2.79496
X4.36787 Y2.79496
X4.36787 Y2.79396
X4.36687 Y2.79396
X4.36687 Y2.79296
X4.36587 Y2.79296
X4.36587 Y2.79196
X4.36487 Y2.79196
X4.36487 Y2.79096
X4.36387 Y2.79096
X4.36387 Y2.78996
X4.36287 Y2.78996
X4.36287 Y2.78896
X4.36187 Y2.78896
X4.36187 Y2.78796
X4.36087 Y2.78796
X4.36087 Y2.78696
X4.35987 Y2.78696
X4.35987 Y2.78596
X4.35887 Y2.78596
X4.35887 Y2.78496
X4.35787 Y2.78496
X4.35787 Y2.78396
X4.35687 Y2.78396
X4.35687 Y2.78296
X4.35587 Y2.78296
X4.35587 Y2.78196
X4.35487 Y2.78196
X4.35487 Y2.78096
X4.35387 Y2.78096
X4.35387 Y2.77996
X4.35287 Y2.77996
X4.35287 Y2.77896
X4.35187 Y2.77896
X4.35187 Y2.77796
X4.35087 Y2.77796
X4.35087 Y2.77696
X4.34987 Y2.77696
X4.34987 Y2.77596
X4.34887 Y2.77596
X4.34887 Y2.77496
X4.34787 Y2.77496
X4.34787 Y2.77396
X4.34687 Y2.77396
X4.34687 Y2.77296
X4.34587 Y2.77296
X4.34587 Y2.77196
X4.34487 Y2.77196
X4.34487 Y2.77096
X4.34387 Y2.77096
X4.34387 Y2.76996
X4.34287 Y2.76996
X4.34287 Y2.76896
X4.34187 Y2.76896
X4.34187 Y2.76796
X4.34087 Y2.76796
X4.34087 Y2.76696
X4.33987 Y2.76696
X4.33987 Y2.57396
X3.68187 Y2.57396
X3.68187 Y2.80596
X3.62387 Y2.80596
X3.62387 Y2.37196
X3.62487 Y2.37196
X3.62487 Y2.37096
X3.62587 Y2.37096
X3.62587 Y2.36996
X3.62687 Y2.36996
X3.62687 Y2.36896
X3.62787 Y2.36896
X3.62787 Y2.36796
X3.62887 Y2.36796
X3.62887 Y2.36696
X3.62987 Y2.36696
X3.62987 Y2.36596
X3.63087 Y2.36596
X3.63087 Y2.36496
X3.63187 Y2.36496
X3.63187 Y2.36396
X3.63287 Y2.36396
X3.63287 Y2.36296
X3.63387 Y2.36296
X3.63387 Y2.36196
X3.63487 Y2.36196
X3.63487 Y2.36096
X3.63587 Y2.36096
X3.63587 Y2.35996
X3.63687 Y2.35996
X3.63687 Y2.35896
X3.63787 Y2.35896
X3.63787 Y2.35796
X3.63887 Y2.35796
X3.63887 Y2.35696
X3.63987 Y2.35696
X3.63987 Y2.35596
X3.64087 Y2.35596
X3.64087 Y2.35496
X3.64187 Y2.35496
X3.64187 Y2.35396
X3.64287 Y2.35396
X3.64287 Y2.35296
X3.64387 Y2.35296
X3.64387 Y2.35196
X3.64487 Y2.35196
X3.64487 Y2.35096
X3.64587 Y2.35096
X3.64587 Y2.34996
X3.64687 Y2.34996
X3.64687 Y2.34896
X3.64787 Y2.34896
X3.64787 Y2.34796
X3.64887 Y2.34796
X3.64887 Y2.34696
X3.64987 Y2.34696
X3.64987 Y2.34596
X3.65087 Y2.34596
X3.65087 Y2.34496
X3.65187 Y2.34496
X3.65187 Y2.34396
X3.65287 Y2.34396
X3.65287 Y2.34296
X3.65387 Y2.34296
X3.65387 Y2.34196
X3.65487 Y2.34196
X3.65487 Y2.34096
X3.65587 Y2.34096
X3.65587 Y2.33996
X3.65687 Y2.33996
X3.65687 Y2.33896
X3.65787 Y2.33896
X3.65787 Y2.33796
X3.65887 Y2.33796
X3.65887 Y2.33696
X3.65987 Y2.33696
X3.65987 Y2.33596
X3.66087 Y2.33596
X3.66087 Y2.33496
X3.66187 Y2.33496
X3.66187 Y2.33396
X3.66287 Y2.33396
X3.66287 Y2.33296
X3.66387 Y2.33296
X3.66387 Y2.33196
X3.66487 Y2.33196
X3.66487 Y2.33096
X3.66587 Y2.33096
X3.66587 Y2.32996
X3.66687 Y2.32996
X3.66687 Y2.32896
X3.66787 Y2.32896
X3.66787 Y2.32796
X3.66887 Y2.32796
X3.66887 Y2.32696
X3.66987 Y2.32696
X3.66987 Y2.32596
X3.67087 Y2.32596
X3.67087 Y2.32496
X3.67187 Y2.32496
X3.67187 Y2.32396
X3.67287 Y2.32396
X3.67287 Y2.32296
X3.67387 Y2.32296
X3.67387 Y2.32196
X3.67487 Y2.32196
X3.67487 Y2.32096
X3.67587 Y2.32096
X3.67587 Y2.31996
X3.67687 Y2.31996
X3.67687 Y2.31896
X3.67787 Y2.31896
X3.67787 Y2.31796
X3.67887 Y2.31796
X3.67887 Y2.31696
X3.67987 Y2.31696
X3.67987 Y2.31596
X3.68087 Y2.31596
X3.68087 Y2.31496
X3.68187 Y2.31496
X3.68187 Y2.31396
X3.68287 Y2.31396
X3.68287 Y2.31296
X3.68387 Y2.31296
X3.68387 Y2.31196
X3.68487 Y2.31196
X3.68487 Y2.31096
X3.68587 Y2.31096
X3.68587 Y2.30996
X3.68687 Y2.30996
X3.68687 Y2.30896
X3.68787 Y2.30896
X3.68787 Y2.30796
X3.68887 Y2.30796
X3.68887 Y2.30696
X3.68987 Y2.30696
X3.68987 Y2.30596
X3.69087 Y2.30596
X3.69087 Y2.30496
X3.69187 Y2.30496
X3.69187 Y2.30396
X3.69287 Y2.30396
X3.69287 Y2.30296
X3.69387 Y2.30296
X3.69387 Y2.30196
X3.69487 Y2.30196
X3.69487 Y2.30096
X3.69587 Y2.30096
X3.69587 Y2.29996
X3.69687 Y2.29996
X3.69687 Y2.29896
X3.69787 Y2.29896
X3.69787 Y2.29796
X3.69887 Y2.29796
X3.69887 Y2.29696
X3.69987 Y2.29696
X3.69987 Y2.29596
X3.70087 Y2.29596
X3.70087 Y2.29496
X3.70187 Y2.29496
X3.70187 Y2.29396
X3.70287 Y2.29396
X3.70287 Y2.29296
X3.70387 Y2.29296
X3.70387 Y2.29196
X3.70487 Y2.29196
X3.70487 Y2.29096
X3.70587 Y2.29096
X3.70587 Y2.28996
X3.70687 Y2.28996
X3.70687 Y2.28896
X3.70787 Y2.28896
X3.70787 Y2.28796
X3.70887 Y2.28796
X3.70887 Y2.28696
X3.70987 Y2.28696
X3.70987 Y2.28596
X3.71087 Y2.28596
X3.71087 Y2.28496
X3.71187 Y2.28496
X3.71187 Y2.28396
X3.71287 Y2.28396
X3.71287 Y2.28296
X3.71387 Y2.28296
X3.71387 Y2.28196
X3.71487 Y2.28196
X3.71487 Y2.28096
X3.71587 Y2.28096
X3.71587 Y2.27996
X3.71687 Y2.27996
X3.71687 Y2.27896
X3.71787 Y2.27896
X3.71787 Y2.27796
X3.71887 Y2.27796
X3.71887 Y2.27696
X3.71987 Y2.27696
X3.71987 Y2.27596
X3.72087 Y2.27596
X3.72087 Y2.27496
X3.72187 Y2.27496
X3.72187 Y2.27396
X3.72287 Y2.27396
X3.72287 Y2.27296
X3.72387 Y2.27296
X3.72387 Y2.27196
X3.72487 Y2.27196
X3.72487 Y2.27096
X3.72587 Y2.27096
X3.72587 Y2.26996
X3.72687 Y2.26996
X3.72687 Y2.26896
X3.72787 Y2.26896
X3.72787 Y2.26796
X3.72887 Y2.26796
X3.72887 Y2.26696
X3.72987 Y2.26696
X3.72987 Y2.26596
X3.73087 Y2.26596
X3.73087 Y2.26496
X3.73187 Y2.26496
X3.73187 Y2.26396
X3.73287 Y2.26396
X3.73287 Y2.26296
X3.73387 Y2.26296
X3.73387 Y2.26196
X3.73487 Y2.26196
X3.73487 Y2.26096
X3.73587 Y2.26096
X3.73587 Y2.25996
X3.73687 Y2.25996
X3.73687 Y2.25896
X3.73787 Y2.25896
X3.73787 Y2.25796
X3.73887 Y2.25796
X3.73887 Y2.25696
X3.73987 Y2.25696
X3.73987 Y2.25596
X3.74087 Y2.25596
X3.74087 Y2.25496
X3.74187 Y2.25496
X3.74187 Y2.25396
X3.74287 Y2.25396
X3.74287 Y2.25296
X3.74387 Y2.25296
X3.74387 Y2.25196
X3.74487 Y2.25196
X3.74487 Y2.25096
X3.74587 Y2.25096
X3.74587 Y2.24996
X3.74687 Y2.24996
X3.74687 Y2.24896
X3.74787 Y2.24896
X3.74787 Y2.24796
X3.74887 Y2.24796
X3.74887 Y2.24696
X3.74987 Y2.24696
X3.74987 Y2.24596
X3.75087 Y2.24596
X3.75087 Y2.24496
X3.75187 Y2.24496
X3.75187 Y2.24396
X3.75287 Y2.24396
X3.75287 Y2.24296
X3.75387 Y2.24296
X3.75387 Y2.24196
X3.75487 Y2.24196
X3.75487 Y2.24096
X3.75587 Y2.24096
X3.75587 Y2.23996
X3.75687 Y2.23996
X3.75687 Y2.23896
X3.75787 Y2.23896
X3.75787 Y2.23796
X3.75887 Y2.23796
X3.75887 Y2.23696
X3.75987 Y2.23696
X3.75987 Y2.23596
X3.76087 Y2.23596
X3.76087 Y2.23496
X3.76187 Y2.23496
X3.76187 Y2.23396
X3.76287 Y2.23396
X3.76287 Y2.23296
X3.76387 Y2.23296
X3.76387 Y2.23196
X3.76487 Y2.23196
X3.76487 Y2.23096
X3.76587 Y2.23096
X3.76587 Y2.22996
X3.76687 Y2.22996
X3.76687 Y2.22896
X3.76787 Y2.22896
X3.76787 Y2.22796
X3.76887 Y2.22796
X3.76887 Y2.22696
X3.76987 Y2.22696
X3.76987 Y2.22596
X3.77087 Y2.22596
X3.77087 Y2.22496
X3.77187 Y2.22496
X3.77187 Y2.22396
X3.77287 Y2.22396
X3.77287 Y2.22296
X3.77387 Y2.22296
X3.77387 Y2.22196
X3.77487 Y2.22196
X3.77487 Y2.22096
X3.77587 Y2.22096
