( Made using CamBam - http://www.cambam.co.uk )
( controlPanel4Back 11/28/2015 2:25:07 PM )
( T2 : 2.0 )
G21 G90 G64 G40
G0 Z3.0
( T2 : 2.0 )
T2 M6
( ProfileHole )
G17
M3 S1000
G0 X26.17322 Y23.93106
G0 Z1.0
G1 F300.0 Z-1.0
G2 X24.97322 Y23.23824 I-0.8 J0.0
G2 Y24.62388 I0.4 J0.69282
G2 X26.17322 Y23.93106 I0.4 J-0.69282
G1 Z-2.0
G2 X24.97322 Y23.23824 I-0.8 J0.0
G2 Y24.62388 I0.4 J0.69282
G2 X26.17322 Y23.93106 I0.4 J-0.69282
G1 Z-3.0
G2 X24.97322 Y23.23824 I-0.8 J0.0
G2 Y24.62388 I0.4 J0.69282
G2 X26.17322 Y23.93106 I0.4 J-0.69282
G1 Z-4.0
G2 X24.97322 Y23.23824 I-0.8 J0.0
G2 Y24.62388 I0.4 J0.69282
G2 X26.17322 Y23.93106 I0.4 J-0.69282
G0 Z3.0
G0 X25.37884 Y137.13108
G0 Z1.0
G1 Z-1.0
G2 X24.97322 Y137.23824 I-0.00561 J0.79998
G2 Y138.62388 I0.4 J0.69282
G2 X26.17322 Y137.93106 I0.4 J-0.69282
G2 X25.37884 Y137.13108 I-0.8 J0.0
G1 Z-2.0
G2 X24.97322 Y137.23824 I-0.00561 J0.79998
G2 Y138.62388 I0.4 J0.69282
G2 X26.17322 Y137.93106 I0.4 J-0.69282
G2 X25.37884 Y137.13108 I-0.8 J0.0
G1 Z-3.0
G2 X24.97322 Y137.23824 I-0.00561 J0.79998
G2 Y138.62388 I0.4 J0.69282
G2 X26.17322 Y137.93106 I0.4 J-0.69282
G2 X25.37884 Y137.13108 I-0.8 J0.0
G1 Z-4.0
G2 X24.97322 Y137.23824 I-0.00561 J0.79998
G2 Y138.62388 I0.4 J0.69282
G2 X26.17322 Y137.93106 I0.4 J-0.69282
G2 X25.37884 Y137.13108 I-0.8 J0.0
G0 Z3.0
G0 X25.37326 Y251.13106
G0 Z1.0
G1 Z-1.0
G2 X24.97322 Y251.23824 I-0.00004 J0.8
G2 Y252.62388 I0.4 J0.69282
G2 X26.17322 Y251.93106 I0.4 J-0.69282
G2 X25.37326 Y251.13106 I-0.8 J0.0
G1 Z-2.0
G2 X24.97322 Y251.23824 I-0.00004 J0.8
G2 Y252.62388 I0.4 J0.69282
G2 X26.17322 Y251.93106 I0.4 J-0.69282
G2 X25.37326 Y251.13106 I-0.8 J0.0
G1 Z-3.0
G2 X24.97322 Y251.23824 I-0.00004 J0.8
G2 Y252.62388 I0.4 J0.69282
G2 X26.17322 Y251.93106 I0.4 J-0.69282
G2 X25.37326 Y251.13106 I-0.8 J0.0
G1 Z-4.0
G2 X24.97322 Y251.23824 I-0.00004 J0.8
G2 Y252.62388 I0.4 J0.69282
G2 X26.17322 Y251.93106 I0.4 J-0.69282
G2 X25.37326 Y251.13106 I-0.8 J0.0
G0 Z3.0
G0 X154.57324 Y251.92614
G0 Z1.0
G1 Z-1.0
G2 X154.97322 Y252.62388 I0.79998 J0.00492
G2 X156.17322 Y251.93106 I0.4 J-0.69282
G2 X154.97322 Y251.23824 I-0.8 J0.0
G2 X154.57324 Y251.92614 I0.4 J0.69282
G1 Z-2.0
G2 X154.97322 Y252.62388 I0.79998 J0.00492
G2 X156.17322 Y251.93106 I0.4 J-0.69282
G2 X154.97322 Y251.23824 I-0.8 J0.0
G2 X154.57324 Y251.92614 I0.4 J0.69282
G1 Z-3.0
G2 X154.97322 Y252.62388 I0.79998 J0.00492
G2 X156.17322 Y251.93106 I0.4 J-0.69282
G2 X154.97322 Y251.23824 I-0.8 J0.0
G2 X154.57324 Y251.92614 I0.4 J0.69282
G1 Z-4.0
G2 X154.97322 Y252.62388 I0.79998 J0.00492
G2 X156.17322 Y251.93106 I0.4 J-0.69282
G2 X154.97322 Y251.23824 I-0.8 J0.0
G2 X154.57324 Y251.92614 I0.4 J0.69282
G0 Z3.0
G0 X155.36761 Y138.73104
G0 Z1.0
G1 Z-1.0
G2 X156.17322 Y137.93106 I0.00561 J-0.79998
G2 X154.97322 Y137.23824 I-0.8 J0.0
G2 Y138.62388 I0.4 J0.69282
G2 X155.36761 Y138.73104 I0.4 J-0.69282
G1 Z-2.0
G2 X156.17322 Y137.93106 I0.00561 J-0.79998
G2 X154.97322 Y137.23824 I-0.8 J0.0
G2 Y138.62388 I0.4 J0.69282
G2 X155.36761 Y138.73104 I0.4 J-0.69282
G1 Z-3.0
G2 X156.17322 Y137.93106 I0.00561 J-0.79998
G2 X154.97322 Y137.23824 I-0.8 J0.0
G2 Y138.62388 I0.4 J0.69282
G2 X155.36761 Y138.73104 I0.4 J-0.69282
G1 Z-4.0
G2 X156.17322 Y137.93106 I0.00561 J-0.79998
G2 X154.97322 Y137.23824 I-0.8 J0.0
G2 Y138.62388 I0.4 J0.69282
G2 X155.36761 Y138.73104 I0.4 J-0.69282
G0 Z3.0
G0 X155.37318 Y24.73106
G0 Z1.0
G1 Z-1.0
G2 X156.17322 Y23.93106 I0.00004 J-0.8
G2 X154.97322 Y23.23824 I-0.8 J0.0
G2 Y24.62388 I0.4 J0.69282
G2 X155.37318 Y24.73106 I0.4 J-0.69282
G1 Z-2.0
G2 X156.17322 Y23.93106 I0.00004 J-0.8
G2 X154.97322 Y23.23824 I-0.8 J0.0
G2 Y24.62388 I0.4 J0.69282
G2 X155.37318 Y24.73106 I0.4 J-0.69282
G1 Z-3.0
G2 X156.17322 Y23.93106 I0.00004 J-0.8
G2 X154.97322 Y23.23824 I-0.8 J0.0
G2 Y24.62388 I0.4 J0.69282
G2 X155.37318 Y24.73106 I0.4 J-0.69282
G1 Z-4.0
G2 X156.17322 Y23.93106 I0.00004 J-0.8
G2 X154.97322 Y23.23824 I-0.8 J0.0
G2 Y24.62388 I0.4 J0.69282
G2 X155.37318 Y24.73106 I0.4 J-0.69282
( ProfileCutOut )
S1000
G0 Z3.0
G0 X28.37322 Y269.93106
G0 Z1.0
G1 Z-1.0
G3 F500.0 X7.37322 Y248.93106 I0.0 J-21.0
G1 Y26.93106
G3 X28.37322 Y5.93106 I21.0 J0.0
G1 X152.37322
G3 X173.37322 Y26.93106 I0.0 J21.0
G1 Y248.93106
G3 X152.37322 Y269.93106 I-21.0 J0.0
G1 X28.37322
G1 F300.0 Z-2.0
G3 F500.0 X7.37322 Y248.93106 I0.0 J-21.0
G1 Y214.70834
G1 Y213.20834 Z-1.0
G1 Y211.20834
G1 Y209.70834 Z-2.0
G1 Y78.43106
G1 Y76.93106 Z-1.0
G1 Y74.93106
G1 Y73.43106 Z-2.0
G1 Y26.93106
G3 X28.37322 Y5.93106 I21.0 J0.0
G1 X81.73458
G1 X83.23458 Z-1.0
G1 X85.23458
G1 X86.73458 Z-2.0
G1 X152.37322
G3 X173.37322 Y26.93106 I0.0 J21.0
G1 Y61.15377
G1 Y62.65377 Z-1.0
G1 Y64.65377
G1 Y66.15377 Z-2.0
G1 Y197.43106
G1 Y198.93106 Z-1.0
G1 Y200.93106
G1 Y202.43106 Z-2.0
G1 Y248.93106
G3 X152.37322 Y269.93106 I-21.0 J0.0
G1 X99.01186
G1 X97.51186 Z-1.0
G1 X95.51186
G1 X94.01186 Z-2.0
G1 X28.37322
G1 F300.0 Z-3.0
G3 F500.0 X7.37322 Y248.93106 I0.0 J-21.0
G1 Y214.70834
G1 Y213.20834 Z-1.0
G1 Y211.20834
G1 Y209.70834 Z-3.0
G1 Y78.43106
G1 Y76.93106 Z-1.0
G1 Y74.93106
G1 Y73.43106 Z-3.0
G1 Y26.93106
G3 X28.37322 Y5.93106 I21.0 J0.0
G1 X81.73458
G1 X83.23458 Z-1.0
G1 X85.23458
G1 X86.73458 Z-3.0
G1 X152.37322
G3 X173.37322 Y26.93106 I0.0 J21.0
G1 Y61.15377
G1 Y62.65377 Z-1.0
G1 Y64.65377
G1 Y66.15377 Z-3.0
G1 Y197.43106
G1 Y198.93106 Z-1.0
G1 Y200.93106
G1 Y202.43106 Z-3.0
G1 Y248.93106
G3 X152.37322 Y269.93106 I-21.0 J0.0
G1 X99.01186
G1 X97.51186 Z-1.0
G1 X95.51186
G1 X94.01186 Z-3.0
G1 X28.37322
G1 F300.0 Z-4.0
G3 F500.0 X7.37322 Y248.93106 I0.0 J-21.0
G1 Y214.70834
G1 Y213.20834 Z-1.0
G1 Y211.20834
G1 Y209.70834 Z-4.0
G1 Y78.43106
G1 Y76.93106 Z-1.0
G1 Y74.93106
G1 Y73.43106 Z-4.0
G1 Y26.93106
G3 X28.37322 Y5.93106 I21.0 J0.0
G1 X81.73458
G1 X83.23458 Z-1.0
G1 X85.23458
G1 X86.73458 Z-4.0
G1 X152.37322
G3 X173.37322 Y26.93106 I0.0 J21.0
G1 Y61.15377
G1 Y62.65377 Z-1.0
G1 Y64.65377
G1 Y66.15377 Z-4.0
G1 Y197.43106
G1 Y198.93106 Z-1.0
G1 Y200.93106
G1 Y202.43106 Z-4.0
G1 Y248.93106
G3 X152.37322 Y269.93106 I-21.0 J0.0
G1 X99.01186
G1 X97.51186 Z-1.0
G1 X95.51186
G1 X94.01186 Z-4.0
G1 X28.37322
G0 Z3.0
M5
M30
