( Made using CamBam - http://www.cambam.co.uk )
( controlPanel4 11/21/2015 11:56:20 AM )
( T1 : 1.5 )
( T2 : 2.0 )
( T10 : 1.5 )
G21 G90 G64 G40
G0 Z3.0
( T1 : 1.5 )
T1 M6
( EngraveButton )
G17
M3 S1000
G0 X121.29883 Y52.42573
G0 Z1.0
G1 F300.0 Z-0.5
G1 Y43.70473
G1 Y52.42573
G1 X121.29919 Y57.47509
G1 Y52.42573
G1 X121.29883
G0 Z3.0
G0 X121.29919 Y57.47509
G0 Z0.5
G1 Z-0.5
G3 X121.14081 Y58.46849 I-3.22262 J-0.00447
G3 X120.69477 Y59.37016 I-3.37492 J-1.10833
G3 X119.16398 Y60.6402 I-3.00693 J-2.06674
G3 X117.85663 Y60.91765 I-1.32068 J-3.00419
G3 X116.86323 Y60.75926 I0.00435 J-3.22167
G3 X115.96156 Y60.3132 I1.10783 J-3.37376
G3 X114.69152 Y58.78238 I2.05881 J-3.00034
G3 X114.41407 Y57.47509 I3.00825 J-1.32154
G1 Y56.32765
G2 X112.11907 I-1.1475 J0.0
G1 Y62.06509
G3 X111.96069 Y63.05849 I-3.22262 J-0.00447
G3 X111.51465 Y63.96016 I-3.37492 J-1.10833
G3 X109.98386 Y65.2302 I-3.00693 J-2.06674
G3 X108.67651 Y65.50765 I-1.32068 J-3.00419
G3 X107.68311 Y65.34926 I0.00435 J-3.22167
G3 X106.78144 Y64.9032 I1.10783 J-3.37376
G3 X105.5114 Y63.37238 I2.05881 J-3.00034
G3 X105.23395 Y62.06509 I3.00825 J-1.32154
G1 Y58.62253
G2 X102.93895 I-1.1475 J0.0
G1 Y64.35997
G3 X102.78057 Y65.35337 I-3.22262 J-0.00447
G3 X102.33453 Y66.25504 I-3.37492 J-1.10833
G3 X100.80374 Y67.52508 I-3.00693 J-2.06674
G3 X99.49639 Y67.80253 I-1.32068 J-3.00419
G3 X98.50299 Y67.64414 I0.00435 J-3.22167
G3 X97.60132 Y67.19808 I1.10783 J-3.37376
G3 X96.33128 Y65.66726 I2.05881 J-3.00034
G3 X96.05383 Y64.35997 I3.00825 J-1.32154
G1 Y56.32741
G2 X93.75883 I-1.1475 J0.0
G1 Y80.42485
G3 X93.60044 Y81.41825 I-3.22167 J-0.00435
G3 X93.15438 Y82.31992 I-3.37376 J-1.10783
G3 X91.62357 Y83.58996 I-3.00034 J-2.05881
G3 X90.31627 Y83.86741 I-1.32154 J-3.00825
G3 X89.32286 Y83.70903 I0.00523 J-3.22745
G3 X88.4212 Y83.263 I1.1099 J-3.37805
G3 X87.15115 Y81.73214 I2.05877 J-3.0003
G3 X86.87371 Y80.42485 I3.00769 J-1.32138
G1 Y54.49117
G1 Y80.42485
G0 Z3.0
G0 X84.47371 Y77.83822
G0 Z1.0
G1 Z-0.5
G2 X96.15883 I5.84256 J2.58663
G0 Z3.0
G0 Y73.25158
G0 Z1.0
G1 Z-0.5
G3 X84.47371 I-5.84256 J7.17327
G0 Z3.0
G0 Y70.14329
G0 Z1.0
G1 Z-0.5
G2 X96.15883 I5.84256 J10.28156
G0 Z3.0
G0 X86.87371 Y54.49117
G0 Z0.5
G1 Z-0.5
G1 X86.56386 Y54.81441
G3 X86.25255 Y55.13635 I-20.68582 J-19.69134
G1 X86.04423 Y55.35016
G1 X85.76537 Y55.63425
G1 X85.39165 Y56.01111
G1 X84.88971 Y56.50995
G1 X84.7551 Y56.64224
G3 X82.55256 Y58.70718 I-42.96437 J-43.62021
G3 X82.40679 Y58.83648 I-3.41441 J-3.70247
G3 X80.81743 Y60.17519 I-26.16892 J-29.45573
G1 X80.60707 Y60.3416
G3 X80.15363 Y60.69059 I-20.92995 J-26.72518
G3 X79.08973 Y61.45157 I-15.2963 J-20.26072
G3 X77.81457 Y62.23409 I-9.04812 J-13.31413
G3 X77.4728 Y62.41442 I-6.94429 J-12.7476
G3 X76.72177 Y62.75691 I-3.97611 J-7.72445
G3 X75.8823 Y63.03248 I-2.44502 J-6.03173
G3 X74.93908 Y63.15666 I-0.97946 J-3.79528
G1 X74.8186 Y63.15391
G3 X74.3199 Y63.08343 I0.09467 J-2.46953
G3 X73.33327 Y62.52373 I0.50063 J-2.03193
G3 X72.97826 Y61.93082 I1.26889 J-1.1625
G3 X72.86475 Y61.24913 I2.00773 J-0.68462
G3 X72.89351 Y60.78953 I3.14714 J-0.03374
G3 X73.01411 Y60.1916 I5.04687 J0.70684
G3 X73.26362 Y59.42594 I6.92122 J1.83194
G3 X73.68309 Y58.45194 I13.3413 J5.16839
G3 X74.32136 Y57.21114 I22.22477 J10.64781
G1 X74.50143 Y56.88658
G1 X74.6964 Y56.54325
G3 X74.90718 Y56.17976 I31.3912 J17.96035
G3 X76.05698 Y54.28592 I63.62653 J37.33365
G3 X76.13148 Y54.16662 I2.23441 J1.31237
G3 X76.81454 Y53.0838 I106.33138 J66.31847
G1 X77.59942 Y51.85526
G1 X79.68596 Y48.60575
G2 X80.86781 Y46.74798 I-218.11732 J-140.06421
G2 X81.01711 Y46.51161 I-8.06329 J-5.25824
G2 X81.16854 Y46.27141 I-8.29113 J-5.39487
G2 X81.32213 Y46.02731 I-8.52632 J-5.53514
G2 X81.4779 Y45.77923 I-8.74948 J-5.66682
G2 X81.63587 Y45.52711 I-8.9715 J-5.79673
G2 X81.71537 Y45.40001 I-7.84057 J-4.99282
G2 X81.79543 Y45.27188 I-7.95104 J-5.0569
G2 X81.87604 Y45.1427 I-8.05776 J-5.11839
G2 X81.95721 Y45.01248 I-8.17958 J-5.18901
G2 X82.03894 Y44.88121 I-8.29624 J-5.25613
G2 X82.12124 Y44.74886 I-8.40468 J-5.31785
G2 X82.20409 Y44.61545 I-8.52242 J-5.38507
G2 X82.28752 Y44.48094 I-8.61615 J-5.4371
G2 X85.75551 Y38.71017 I-195.71292 J-121.54288
G2 X85.86198 Y38.52674 I-10.09198 J-5.98007
G2 X85.96909 Y38.34177 I-10.06405 J-5.95153
G2 X86.07686 Y38.15525 I-10.03819 J-5.92414
G2 X86.18527 Y37.96717 I-10.04785 J-5.91717
G3 X87.5152 Y35.94185 I40.43823 J25.10456
G1 X87.71459 Y35.65882
G3 X89.41041 Y33.46979 I26.20282 J18.54768
G3 X89.93147 Y32.87408 I28.02917 J23.99105
G1 X90.21662 Y32.56287
G3 X91.82887 Y30.99136 I16.19407 J15.00103
G3 X94.23066 Y29.18708 I12.42232 J14.03541
G3 X97.85176 Y27.45997 I9.0878 J14.39412
G3 X100.07419 Y26.86897 I5.60579 J16.60612
G3 X102.68329 Y26.53521 I3.82475 J19.53471
G3 X104.08627 Y26.49217 I1.41712 J23.30329
G3 X108.70469 Y27.16807 I-0.00999 J16.18501
G3 X112.95228 Y29.10298 I-4.90161 J16.38989
G3 X119.26189 Y35.85658 I-9.79048 J15.47105
G3 X120.34729 Y38.2924 I-15.17212 J8.22043
G3 X121.1035 Y41.24494 I-15.77269 J5.6128
G3 X121.20776 Y42.0258 I-15.1019 J2.41381
G3 X121.29883 Y43.70473 I-15.93579 J1.70638
( EngraveScreen )
G0 Z3.0
( T10 : 1.5 )
T10 M6
M3 S1000
G0 X48.12322 Y227.68106
G0 Z1.0
G1 Z-0.5
G1 X132.62322
G2 X145.12322 Y215.18106 I0.0 J-12.5
G1 Y130.68106
G2 X132.62322 Y118.18106 I-12.5 J0.0
G1 X48.12322
G2 X35.62322 Y130.68106 I0.0 J12.5
G1 Y215.18106
G2 X48.12322 Y227.68106 I12.5 J0.0
( ProfileWindow )
G0 Z3.0
( T2 : 2.0 )
T2 M6
M3 S1000
G0 Y224.18106
G0 Z1.0
G1 Z-1.0
G1 X132.62322
G2 X141.62322 Y215.18106 I0.0 J-9.0
G1 Y130.68106
G2 X132.62322 Y121.68106 I-9.0 J0.0
G1 X48.12322
G2 X39.12322 Y130.68106 I0.0 J9.0
G1 Y215.18106
G2 X48.12322 Y224.18106 I9.0 J0.0
G1 Z-2.0
G1 X132.62322
G2 X141.62322 Y215.18106 I0.0 J-9.0
G1 Y130.68106
G2 X132.62322 Y121.68106 I-9.0 J0.0
G1 X48.12322
G2 X39.12322 Y130.68106 I0.0 J9.0
G1 Y215.18106
G2 X48.12322 Y224.18106 I9.0 J0.0
G1 Z-3.0
G1 X132.62322
G2 X141.62322 Y215.18106 I0.0 J-9.0
G1 Y130.68106
G2 X132.62322 Y121.68106 I-9.0 J0.0
G1 X48.12322
G2 X39.12322 Y130.68106 I0.0 J9.0
G1 Y215.18106
G2 X48.12322 Y224.18106 I9.0 J0.0
G1 Z-4.0
G1 X132.62322
G2 X141.62322 Y215.18106 I0.0 J-9.0
G1 Y130.68106
G2 X132.62322 Y121.68106 I-9.0 J0.0
G1 X48.12322
G2 X39.12322 Y130.68106 I0.0 J9.0
G1 Y215.18106
G2 X48.12322 Y224.18106 I9.0 J0.0
( ProfileHole )
S1000
G0 Z3.0
G0 X26.17322 Y23.93106
G0 Z1.0
G1 Z-1.0
G2 X24.97322 Y23.23824 I-0.8 J0.0
G2 Y24.62388 I0.4 J0.69282
G2 X26.17322 Y23.93106 I0.4 J-0.69282
G1 Z-2.0
G2 X24.97322 Y23.23824 I-0.8 J0.0
G2 Y24.62388 I0.4 J0.69282
G2 X26.17322 Y23.93106 I0.4 J-0.69282
G1 Z-3.0
G2 X24.97322 Y23.23824 I-0.8 J0.0
G2 Y24.62388 I0.4 J0.69282
G2 X26.17322 Y23.93106 I0.4 J-0.69282
G1 Z-4.0
G2 X24.97322 Y23.23824 I-0.8 J0.0
G2 Y24.62388 I0.4 J0.69282
G2 X26.17322 Y23.93106 I0.4 J-0.69282
G0 Z3.0
G0 X25.37884 Y137.13108
G0 Z1.0
G1 Z-1.0
G2 X24.97322 Y137.23824 I-0.00561 J0.79998
G2 Y138.62388 I0.4 J0.69282
G2 X26.17322 Y137.93106 I0.4 J-0.69282
G2 X25.37884 Y137.13108 I-0.8 J0.0
G1 Z-2.0
G2 X24.97322 Y137.23824 I-0.00561 J0.79998
G2 Y138.62388 I0.4 J0.69282
G2 X26.17322 Y137.93106 I0.4 J-0.69282
G2 X25.37884 Y137.13108 I-0.8 J0.0
G1 Z-3.0
G2 X24.97322 Y137.23824 I-0.00561 J0.79998
G2 Y138.62388 I0.4 J0.69282
G2 X26.17322 Y137.93106 I0.4 J-0.69282
G2 X25.37884 Y137.13108 I-0.8 J0.0
G1 Z-4.0
G2 X24.97322 Y137.23824 I-0.00561 J0.79998
G2 Y138.62388 I0.4 J0.69282
G2 X26.17322 Y137.93106 I0.4 J-0.69282
G2 X25.37884 Y137.13108 I-0.8 J0.0
G0 Z3.0
G0 X25.37326 Y251.13106
G0 Z1.0
G1 Z-1.0
G2 X24.97322 Y251.23824 I-0.00004 J0.8
G2 Y252.62388 I0.4 J0.69282
G2 X26.17322 Y251.93106 I0.4 J-0.69282
G2 X25.37326 Y251.13106 I-0.8 J0.0
G1 Z-2.0
G2 X24.97322 Y251.23824 I-0.00004 J0.8
G2 Y252.62388 I0.4 J0.69282
G2 X26.17322 Y251.93106 I0.4 J-0.69282
G2 X25.37326 Y251.13106 I-0.8 J0.0
G1 Z-3.0
G2 X24.97322 Y251.23824 I-0.00004 J0.8
G2 Y252.62388 I0.4 J0.69282
G2 X26.17322 Y251.93106 I0.4 J-0.69282
G2 X25.37326 Y251.13106 I-0.8 J0.0
G1 Z-4.0
G2 X24.97322 Y251.23824 I-0.00004 J0.8
G2 Y252.62388 I0.4 J0.69282
G2 X26.17322 Y251.93106 I0.4 J-0.69282
G2 X25.37326 Y251.13106 I-0.8 J0.0
G0 Z3.0
G0 X154.57324 Y251.92614
G0 Z1.0
G1 Z-1.0
G2 X154.97322 Y252.62388 I0.79998 J0.00492
G2 X156.17322 Y251.93106 I0.4 J-0.69282
G2 X154.97322 Y251.23824 I-0.8 J0.0
G2 X154.57324 Y251.92614 I0.4 J0.69282
G1 Z-2.0
G2 X154.97322 Y252.62388 I0.79998 J0.00492
G2 X156.17322 Y251.93106 I0.4 J-0.69282
G2 X154.97322 Y251.23824 I-0.8 J0.0
G2 X154.57324 Y251.92614 I0.4 J0.69282
G1 Z-3.0
G2 X154.97322 Y252.62388 I0.79998 J0.00492
G2 X156.17322 Y251.93106 I0.4 J-0.69282
G2 X154.97322 Y251.23824 I-0.8 J0.0
G2 X154.57324 Y251.92614 I0.4 J0.69282
G1 Z-4.0
G2 X154.97322 Y252.62388 I0.79998 J0.00492
G2 X156.17322 Y251.93106 I0.4 J-0.69282
G2 X154.97322 Y251.23824 I-0.8 J0.0
G2 X154.57324 Y251.92614 I0.4 J0.69282
G0 Z3.0
G0 X155.36761 Y138.73104
G0 Z1.0
G1 Z-1.0
G2 X156.17322 Y137.93106 I0.00561 J-0.79998
G2 X154.97322 Y137.23824 I-0.8 J0.0
G2 Y138.62388 I0.4 J0.69282
G2 X155.36761 Y138.73104 I0.4 J-0.69282
G1 Z-2.0
G2 X156.17322 Y137.93106 I0.00561 J-0.79998
G2 X154.97322 Y137.23824 I-0.8 J0.0
G2 Y138.62388 I0.4 J0.69282
G2 X155.36761 Y138.73104 I0.4 J-0.69282
G1 Z-3.0
G2 X156.17322 Y137.93106 I0.00561 J-0.79998
G2 X154.97322 Y137.23824 I-0.8 J0.0
G2 Y138.62388 I0.4 J0.69282
G2 X155.36761 Y138.73104 I0.4 J-0.69282
G1 Z-4.0
G2 X156.17322 Y137.93106 I0.00561 J-0.79998
G2 X154.97322 Y137.23824 I-0.8 J0.0
G2 Y138.62388 I0.4 J0.69282
G2 X155.36761 Y138.73104 I0.4 J-0.69282
G0 Z3.0
G0 X155.37318 Y24.73106
G0 Z1.0
G1 Z-1.0
G2 X156.17322 Y23.93106 I0.00004 J-0.8
G2 X154.97322 Y23.23824 I-0.8 J0.0
G2 Y24.62388 I0.4 J0.69282
G2 X155.37318 Y24.73106 I0.4 J-0.69282
G1 Z-2.0
G2 X156.17322 Y23.93106 I0.00004 J-0.8
G2 X154.97322 Y23.23824 I-0.8 J0.0
G2 Y24.62388 I0.4 J0.69282
G2 X155.37318 Y24.73106 I0.4 J-0.69282
G1 Z-3.0
G2 X156.17322 Y23.93106 I0.00004 J-0.8
G2 X154.97322 Y23.23824 I-0.8 J0.0
G2 Y24.62388 I0.4 J0.69282
G2 X155.37318 Y24.73106 I0.4 J-0.69282
G1 Z-4.0
G2 X156.17322 Y23.93106 I0.00004 J-0.8
G2 X154.97322 Y23.23824 I-0.8 J0.0
G2 Y24.62388 I0.4 J0.69282
G2 X155.37318 Y24.73106 I0.4 J-0.69282
( ProfileCutOut )
S1000
G0 Z3.0
G0 X28.37322 Y269.93106
G0 Z1.0
G1 Z-1.0
G3 X7.37322 Y248.93106 I0.0 J-21.0
G1 Y26.93106
G3 X28.37322 Y5.93106 I21.0 J0.0
G1 X152.37322
G3 X173.37322 Y26.93106 I0.0 J21.0
G1 Y248.93106
G3 X152.37322 Y269.93106 I-21.0 J0.0
G1 X28.37322
G1 Z-2.0
G3 X7.37322 Y248.93106 I0.0 J-21.0
G1 Y26.93106
G3 X28.37322 Y5.93106 I21.0 J0.0
G1 X152.37322
G3 X173.37322 Y26.93106 I0.0 J21.0
G1 Y248.93106
G3 X152.37322 Y269.93106 I-21.0 J0.0
G1 X28.37322
G1 Z-3.0
G3 X7.37322 Y248.93106 I0.0 J-21.0
G1 Y26.93106
G3 X28.37322 Y5.93106 I21.0 J0.0
G1 X152.37322
G3 X173.37322 Y26.93106 I0.0 J21.0
G1 Y248.93106
G3 X152.37322 Y269.93106 I-21.0 J0.0
G1 X28.37322
G1 Z-4.0
G3 X7.37322 Y248.93106 I0.0 J-21.0
G1 Y26.93106
G3 X28.37322 Y5.93106 I21.0 J0.0
G1 X152.37322
G3 X173.37322 Y26.93106 I0.0 J21.0
G1 Y248.93106
G3 X152.37322 Y269.93106 I-21.0 J0.0
G1 X28.37322
G0 Z3.0
M5
M30
