( Made using CamBam - http://www.cambam.co.uk )
( servoSpacer2 11/23/2015 5:02:21 PM )
( T1 : 1.0 )
( T2 : 2.0 )
G21 G90 G64 G40
G0 Z3.0
( T2 : 2.0 )
T2 M6
( Profile1 )
G17
M3 S1000
G0 X26.37263 Y31.06737
G0 Z1.0
G1 F300.0 Z-0.5
G2 F500.0 X25.62263 Y30.63436 I-0.5 J0.0
G2 Y31.50038 I0.25 J0.43301
G2 X26.37263 Y31.06737 I0.25 J-0.43301
G1 F300.0 Z-1.0
G2 F500.0 X25.62263 Y30.63436 I-0.5 J0.0
G2 Y31.50038 I0.25 J0.43301
G2 X26.37263 Y31.06737 I0.25 J-0.43301
G1 F300.0 Z-1.5
G2 F500.0 X25.62263 Y30.63436 I-0.5 J0.0
G2 Y31.50038 I0.25 J0.43301
G2 X26.37263 Y31.06737 I0.25 J-0.43301
G1 F300.0 Z-2.0
G2 F500.0 X25.62263 Y30.63436 I-0.5 J0.0
G2 Y31.50038 I0.25 J0.43301
G2 X26.37263 Y31.06737 I0.25 J-0.43301
G1 F300.0 Z-2.5
G2 F500.0 X25.62263 Y30.63436 I-0.5 J0.0
G2 Y31.50038 I0.25 J0.43301
G2 X26.37263 Y31.06737 I0.25 J-0.43301
G1 F300.0 Z-3.0
G2 F500.0 X25.62263 Y30.63436 I-0.5 J0.0
G2 Y31.50038 I0.25 J0.43301
G2 X26.37263 Y31.06737 I0.25 J-0.43301
G1 F300.0 Z-3.5
G2 F500.0 X25.62263 Y30.63436 I-0.5 J0.0
G2 Y31.50038 I0.25 J0.43301
G2 X26.37263 Y31.06737 I0.25 J-0.43301
G1 F300.0 Z-4.0
G2 F500.0 X25.62263 Y30.63436 I-0.5 J0.0
G2 Y31.50038 I0.25 J0.43301
G2 X26.37263 Y31.06737 I0.25 J-0.43301
G0 Z3.0
G0 X32.53241 Y24.43377
G0 Z1.0
G1 F300.0 Z-0.5
G2 F500.0 X32.62263 Y24.50038 I0.34023 J-0.3664
G2 X33.37263 Y24.06737 I0.25 J-0.43301
G2 X32.62263 Y23.63436 I-0.5 J0.0
G2 X32.53241 Y24.43377 I0.25 J0.43301
G1 F300.0 Z-1.0
G2 F500.0 X32.62263 Y24.50038 I0.34023 J-0.3664
G2 X33.37263 Y24.06737 I0.25 J-0.43301
G2 X32.62263 Y23.63436 I-0.5 J0.0
G2 X32.53241 Y24.43377 I0.25 J0.43301
G1 F300.0 Z-1.5
G2 F500.0 X32.62263 Y24.50038 I0.34023 J-0.3664
G2 X33.37263 Y24.06737 I0.25 J-0.43301
G2 X32.62263 Y23.63436 I-0.5 J0.0
G2 X32.53241 Y24.43377 I0.25 J0.43301
G1 F300.0 Z-2.0
G2 F500.0 X32.62263 Y24.50038 I0.34023 J-0.3664
G2 X33.37263 Y24.06737 I0.25 J-0.43301
G2 X32.62263 Y23.63436 I-0.5 J0.0
G2 X32.53241 Y24.43377 I0.25 J0.43301
G1 F300.0 Z-2.5
G2 F500.0 X32.62263 Y24.50038 I0.34023 J-0.3664
G2 X33.37263 Y24.06737 I0.25 J-0.43301
G2 X32.62263 Y23.63436 I-0.5 J0.0
G2 X32.53241 Y24.43377 I0.25 J0.43301
G1 F300.0 Z-3.0
G2 F500.0 X32.62263 Y24.50038 I0.34023 J-0.3664
G2 X33.37263 Y24.06737 I0.25 J-0.43301
G2 X32.62263 Y23.63436 I-0.5 J0.0
G2 X32.53241 Y24.43377 I0.25 J0.43301
G1 F300.0 Z-3.5
G2 F500.0 X32.62263 Y24.50038 I0.34023 J-0.3664
G2 X33.37263 Y24.06737 I0.25 J-0.43301
G2 X32.62263 Y23.63436 I-0.5 J0.0
G2 X32.53241 Y24.43377 I0.25 J0.43301
G1 F300.0 Z-4.0
G2 F500.0 X32.62263 Y24.50038 I0.34023 J-0.3664
G2 X33.37263 Y24.06737 I0.25 J-0.43301
G2 X32.62263 Y23.63436 I-0.5 J0.0
G2 X32.53241 Y24.43377 I0.25 J0.43301
G0 Z3.0
G0 X39.50167 Y30.73212
G0 Z1.0
G1 F300.0 Z-0.5
G2 F500.0 X39.62263 Y31.50038 I0.37096 J0.33525
G2 X40.37263 Y31.06737 I0.25 J-0.43301
G2 X39.62263 Y30.63436 I-0.5 J0.0
G2 X39.50167 Y30.73212 I0.25 J0.43301
G1 F300.0 Z-1.0
G2 F500.0 X39.62263 Y31.50038 I0.37096 J0.33525
G2 X40.37263 Y31.06737 I0.25 J-0.43301
G2 X39.62263 Y30.63436 I-0.5 J0.0
G2 X39.50167 Y30.73212 I0.25 J0.43301
G1 F300.0 Z-1.5
G2 F500.0 X39.62263 Y31.50038 I0.37096 J0.33525
G2 X40.37263 Y31.06737 I0.25 J-0.43301
G2 X39.62263 Y30.63436 I-0.5 J0.0
G2 X39.50167 Y30.73212 I0.25 J0.43301
G1 F300.0 Z-2.0
G2 F500.0 X39.62263 Y31.50038 I0.37096 J0.33525
G2 X40.37263 Y31.06737 I0.25 J-0.43301
G2 X39.62263 Y30.63436 I-0.5 J0.0
G2 X39.50167 Y30.73212 I0.25 J0.43301
G1 F300.0 Z-2.5
G2 F500.0 X39.62263 Y31.50038 I0.37096 J0.33525
G2 X40.37263 Y31.06737 I0.25 J-0.43301
G2 X39.62263 Y30.63436 I-0.5 J0.0
G2 X39.50167 Y30.73212 I0.25 J0.43301
G1 F300.0 Z-3.0
G2 F500.0 X39.62263 Y31.50038 I0.37096 J0.33525
G2 X40.37263 Y31.06737 I0.25 J-0.43301
G2 X39.62263 Y30.63436 I-0.5 J0.0
G2 X39.50167 Y30.73212 I0.25 J0.43301
G1 F300.0 Z-3.5
G2 F500.0 X39.62263 Y31.50038 I0.37096 J0.33525
G2 X40.37263 Y31.06737 I0.25 J-0.43301
G2 X39.62263 Y30.63436 I-0.5 J0.0
G2 X39.50167 Y30.73212 I0.25 J0.43301
G1 F300.0 Z-4.0
G2 F500.0 X39.62263 Y31.50038 I0.37096 J0.33525
G2 X40.37263 Y31.06737 I0.25 J-0.43301
G2 X39.62263 Y30.63436 I-0.5 J0.0
G2 X39.50167 Y30.73212 I0.25 J0.43301
G0 Z3.0
G0 X33.20788 Y37.69641
G0 Z1.0
G1 F300.0 Z-0.5
G2 F500.0 X32.62263 Y37.63436 I-0.33524 J0.37096
G2 Y38.50038 I0.25 J0.43301
G2 X33.37263 Y38.06737 I0.25 J-0.43301
G2 X33.20788 Y37.69641 I-0.5 J0.0
G1 F300.0 Z-1.0
G2 F500.0 X32.62263 Y37.63436 I-0.33524 J0.37096
G2 Y38.50038 I0.25 J0.43301
G2 X33.37263 Y38.06737 I0.25 J-0.43301
G2 X33.20788 Y37.69641 I-0.5 J0.0
G1 F300.0 Z-1.5
G2 F500.0 X32.62263 Y37.63436 I-0.33524 J0.37096
G2 Y38.50038 I0.25 J0.43301
G2 X33.37263 Y38.06737 I0.25 J-0.43301
G2 X33.20788 Y37.69641 I-0.5 J0.0
G1 F300.0 Z-2.0
G2 F500.0 X32.62263 Y37.63436 I-0.33524 J0.37096
G2 Y38.50038 I0.25 J0.43301
G2 X33.37263 Y38.06737 I0.25 J-0.43301
G2 X33.20788 Y37.69641 I-0.5 J0.0
G1 F300.0 Z-2.5
G2 F500.0 X32.62263 Y37.63436 I-0.33524 J0.37096
G2 Y38.50038 I0.25 J0.43301
G2 X33.37263 Y38.06737 I0.25 J-0.43301
G2 X33.20788 Y37.69641 I-0.5 J0.0
G1 F300.0 Z-3.0
G2 F500.0 X32.62263 Y37.63436 I-0.33524 J0.37096
G2 Y38.50038 I0.25 J0.43301
G2 X33.37263 Y38.06737 I0.25 J-0.43301
G2 X33.20788 Y37.69641 I-0.5 J0.0
G1 F300.0 Z-3.5
G2 F500.0 X32.62263 Y37.63436 I-0.33524 J0.37096
G2 Y38.50038 I0.25 J0.43301
G2 X33.37263 Y38.06737 I0.25 J-0.43301
G2 X33.20788 Y37.69641 I-0.5 J0.0
G1 F300.0 Z-4.0
G2 F500.0 X32.62263 Y37.63436 I-0.33524 J0.37096
G2 Y38.50038 I0.25 J0.43301
G2 X33.37263 Y38.06737 I0.25 J-0.43301
G2 X33.20788 Y37.69641 I-0.5 J0.0
( Pocket1 )
S1000
G0 Z3.0
G0 X36.43377 Y34.6285
G0 Z1.0
G1 F300.0 Z-0.5
G3 F500.0 X36.39754 Y34.54246 I6.43331 J-2.75908
G3 X36.3115 Y34.50623 I2.67303 J-6.46954
G3 X36.34772 Y34.59228 I-6.43331 J2.75908
G3 X36.43377 Y34.6285 I-2.67303 J6.46954
G1 F300.0 X36.2761 Y34.99612
G3 F500.0 X37.46156 Y35.6563 I-2.60142 J6.06569
G3 X36.70542 Y34.23458 I5.40551 J-3.78687
G3 X35.2837 Y33.47844 I2.36516 J-6.16166
G3 X36.03984 Y34.90016 I-5.40551 J3.78687
G3 X36.2761 Y34.99612 I-2.36516 J6.16166
G0 Z3.0
G0 X29.43377 Y27.6285
G0 Z1.0
G1 F300.0 Z-0.5
G3 F500.0 X29.39754 Y27.54246 I6.43331 J-2.75908
G3 X29.3115 Y27.50623 I2.67303 J-6.46954
G3 X29.34772 Y27.59228 I-6.43331 J2.75908
G3 X29.43377 Y27.6285 I-2.67303 J6.46954
G1 F300.0 X29.2761 Y27.99612
G3 F500.0 X30.46156 Y28.6563 I-2.60142 J6.06569
G3 X29.70542 Y27.23458 I5.40551 J-3.78687
G3 X28.2837 Y26.47844 I2.36516 J-6.16166
G3 X29.03984 Y27.90016 I-5.40551 J3.78687
G3 X29.2761 Y27.99612 I-2.36516 J6.16166
G1 F300.0 X28.96078 Y28.73136
G3 F500.0 X30.77591 Y29.96059 I-2.28609 J5.33046
G1 X33.97941 Y33.16409
G3 X35.41191 Y35.52809 I-4.10122 J4.10122
G3 X37.77591 Y36.96059 I-1.73722 J5.53372
G1 X40.63599 Y39.82067
G2 X41.62594 Y38.83072 I-7.76335 J-8.7533
G1 X38.76586 Y35.97065
G3 X37.33336 Y33.60664 I4.10122 J-4.10122
G3 X34.96935 Y32.17414 I1.73722 J-5.53372
G1 X31.76586 Y28.97065
G3 X30.33336 Y26.60664 I4.10122 J-4.10122
G3 X27.96935 Y25.17414 I1.73722 J-5.53372
G1 X25.10928 Y22.31406
G2 X24.11933 Y23.30401 I7.76335 J8.7533
G1 X26.97941 Y26.16409
G3 X28.41191 Y28.52809 I-4.10122 J4.10122
G3 X28.96078 Y28.73136 I-1.73722 J5.53372
G1 F300.0 X28.64546 Y29.46659
G3 F500.0 X30.21022 Y30.52628 I-1.97077 J4.59522
G1 X33.41372 Y33.72978
G3 X34.75916 Y36.18084 I-3.53553 J3.53553
G3 X37.21022 Y37.52628 I-1.08447 J4.88098
G1 X40.58694 Y40.90299
G2 X42.70826 Y38.78167 I-7.7143 J-9.83562
G1 X39.33154 Y35.40496
G3 X37.9861 Y32.9539 I3.53553 J-3.53553
G3 X35.53504 Y31.60846 I1.08447 J-4.88098
G1 X32.33154 Y28.40496
G3 X30.9861 Y25.9539 I3.53553 J-3.53553
G3 X28.53504 Y24.60846 I1.08447 J-4.88098
G1 X25.15833 Y21.23174
G2 X23.03701 Y23.35306 I7.7143 J9.83562
G1 X26.41372 Y26.72978
G3 X27.75916 Y29.18084 I-3.53553 J3.53553
G3 X28.64546 Y29.46659 I-1.08447 J4.88098
G1 F300.0 X28.33014 Y30.20183
G3 F500.0 X29.64454 Y31.09197 I-1.65545 J3.85999
G1 X32.84803 Y34.29546
G3 X34.06043 Y36.87957 I-2.96985 J2.96985
G3 X36.64454 Y38.09197 I-0.38575 J4.18225
G1 X40.50911 Y41.95654
G2 X43.76181 Y38.70385 I-7.63648 J-10.88917
G1 X39.89723 Y34.83927
G3 X38.68483 Y32.25517 I2.96985 J-2.96985
G3 X36.10073 Y31.04277 I0.38575 J-4.18225
G1 X32.89723 Y27.83927
G3 X31.68483 Y25.25517 I2.96985 J-2.96985
G3 X29.10073 Y24.04277 I0.38575 J-4.18225
G1 X25.23615 Y20.17819
G2 X21.98346 Y23.43089 I7.63648 J10.88917
G1 X25.84803 Y27.29546
G3 X27.06043 Y29.87957 I-2.96985 J2.96985
G3 X28.33014 Y30.20183 I-0.38575 J4.18225
G1 F300.0 X28.01481 Y30.93706
G3 F500.0 X29.07885 Y31.65765 I-1.34012 J3.12475
G1 X32.28235 Y34.86115
G3 X33.25178 Y37.68822 I-2.40416 J2.40416
G3 X36.07885 Y38.65765 I0.42291 J3.3736
G1 X40.40685 Y42.98565
G2 X44.79092 Y38.60159 I-7.53422 J-11.91828
G1 X40.46291 Y34.27359
G3 X39.49348 Y31.44652 I2.40416 J-2.40416
G3 X36.66641 Y30.47709 I-0.42291 J-3.3736
G1 X33.46291 Y27.27359
G3 X32.49348 Y24.44652 I2.40416 J-2.40416
G3 X29.66641 Y23.47709 I-0.42291 J-3.3736
G1 X25.33841 Y19.14908
G2 X20.95435 Y23.53315 I7.53422 J11.91828
G1 X25.28235 Y27.86115
G3 X26.25178 Y30.68822 I-2.40416 J2.40416
G3 X28.01481 Y30.93706 I0.42291 J3.3736
G1 F300.0 X27.69949 Y31.6723
G3 F500.0 X28.51317 Y32.22334 I-1.0248 J2.38952
G1 X31.71666 Y35.42683
G3 X32.38966 Y37.938 I-1.83848 J1.83848
G2 X33.002 Y38.55034 I0.48298 J0.12936
G3 X35.51317 Y39.22334 I0.67269 J2.51147
G1 X40.28349 Y43.99366
G2 X45.79893 Y38.47823 I-7.41086 J-12.9263
G1 X41.0286 Y33.7079
G3 X40.35561 Y31.19673 I1.83848 J-1.83848
G2 X39.74327 Y30.58439 I-0.48298 J-0.12936
G3 X37.2321 Y29.9114 I-0.67269 J-2.51147
G1 X34.0286 Y26.7079
G3 X33.35561 Y24.19673 I1.83848 J-1.83848
G2 X32.74327 Y23.58439 I-0.48298 J-0.12936
G3 X30.2321 Y22.9114 I-0.67269 J-2.51147
G1 X25.46177 Y18.14107
G2 X19.94634 Y23.65651 I7.41086 J12.9263
G1 X24.71666 Y28.42683
G3 X25.38966 Y30.938 I-1.83848 J1.83848
G2 X26.002 Y31.55034 I0.48298 J0.12936
G3 X27.69949 Y31.6723 I0.67269 J2.51147
G1 F300.0 X27.38417 Y32.40753
G3 F500.0 X27.94748 Y32.78902 I-0.70948 J1.65428
G1 X31.15098 Y35.99252
G3 X31.6169 Y37.73102 I-1.27279 J1.27279
G2 X33.20898 Y39.3231 I1.25574 J0.33635
G3 X34.94748 Y39.78902 I0.46571 J1.73871
G1 X40.14168 Y44.98322
G2 X46.78848 Y38.33642 I-7.26905 J-13.91585
G1 X41.59428 Y33.14222
G3 X41.12837 Y31.40372 I1.27279 J-1.27279
G2 X39.53628 Y29.81163 I-1.25574 J-0.33635
G3 X37.79778 Y29.34572 I-0.46571 J-1.73871
G1 X34.59428 Y26.14222
G3 X34.12837 Y24.40372 I1.27279 J-1.27279
G2 X32.53628 Y22.81163 I-1.25574 J-0.33635
G3 X30.79778 Y22.34572 I-0.46571 J-1.73871
G1 X25.60358 Y17.15152
G2 X18.95678 Y23.79832 I7.26905 J13.91585
G1 X24.15098 Y28.99252
G3 X24.6169 Y30.73102 I-1.27279 J1.27279
G2 X26.20898 Y32.3231 I1.25574 J0.33635
G3 X27.38417 Y32.40753 I0.46571 J1.73871
G1 F300.0 X27.06884 Y33.14277
G3 F500.0 X27.3818 Y33.35471 I-0.39415 J0.91904
G1 X30.58529 Y36.5582
G3 X30.84414 Y37.52404 I-0.70711 J0.70711
G2 X33.41596 Y40.09586 I2.0285 J0.54333
G3 X34.3818 Y40.35471 I0.25873 J0.96595
G1 X39.98354 Y45.95646
G2 X47.76172 Y38.17828 I-7.11091 J-14.88909
G1 X42.15997 Y32.57653
G3 X41.90113 Y31.6107 I0.70711 J-0.70711
G2 X39.3293 Y29.03887 I-2.0285 J-0.54333
G3 X38.36347 Y28.78003 I-0.25873 J-0.96595
G1 X35.15997 Y25.57653
G3 X34.90113 Y24.6107 I0.70711 J-0.70711
G2 X32.3293 Y22.03887 I-2.0285 J-0.54333
G3 X31.36347 Y21.78003 I-0.25873 J-0.96595
G1 X25.76172 Y16.17828
G2 X17.98354 Y23.95646 I7.11091 J14.88909
G1 X23.58529 Y29.5582
G3 X23.84414 Y30.52404 I-0.70711 J0.70711
G2 X26.41596 Y33.09586 I2.0285 J0.54333
G3 X27.06884 Y33.14277 I0.25873 J0.96595
G0 Z3.0
G0 X29.43377 Y27.6285
G0 Z0.5
G1 F300.0 Z-1.0
G3 F500.0 X29.39754 Y27.54246 I6.43331 J-2.75908
G3 X29.3115 Y27.50623 I2.67303 J-6.46954
G3 X29.34772 Y27.59228 I-6.43331 J2.75908
G3 X29.43377 Y27.6285 I-2.67303 J6.46954
G1 F300.0 X29.2761 Y27.99612
G3 F500.0 X30.46156 Y28.6563 I-2.60142 J6.06569
G3 X29.70542 Y27.23458 I5.40551 J-3.78687
G3 X28.2837 Y26.47844 I2.36516 J-6.16166
G3 X29.03984 Y27.90016 I-5.40551 J3.78687
G3 X29.2761 Y27.99612 I-2.36516 J6.16166
G0 Z3.0
G0 X36.3115 Y34.50623
G0 Z0.5
G1 F300.0 Z-1.0
G3 F500.0 X36.34772 Y34.59228 I-6.43331 J2.75908
G3 X36.43377 Y34.6285 I-2.67303 J6.46954
G3 X36.39754 Y34.54246 I6.43331 J-2.75908
G3 X36.3115 Y34.50623 I2.67303 J-6.46954
G1 F300.0 X36.46916 Y34.13862
G3 F500.0 X35.2837 Y33.47844 I2.60142 J-6.06569
G3 X36.03984 Y34.90016 I-5.40551 J3.78687
G3 X37.46156 Y35.6563 I-2.36516 J6.16166
G3 X36.70542 Y34.23458 I5.40551 J-3.78687
G3 X36.46916 Y34.13862 I2.36516 J-6.16166
G1 F300.0 X36.78448 Y33.40338
G3 F500.0 X34.96935 Y32.17414 I2.28609 J-5.33046
G1 X31.76586 Y28.97065
G3 X30.33336 Y26.60664 I4.10122 J-4.10122
G3 X27.96935 Y25.17414 I1.73722 J-5.53372
G1 X25.10928 Y22.31406
G2 X24.11933 Y23.30401 I7.76335 J8.7533
G1 X26.97941 Y26.16409
G3 X28.41191 Y28.52809 I-4.10122 J4.10122
G3 X30.77591 Y29.96059 I-1.73722 J5.53372
G1 X33.97941 Y33.16409
G3 X35.41191 Y35.52809 I-4.10122 J4.10122
G3 X37.77591 Y36.96059 I-1.73722 J5.53372
G1 X40.63599 Y39.82067
G2 X41.62594 Y38.83072 I-7.76335 J-8.7533
G1 X38.76586 Y35.97065
G3 X37.33336 Y33.60664 I4.10122 J-4.10122
G3 X36.78448 Y33.40338 I1.73722 J-5.53372
G1 F300.0 X37.09981 Y32.66815
G3 F500.0 X35.53504 Y31.60846 I1.97077 J-4.59522
G1 X32.33154 Y28.40496
G3 X30.9861 Y25.9539 I3.53553 J-3.53553
G3 X28.53504 Y24.60846 I1.08447 J-4.88098
G1 X25.15833 Y21.23174
G2 X23.03701 Y23.35306 I7.7143 J9.83562
G1 X26.41372 Y26.72978
G3 X27.75916 Y29.18084 I-3.53553 J3.53553
G3 X30.21022 Y30.52628 I-1.08447 J4.88098
G1 X33.41372 Y33.72978
G3 X34.75916 Y36.18084 I-3.53553 J3.53553
G3 X37.21022 Y37.52628 I-1.08447 J4.88098
G1 X40.58694 Y40.90299
G2 X42.70826 Y38.78167 I-7.7143 J-9.83562
G1 X39.33154 Y35.40496
G3 X37.9861 Y32.9539 I3.53553 J-3.53553
G3 X37.09981 Y32.66815 I1.08447 J-4.88098
G1 F300.0 X37.41513 Y31.93291
G3 F500.0 X36.10073 Y31.04277 I1.65545 J-3.85999
G1 X32.89723 Y27.83927
G3 X31.68483 Y25.25517 I2.96985 J-2.96985
G3 X29.10073 Y24.04277 I0.38575 J-4.18225
G1 X25.23615 Y20.17819
G2 X21.98346 Y23.43089 I7.63648 J10.88917
G1 X25.84803 Y27.29546
G3 X27.06043 Y29.87957 I-2.96985 J2.96985
G3 X29.64454 Y31.09197 I-0.38575 J4.18225
G1 X32.84803 Y34.29546
G3 X34.06043 Y36.87957 I-2.96985 J2.96985
G3 X36.64454 Y38.09197 I-0.38575 J4.18225
G1 X40.50911 Y41.95654
G2 X43.76181 Y38.70385 I-7.63648 J-10.88917
G1 X39.89723 Y34.83927
G3 X38.68483 Y32.25517 I2.96985 J-2.96985
G3 X37.41513 Y31.93291 I0.38575 J-4.18225
G1 F300.0 X37.73045 Y31.19767
G3 F500.0 X36.66641 Y30.47709 I1.34012 J-3.12475
G1 X33.46291 Y27.27359
G3 X32.49348 Y24.44652 I2.40416 J-2.40416
G3 X29.66641 Y23.47709 I-0.42291 J-3.3736
G1 X25.33841 Y19.14908
G2 X20.95435 Y23.53315 I7.53422 J11.91828
G1 X25.28235 Y27.86115
G3 X26.25178 Y30.68822 I-2.40416 J2.40416
G3 X29.07885 Y31.65765 I0.42291 J3.3736
G1 X32.28235 Y34.86115
G3 X33.25178 Y37.68822 I-2.40416 J2.40416
G3 X36.07885 Y38.65765 I0.42291 J3.3736
G1 X40.40685 Y42.98565
G2 X44.79092 Y38.60159 I-7.53422 J-11.91828
G1 X40.46291 Y34.27359
G3 X39.49348 Y31.44652 I2.40416 J-2.40416
G3 X37.73045 Y31.19767 I-0.42291 J-3.3736
G1 F300.0 X38.04577 Y30.46244
G3 F500.0 X37.2321 Y29.9114 I1.0248 J-2.38952
G1 X34.0286 Y26.7079
G3 X33.35561 Y24.19673 I1.83848 J-1.83848
G2 X32.74327 Y23.58439 I-0.48298 J-0.12936
G3 X30.2321 Y22.9114 I-0.67269 J-2.51147
G1 X25.46177 Y18.14107
G2 X19.94634 Y23.65651 I7.41086 J12.9263
G1 X24.71666 Y28.42683
G3 X25.38966 Y30.938 I-1.83848 J1.83848
G2 X26.002 Y31.55034 I0.48298 J0.12936
G3 X28.51317 Y32.22334 I0.67269 J2.51147
G1 X31.71666 Y35.42683
G3 X32.38966 Y37.938 I-1.83848 J1.83848
G2 X33.002 Y38.55034 I0.48298 J0.12936
G3 X35.51317 Y39.22334 I0.67269 J2.51147
G1 X40.28349 Y43.99366
G2 X45.79893 Y38.47823 I-7.41086 J-12.9263
G1 X41.0286 Y33.7079
G3 X40.35561 Y31.19673 I1.83848 J-1.83848
G2 X39.74327 Y30.58439 I-0.48298 J-0.12936
G3 X38.04577 Y30.46244 I-0.67269 J-2.51147
G1 F300.0 X38.3611 Y29.7272
G3 F500.0 X37.79778 Y29.34572 I0.70948 J-1.65428
G1 X34.59428 Y26.14222
G3 X34.12837 Y24.40372 I1.27279 J-1.27279
G2 X32.53628 Y22.81163 I-1.25574 J-0.33635
G3 X30.79778 Y22.34572 I-0.46571 J-1.73871
G1 X25.60358 Y17.15152
G2 X18.95678 Y23.79832 I7.26905 J13.91585
G1 X24.15098 Y28.99252
G3 X24.6169 Y30.73102 I-1.27279 J1.27279
G2 X26.20898 Y32.3231 I1.25574 J0.33635
G3 X27.94748 Y32.78902 I0.46571 J1.73871
G1 X31.15098 Y35.99252
G3 X31.6169 Y37.73102 I-1.27279 J1.27279
G2 X33.20898 Y39.3231 I1.25574 J0.33635
G3 X34.94748 Y39.78902 I0.46571 J1.73871
G1 X40.14168 Y44.98322
G2 X46.78848 Y38.33642 I-7.26905 J-13.91585
G1 X41.59428 Y33.14222
G3 X41.12837 Y31.40372 I1.27279 J-1.27279
G2 X39.53628 Y29.81163 I-1.25574 J-0.33635
G3 X38.3611 Y29.7272 I-0.46571 J-1.73871
G1 F300.0 X38.67642 Y28.99197
G3 F500.0 X38.36347 Y28.78003 I0.39415 J-0.91904
G1 X35.15997 Y25.57653
G3 X34.90113 Y24.6107 I0.70711 J-0.70711
G2 X32.3293 Y22.03887 I-2.0285 J-0.54333
G3 X31.36347 Y21.78003 I-0.25873 J-0.96595
G1 X25.76172 Y16.17828
G2 X17.98354 Y23.95646 I7.11091 J14.88909
G1 X23.58529 Y29.5582
G3 X23.84414 Y30.52404 I-0.70711 J0.70711
G2 X26.41596 Y33.09586 I2.0285 J0.54333
G3 X27.3818 Y33.35471 I0.25873 J0.96595
G1 X30.58529 Y36.5582
G3 X30.84414 Y37.52404 I-0.70711 J0.70711
G2 X33.41596 Y40.09586 I2.0285 J0.54333
G3 X34.3818 Y40.35471 I0.25873 J0.96595
G1 X39.98354 Y45.95646
G2 X47.76172 Y38.17828 I-7.11091 J-14.88909
G1 X42.15997 Y32.57653
G3 X41.90113 Y31.6107 I0.70711 J-0.70711
G2 X39.3293 Y29.03887 I-2.0285 J-0.54333
G3 X38.67642 Y28.99197 I-0.25873 J-0.96595
G0 Z3.0
G0 X36.3115 Y34.50623
G0 Z0.0
G1 F300.0 Z-1.5
G3 F500.0 X36.34772 Y34.59228 I-6.43331 J2.75908
G3 X36.43377 Y34.6285 I-2.67303 J6.46954
G3 X36.39754 Y34.54246 I6.43331 J-2.75908
G3 X36.3115 Y34.50623 I2.67303 J-6.46954
G1 F300.0 X36.46916 Y34.13862
G3 F500.0 X35.2837 Y33.47844 I2.60142 J-6.06569
G3 X36.03984 Y34.90016 I-5.40551 J3.78687
G3 X37.46156 Y35.6563 I-2.36516 J6.16166
G3 X36.70542 Y34.23458 I5.40551 J-3.78687
G3 X36.46916 Y34.13862 I2.36516 J-6.16166
G0 Z3.0
G0 X29.43377 Y27.6285
G0 Z0.0
G1 F300.0 Z-1.5
G3 F500.0 X29.39754 Y27.54246 I6.43331 J-2.75908
G3 X29.3115 Y27.50623 I2.67303 J-6.46954
G3 X29.34772 Y27.59228 I-6.43331 J2.75908
G3 X29.43377 Y27.6285 I-2.67303 J6.46954
G1 F300.0 X29.2761 Y27.99612
G3 F500.0 X30.46156 Y28.6563 I-2.60142 J6.06569
G3 X29.70542 Y27.23458 I5.40551 J-3.78687
G3 X28.2837 Y26.47844 I2.36516 J-6.16166
G3 X29.03984 Y27.90016 I-5.40551 J3.78687
G3 X29.2761 Y27.99612 I-2.36516 J6.16166
G1 F300.0 X28.96078 Y28.73136
G3 F500.0 X30.77591 Y29.96059 I-2.28609 J5.33046
G1 X33.97941 Y33.16409
G3 X35.41191 Y35.52809 I-4.10122 J4.10122
G3 X37.77591 Y36.96059 I-1.73722 J5.53372
G1 X40.63599 Y39.82067
G2 X41.62594 Y38.83072 I-7.76335 J-8.7533
G1 X38.76586 Y35.97065
G3 X37.33336 Y33.60664 I4.10122 J-4.10122
G3 X34.96935 Y32.17414 I1.73722 J-5.53372
G1 X31.76586 Y28.97065
G3 X30.33336 Y26.60664 I4.10122 J-4.10122
G3 X27.96935 Y25.17414 I1.73722 J-5.53372
G1 X25.10928 Y22.31406
G2 X24.11933 Y23.30401 I7.76335 J8.7533
G1 X26.97941 Y26.16409
G3 X28.41191 Y28.52809 I-4.10122 J4.10122
G3 X28.96078 Y28.73136 I-1.73722 J5.53372
G1 F300.0 X28.64546 Y29.46659
G3 F500.0 X30.21022 Y30.52628 I-1.97077 J4.59522
G1 X33.41372 Y33.72978
G3 X34.75916 Y36.18084 I-3.53553 J3.53553
G3 X37.21022 Y37.52628 I-1.08447 J4.88098
G1 X40.58694 Y40.90299
G2 X42.70826 Y38.78167 I-7.7143 J-9.83562
G1 X39.33154 Y35.40496
G3 X37.9861 Y32.9539 I3.53553 J-3.53553
G3 X35.53504 Y31.60846 I1.08447 J-4.88098
G1 X32.33154 Y28.40496
G3 X30.9861 Y25.9539 I3.53553 J-3.53553
G3 X28.53504 Y24.60846 I1.08447 J-4.88098
G1 X25.15833 Y21.23174
G2 X23.03701 Y23.35306 I7.7143 J9.83562
G1 X26.41372 Y26.72978
G3 X27.75916 Y29.18084 I-3.53553 J3.53553
G3 X28.64546 Y29.46659 I-1.08447 J4.88098
G1 F300.0 X28.33014 Y30.20183
G3 F500.0 X29.64454 Y31.09197 I-1.65545 J3.85999
G1 X32.84803 Y34.29546
G3 X34.06043 Y36.87957 I-2.96985 J2.96985
G3 X36.64454 Y38.09197 I-0.38575 J4.18225
G1 X40.50911 Y41.95654
G2 X43.76181 Y38.70385 I-7.63648 J-10.88917
G1 X39.89723 Y34.83927
G3 X38.68483 Y32.25517 I2.96985 J-2.96985
G3 X36.10073 Y31.04277 I0.38575 J-4.18225
G1 X32.89723 Y27.83927
G3 X31.68483 Y25.25517 I2.96985 J-2.96985
G3 X29.10073 Y24.04277 I0.38575 J-4.18225
G1 X25.23615 Y20.17819
G2 X21.98346 Y23.43089 I7.63648 J10.88917
G1 X25.84803 Y27.29546
G3 X27.06043 Y29.87957 I-2.96985 J2.96985
G3 X28.33014 Y30.20183 I-0.38575 J4.18225
G1 F300.0 X28.01481 Y30.93706
G3 F500.0 X29.07885 Y31.65765 I-1.34012 J3.12475
G1 X32.28235 Y34.86115
G3 X33.25178 Y37.68822 I-2.40416 J2.40416
G3 X36.07885 Y38.65765 I0.42291 J3.3736
G1 X40.40685 Y42.98565
G2 X44.79092 Y38.60159 I-7.53422 J-11.91828
G1 X40.46291 Y34.27359
G3 X39.49348 Y31.44652 I2.40416 J-2.40416
G3 X36.66641 Y30.47709 I-0.42291 J-3.3736
G1 X33.46291 Y27.27359
G3 X32.49348 Y24.44652 I2.40416 J-2.40416
G3 X29.66641 Y23.47709 I-0.42291 J-3.3736
G1 X25.33841 Y19.14908
G2 X20.95435 Y23.53315 I7.53422 J11.91828
G1 X25.28235 Y27.86115
G3 X26.25178 Y30.68822 I-2.40416 J2.40416
G3 X28.01481 Y30.93706 I0.42291 J3.3736
G1 F300.0 X27.69949 Y31.6723
G3 F500.0 X28.51317 Y32.22334 I-1.0248 J2.38952
G1 X31.71666 Y35.42683
G3 X32.38966 Y37.938 I-1.83848 J1.83848
G2 X33.002 Y38.55034 I0.48298 J0.12936
G3 X35.51317 Y39.22334 I0.67269 J2.51147
G1 X40.28349 Y43.99366
G2 X45.79893 Y38.47823 I-7.41086 J-12.9263
G1 X41.0286 Y33.7079
G3 X40.35561 Y31.19673 I1.83848 J-1.83848
G2 X39.74327 Y30.58439 I-0.48298 J-0.12936
G3 X37.2321 Y29.9114 I-0.67269 J-2.51147
G1 X34.0286 Y26.7079
G3 X33.35561 Y24.19673 I1.83848 J-1.83848
G2 X32.74327 Y23.58439 I-0.48298 J-0.12936
G3 X30.2321 Y22.9114 I-0.67269 J-2.51147
G1 X25.46177 Y18.14107
G2 X19.94634 Y23.65651 I7.41086 J12.9263
G1 X24.71666 Y28.42683
G3 X25.38966 Y30.938 I-1.83848 J1.83848
G2 X26.002 Y31.55034 I0.48298 J0.12936
G3 X27.69949 Y31.6723 I0.67269 J2.51147
G1 F300.0 X27.38417 Y32.40753
G3 F500.0 X27.94748 Y32.78902 I-0.70948 J1.65428
G1 X31.15098 Y35.99252
G3 X31.6169 Y37.73102 I-1.27279 J1.27279
G2 X33.20898 Y39.3231 I1.25574 J0.33635
G3 X34.94748 Y39.78902 I0.46571 J1.73871
G1 X40.14168 Y44.98322
G2 X46.78848 Y38.33642 I-7.26905 J-13.91585
G1 X41.59428 Y33.14222
G3 X41.12837 Y31.40372 I1.27279 J-1.27279
G2 X39.53628 Y29.81163 I-1.25574 J-0.33635
G3 X37.79778 Y29.34572 I-0.46571 J-1.73871
G1 X34.59428 Y26.14222
G3 X34.12837 Y24.40372 I1.27279 J-1.27279
G2 X32.53628 Y22.81163 I-1.25574 J-0.33635
G3 X30.79778 Y22.34572 I-0.46571 J-1.73871
G1 X25.60358 Y17.15152
G2 X18.95678 Y23.79832 I7.26905 J13.91585
G1 X24.15098 Y28.99252
G3 X24.6169 Y30.73102 I-1.27279 J1.27279
G2 X26.20898 Y32.3231 I1.25574 J0.33635
G3 X27.38417 Y32.40753 I0.46571 J1.73871
G1 F300.0 X27.06884 Y33.14277
G3 F500.0 X27.3818 Y33.35471 I-0.39415 J0.91904
G1 X30.58529 Y36.5582
G3 X30.84414 Y37.52404 I-0.70711 J0.70711
G2 X33.41596 Y40.09586 I2.0285 J0.54333
G3 X34.3818 Y40.35471 I0.25873 J0.96595
G1 X39.98354 Y45.95646
G2 X47.76172 Y38.17828 I-7.11091 J-14.88909
G1 X42.15997 Y32.57653
G3 X41.90113 Y31.6107 I0.70711 J-0.70711
G2 X39.3293 Y29.03887 I-2.0285 J-0.54333
G3 X38.36347 Y28.78003 I-0.25873 J-0.96595
G1 X35.15997 Y25.57653
G3 X34.90113 Y24.6107 I0.70711 J-0.70711
G2 X32.3293 Y22.03887 I-2.0285 J-0.54333
G3 X31.36347 Y21.78003 I-0.25873 J-0.96595
G1 X25.76172 Y16.17828
G2 X17.98354 Y23.95646 I7.11091 J14.88909
G1 X23.58529 Y29.5582
G3 X23.84414 Y30.52404 I-0.70711 J0.70711
G2 X26.41596 Y33.09586 I2.0285 J0.54333
G3 X27.06884 Y33.14277 I0.25873 J0.96595
G0 Z3.0
G0 X29.43377 Y27.6285
G0 Z-0.5
G1 F300.0 Z-2.0
G3 F500.0 X29.39754 Y27.54246 I6.43331 J-2.75908
G3 X29.3115 Y27.50623 I2.67303 J-6.46954
G3 X29.34772 Y27.59228 I-6.43331 J2.75908
G3 X29.43377 Y27.6285 I-2.67303 J6.46954
G1 F300.0 X29.2761 Y27.99612
G3 F500.0 X30.46156 Y28.6563 I-2.60142 J6.06569
G3 X29.70542 Y27.23458 I5.40551 J-3.78687
G3 X28.2837 Y26.47844 I2.36516 J-6.16166
G3 X29.03984 Y27.90016 I-5.40551 J3.78687
G3 X29.2761 Y27.99612 I-2.36516 J6.16166
G0 Z3.0
G0 X36.3115 Y34.50623
G0 Z-0.5
G1 F300.0 Z-2.0
G3 F500.0 X36.34772 Y34.59228 I-6.43331 J2.75908
G3 X36.43377 Y34.6285 I-2.67303 J6.46954
G3 X36.39754 Y34.54246 I6.43331 J-2.75908
G3 X36.3115 Y34.50623 I2.67303 J-6.46954
G1 F300.0 X36.46916 Y34.13862
G3 F500.0 X35.2837 Y33.47844 I2.60142 J-6.06569
G3 X36.03984 Y34.90016 I-5.40551 J3.78687
G3 X37.46156 Y35.6563 I-2.36516 J6.16166
G3 X36.70542 Y34.23458 I5.40551 J-3.78687
G3 X36.46916 Y34.13862 I2.36516 J-6.16166
G1 F300.0 X36.78448 Y33.40338
G3 F500.0 X34.96935 Y32.17414 I2.28609 J-5.33046
G1 X31.76586 Y28.97065
G3 X30.33336 Y26.60664 I4.10122 J-4.10122
G3 X27.96935 Y25.17414 I1.73722 J-5.53372
G1 X25.10928 Y22.31406
G2 X24.11933 Y23.30401 I7.76335 J8.7533
G1 X26.97941 Y26.16409
G3 X28.41191 Y28.52809 I-4.10122 J4.10122
G3 X30.77591 Y29.96059 I-1.73722 J5.53372
G1 X33.97941 Y33.16409
G3 X35.41191 Y35.52809 I-4.10122 J4.10122
G3 X37.77591 Y36.96059 I-1.73722 J5.53372
G1 X40.63599 Y39.82067
G2 X41.62594 Y38.83072 I-7.76335 J-8.7533
G1 X38.76586 Y35.97065
G3 X37.33336 Y33.60664 I4.10122 J-4.10122
G3 X36.78448 Y33.40338 I1.73722 J-5.53372
G1 F300.0 X37.09981 Y32.66815
G3 F500.0 X35.53504 Y31.60846 I1.97077 J-4.59522
G1 X32.33154 Y28.40496
G3 X30.9861 Y25.9539 I3.53553 J-3.53553
G3 X28.53504 Y24.60846 I1.08447 J-4.88098
G1 X25.15833 Y21.23174
G2 X23.03701 Y23.35306 I7.7143 J9.83562
G1 X26.41372 Y26.72978
G3 X27.75916 Y29.18084 I-3.53553 J3.53553
G3 X30.21022 Y30.52628 I-1.08447 J4.88098
G1 X33.41372 Y33.72978
G3 X34.75916 Y36.18084 I-3.53553 J3.53553
G3 X37.21022 Y37.52628 I-1.08447 J4.88098
G1 X40.58694 Y40.90299
G2 X42.70826 Y38.78167 I-7.7143 J-9.83562
G1 X39.33154 Y35.40496
G3 X37.9861 Y32.9539 I3.53553 J-3.53553
G3 X37.09981 Y32.66815 I1.08447 J-4.88098
G1 F300.0 X37.41513 Y31.93291
G3 F500.0 X36.10073 Y31.04277 I1.65545 J-3.85999
G1 X32.89723 Y27.83927
G3 X31.68483 Y25.25517 I2.96985 J-2.96985
G3 X29.10073 Y24.04277 I0.38575 J-4.18225
G1 X25.23615 Y20.17819
G2 X21.98346 Y23.43089 I7.63648 J10.88917
G1 X25.84803 Y27.29546
G3 X27.06043 Y29.87957 I-2.96985 J2.96985
G3 X29.64454 Y31.09197 I-0.38575 J4.18225
G1 X32.84803 Y34.29546
G3 X34.06043 Y36.87957 I-2.96985 J2.96985
G3 X36.64454 Y38.09197 I-0.38575 J4.18225
G1 X40.50911 Y41.95654
G2 X43.76181 Y38.70385 I-7.63648 J-10.88917
G1 X39.89723 Y34.83927
G3 X38.68483 Y32.25517 I2.96985 J-2.96985
G3 X37.41513 Y31.93291 I0.38575 J-4.18225
G1 F300.0 X37.73045 Y31.19767
G3 F500.0 X36.66641 Y30.47709 I1.34012 J-3.12475
G1 X33.46291 Y27.27359
G3 X32.49348 Y24.44652 I2.40416 J-2.40416
G3 X29.66641 Y23.47709 I-0.42291 J-3.3736
G1 X25.33841 Y19.14908
G2 X20.95435 Y23.53315 I7.53422 J11.91828
G1 X25.28235 Y27.86115
G3 X26.25178 Y30.68822 I-2.40416 J2.40416
G3 X29.07885 Y31.65765 I0.42291 J3.3736
G1 X32.28235 Y34.86115
G3 X33.25178 Y37.68822 I-2.40416 J2.40416
G3 X36.07885 Y38.65765 I0.42291 J3.3736
G1 X40.40685 Y42.98565
G2 X44.79092 Y38.60159 I-7.53422 J-11.91828
G1 X40.46291 Y34.27359
G3 X39.49348 Y31.44652 I2.40416 J-2.40416
G3 X37.73045 Y31.19767 I-0.42291 J-3.3736
G1 F300.0 X38.04577 Y30.46244
G3 F500.0 X37.2321 Y29.9114 I1.0248 J-2.38952
G1 X34.0286 Y26.7079
G3 X33.35561 Y24.19673 I1.83848 J-1.83848
G2 X32.74327 Y23.58439 I-0.48298 J-0.12936
G3 X30.2321 Y22.9114 I-0.67269 J-2.51147
G1 X25.46177 Y18.14107
G2 X19.94634 Y23.65651 I7.41086 J12.9263
G1 X24.71666 Y28.42683
G3 X25.38966 Y30.938 I-1.83848 J1.83848
G2 X26.002 Y31.55034 I0.48298 J0.12936
G3 X28.51317 Y32.22334 I0.67269 J2.51147
G1 X31.71666 Y35.42683
G3 X32.38966 Y37.938 I-1.83848 J1.83848
G2 X33.002 Y38.55034 I0.48298 J0.12936
G3 X35.51317 Y39.22334 I0.67269 J2.51147
G1 X40.28349 Y43.99366
G2 X45.79893 Y38.47823 I-7.41086 J-12.9263
G1 X41.0286 Y33.7079
G3 X40.35561 Y31.19673 I1.83848 J-1.83848
G2 X39.74327 Y30.58439 I-0.48298 J-0.12936
G3 X38.04577 Y30.46244 I-0.67269 J-2.51147
G1 F300.0 X38.3611 Y29.7272
G3 F500.0 X37.79778 Y29.34572 I0.70948 J-1.65428
G1 X34.59428 Y26.14222
G3 X34.12837 Y24.40372 I1.27279 J-1.27279
G2 X32.53628 Y22.81163 I-1.25574 J-0.33635
G3 X30.79778 Y22.34572 I-0.46571 J-1.73871
G1 X25.60358 Y17.15152
G2 X18.95678 Y23.79832 I7.26905 J13.91585
G1 X24.15098 Y28.99252
G3 X24.6169 Y30.73102 I-1.27279 J1.27279
G2 X26.20898 Y32.3231 I1.25574 J0.33635
G3 X27.94748 Y32.78902 I0.46571 J1.73871
G1 X31.15098 Y35.99252
G3 X31.6169 Y37.73102 I-1.27279 J1.27279
G2 X33.20898 Y39.3231 I1.25574 J0.33635
G3 X34.94748 Y39.78902 I0.46571 J1.73871
G1 X40.14168 Y44.98322
G2 X46.78848 Y38.33642 I-7.26905 J-13.91585
G1 X41.59428 Y33.14222
G3 X41.12837 Y31.40372 I1.27279 J-1.27279
G2 X39.53628 Y29.81163 I-1.25574 J-0.33635
G3 X38.3611 Y29.7272 I-0.46571 J-1.73871
G1 F300.0 X38.67642 Y28.99197
G3 F500.0 X38.36347 Y28.78003 I0.39415 J-0.91904
G1 X35.15997 Y25.57653
G3 X34.90113 Y24.6107 I0.70711 J-0.70711
G2 X32.3293 Y22.03887 I-2.0285 J-0.54333
G3 X31.36347 Y21.78003 I-0.25873 J-0.96595
G1 X25.76172 Y16.17828
G2 X17.98354 Y23.95646 I7.11091 J14.88909
G1 X23.58529 Y29.5582
G3 X23.84414 Y30.52404 I-0.70711 J0.70711
G2 X26.41596 Y33.09586 I2.0285 J0.54333
G3 X27.3818 Y33.35471 I0.25873 J0.96595
G1 X30.58529 Y36.5582
G3 X30.84414 Y37.52404 I-0.70711 J0.70711
G2 X33.41596 Y40.09586 I2.0285 J0.54333
G3 X34.3818 Y40.35471 I0.25873 J0.96595
G1 X39.98354 Y45.95646
G2 X47.76172 Y38.17828 I-7.11091 J-14.88909
G1 X42.15997 Y32.57653
G3 X41.90113 Y31.6107 I0.70711 J-0.70711
G2 X39.3293 Y29.03887 I-2.0285 J-0.54333
G3 X38.67642 Y28.99197 I-0.25873 J-0.96595
( Profile2 )
S1000
G0 Z3.0
G0 X40.15944 Y48.07185
G0 Z1.0
G1 F300.0 Z-0.5
G3 F500.0 X15.86815 Y23.78056 I-7.28681 J-17.00448
G3 X25.58582 Y14.06289 I17.00448 J7.28681
G3 X49.87711 Y38.35418 I7.28681 J17.00448
G3 X40.15944 Y48.07185 I-17.00448 J-7.28681
G1 F300.0 Z-1.0
G3 F500.0 X15.86815 Y23.78056 I-7.28681 J-17.00448
G3 X25.58582 Y14.06289 I17.00448 J7.28681
G3 X49.87711 Y38.35418 I7.28681 J17.00448
G3 X40.15944 Y48.07185 I-17.00448 J-7.28681
G1 F300.0 Z-1.5
G3 F500.0 X15.86815 Y23.78056 I-7.28681 J-17.00448
G3 X25.58582 Y14.06289 I17.00448 J7.28681
G3 X49.87711 Y38.35418 I7.28681 J17.00448
G3 X40.15944 Y48.07185 I-17.00448 J-7.28681
G1 F300.0 Z-2.0
G3 F500.0 X15.86815 Y23.78056 I-7.28681 J-17.00448
G3 X25.58582 Y14.06289 I17.00448 J7.28681
G3 X49.87711 Y38.35418 I7.28681 J17.00448
G3 X40.15944 Y48.07185 I-17.00448 J-7.28681
G1 F300.0 Z-2.5
G3 F500.0 X15.86815 Y23.78056 I-7.28681 J-17.00448
G3 X25.58582 Y14.06289 I17.00448 J7.28681
G3 X49.87711 Y38.35418 I7.28681 J17.00448
G3 X40.15944 Y48.07185 I-17.00448 J-7.28681
G1 F300.0 Z-3.0
G3 F500.0 X15.86815 Y23.78056 I-7.28681 J-17.00448
G3 X25.58582 Y14.06289 I17.00448 J7.28681
G3 X49.87711 Y38.35418 I7.28681 J17.00448
G3 X40.15944 Y48.07185 I-17.00448 J-7.28681
G1 F300.0 Z-3.5
G3 F500.0 X15.86815 Y23.78056 I-7.28681 J-17.00448
G3 X25.58582 Y14.06289 I17.00448 J7.28681
G3 X49.87711 Y38.35418 I7.28681 J17.00448
G3 X40.15944 Y48.07185 I-17.00448 J-7.28681
G1 F300.0 Z-4.0
G3 F500.0 X15.86815 Y23.78056 I-7.28681 J-17.00448
G3 X25.58582 Y14.06289 I17.00448 J7.28681
G3 X49.87711 Y38.35418 I7.28681 J17.00448
G3 X40.15944 Y48.07185 I-17.00448 J-7.28681
( Profile3 )
S1000
G0 Z3.0
G0 X27.11064 Y60.40461
G0 Z1.0
G1 F300.0 Z-0.5
G2 F400.0 X24.48564 Y58.88906 I-1.75 J0.0
G2 Y61.92015 I0.875 J1.51554
G2 X27.11064 Y60.40461 I0.875 J-1.51554
G1 F300.0 Z-1.0
G2 F400.0 X24.48564 Y58.88906 I-1.75 J0.0
G2 Y61.92015 I0.875 J1.51554
G2 X27.11064 Y60.40461 I0.875 J-1.51554
G1 F300.0 Z-1.5
G2 F400.0 X24.48564 Y58.88906 I-1.75 J0.0
G2 Y61.92015 I0.875 J1.51554
G2 X27.11064 Y60.40461 I0.875 J-1.51554
G1 F300.0 Z-2.0
G2 F400.0 X24.48564 Y58.88906 I-1.75 J0.0
G2 Y61.92015 I0.875 J1.51554
G2 X27.11064 Y60.40461 I0.875 J-1.51554
G1 F300.0 Z-2.5
G2 F400.0 X24.48564 Y58.88906 I-1.75 J0.0
G2 Y61.92015 I0.875 J1.51554
G2 X27.11064 Y60.40461 I0.875 J-1.51554
G1 F300.0 Z-3.0
G2 F400.0 X24.48564 Y58.88906 I-1.75 J0.0
G2 Y61.92015 I0.875 J1.51554
G2 X27.11064 Y60.40461 I0.875 J-1.51554
G1 F300.0 Z-3.5
G2 F400.0 X24.48564 Y58.88906 I-1.75 J0.0
G2 Y61.92015 I0.875 J1.51554
G2 X27.11064 Y60.40461 I0.875 J-1.51554
G1 F300.0 Z-4.0
G2 F400.0 X24.48564 Y58.88906 I-1.75 J0.0
G2 Y61.92015 I0.875 J1.51554
G2 X27.11064 Y60.40461 I0.875 J-1.51554
G0 Z3.0
G0 X47.32567
G0 Z1.0
G1 F300.0 Z-0.5
G2 F400.0 X48.20067 Y61.92015 I1.75 J0.0
G2 X50.82567 Y60.40461 I0.875 J-1.51554
G2 X48.20067 Y58.88906 I-1.75 J0.0
G2 X47.32567 Y60.40461 I0.875 J1.51554
G1 F300.0 Z-1.0
G2 F400.0 X48.20067 Y61.92015 I1.75 J0.0
G2 X50.82567 Y60.40461 I0.875 J-1.51554
G2 X48.20067 Y58.88906 I-1.75 J0.0
G2 X47.32567 Y60.40461 I0.875 J1.51554
G1 F300.0 Z-1.5
G2 F400.0 X48.20067 Y61.92015 I1.75 J0.0
G2 X50.82567 Y60.40461 I0.875 J-1.51554
G2 X48.20067 Y58.88906 I-1.75 J0.0
G2 X47.32567 Y60.40461 I0.875 J1.51554
G1 F300.0 Z-2.0
G2 F400.0 X48.20067 Y61.92015 I1.75 J0.0
G2 X50.82567 Y60.40461 I0.875 J-1.51554
G2 X48.20067 Y58.88906 I-1.75 J0.0
G2 X47.32567 Y60.40461 I0.875 J1.51554
G1 F300.0 Z-2.5
G2 F400.0 X48.20067 Y61.92015 I1.75 J0.0
G2 X50.82567 Y60.40461 I0.875 J-1.51554
G2 X48.20067 Y58.88906 I-1.75 J0.0
G2 X47.32567 Y60.40461 I0.875 J1.51554
G1 F300.0 Z-3.0
G2 F400.0 X48.20067 Y61.92015 I1.75 J0.0
G2 X50.82567 Y60.40461 I0.875 J-1.51554
G2 X48.20067 Y58.88906 I-1.75 J0.0
G2 X47.32567 Y60.40461 I0.875 J1.51554
G1 F300.0 Z-3.5
G2 F400.0 X48.20067 Y61.92015 I1.75 J0.0
G2 X50.82567 Y60.40461 I0.875 J-1.51554
G2 X48.20067 Y58.88906 I-1.75 J0.0
G2 X47.32567 Y60.40461 I0.875 J1.51554
G1 F300.0 Z-4.0
G2 F400.0 X48.20067 Y61.92015 I1.75 J0.0
G2 X50.82567 Y60.40461 I0.875 J-1.51554
G2 X48.20067 Y58.88906 I-1.75 J0.0
G2 X47.32567 Y60.40461 I0.875 J1.51554
G0 Z3.0
G0 X60.87079 Y42.46401
G0 Z1.0
G1 F300.0 Z-0.5
G2 F400.0 X61.05026 Y42.58291 I1.05446 J-1.39664
G2 X63.67526 Y41.06737 I0.875 J-1.51554
G2 X61.05026 Y39.55182 I-1.75 J0.0
G2 X60.87079 Y42.46401 I0.875 J1.51554
G1 F300.0 Z-1.0
G2 F400.0 X61.05026 Y42.58291 I1.05446 J-1.39664
G2 X63.67526 Y41.06737 I0.875 J-1.51554
G2 X61.05026 Y39.55182 I-1.75 J0.0
G2 X60.87079 Y42.46401 I0.875 J1.51554
G1 F300.0 Z-1.5
G2 F400.0 X61.05026 Y42.58291 I1.05446 J-1.39664
G2 X63.67526 Y41.06737 I0.875 J-1.51554
G2 X61.05026 Y39.55182 I-1.75 J0.0
G2 X60.87079 Y42.46401 I0.875 J1.51554
G1 F300.0 Z-2.0
G2 F400.0 X61.05026 Y42.58291 I1.05446 J-1.39664
G2 X63.67526 Y41.06737 I0.875 J-1.51554
G2 X61.05026 Y39.55182 I-1.75 J0.0
G2 X60.87079 Y42.46401 I0.875 J1.51554
G1 F300.0 Z-2.5
G2 F400.0 X61.05026 Y42.58291 I1.05446 J-1.39664
G2 X63.67526 Y41.06737 I0.875 J-1.51554
G2 X61.05026 Y39.55182 I-1.75 J0.0
G2 X60.87079 Y42.46401 I0.875 J1.51554
G1 F300.0 Z-3.0
G2 F400.0 X61.05026 Y42.58291 I1.05446 J-1.39664
G2 X63.67526 Y41.06737 I0.875 J-1.51554
G2 X61.05026 Y39.55182 I-1.75 J0.0
G2 X60.87079 Y42.46401 I0.875 J1.51554
G1 F300.0 Z-3.5
G2 F400.0 X61.05026 Y42.58291 I1.05446 J-1.39664
G2 X63.67526 Y41.06737 I0.875 J-1.51554
G2 X61.05026 Y39.55182 I-1.75 J0.0
G2 X60.87079 Y42.46401 I0.875 J1.51554
G1 F300.0 Z-4.0
G2 F400.0 X61.05026 Y42.58291 I1.05446 J-1.39664
G2 X63.67526 Y41.06737 I0.875 J-1.51554
G2 X61.05026 Y39.55182 I-1.75 J0.0
G2 X60.87079 Y42.46401 I0.875 J1.51554
G0 Z3.0
G0 X59.90628 Y19.90434
G0 Z1.0
G1 F300.0 Z-0.5
G2 F400.0 X61.58153 Y18.15594 I-0.07475 J-1.7484
G2 X58.95653 Y16.6404 I-1.75 J0.0
G2 Y19.67149 I0.875 J1.51554
G2 X59.90628 Y19.90434 I0.875 J-1.51554
G1 F300.0 Z-1.0
G2 F400.0 X61.58153 Y18.15594 I-0.07475 J-1.7484
G2 X58.95653 Y16.6404 I-1.75 J0.0
G2 Y19.67149 I0.875 J1.51554
G2 X59.90628 Y19.90434 I0.875 J-1.51554
G1 F300.0 Z-1.5
G2 F400.0 X61.58153 Y18.15594 I-0.07475 J-1.7484
G2 X58.95653 Y16.6404 I-1.75 J0.0
G2 Y19.67149 I0.875 J1.51554
G2 X59.90628 Y19.90434 I0.875 J-1.51554
G1 F300.0 Z-2.0
G2 F400.0 X61.58153 Y18.15594 I-0.07475 J-1.7484
G2 X58.95653 Y16.6404 I-1.75 J0.0
G2 Y19.67149 I0.875 J1.51554
G2 X59.90628 Y19.90434 I0.875 J-1.51554
G1 F300.0 Z-2.5
G2 F400.0 X61.58153 Y18.15594 I-0.07475 J-1.7484
G2 X58.95653 Y16.6404 I-1.75 J0.0
G2 Y19.67149 I0.875 J1.51554
G2 X59.90628 Y19.90434 I0.875 J-1.51554
G1 F300.0 Z-3.0
G2 F400.0 X61.58153 Y18.15594 I-0.07475 J-1.7484
G2 X58.95653 Y16.6404 I-1.75 J0.0
G2 Y19.67149 I0.875 J1.51554
G2 X59.90628 Y19.90434 I0.875 J-1.51554
G1 F300.0 Z-3.5
G2 F400.0 X61.58153 Y18.15594 I-0.07475 J-1.7484
G2 X58.95653 Y16.6404 I-1.75 J0.0
G2 Y19.67149 I0.875 J1.51554
G2 X59.90628 Y19.90434 I0.875 J-1.51554
G1 F300.0 Z-4.0
G2 F400.0 X61.58153 Y18.15594 I-0.07475 J-1.7484
G2 X58.95653 Y16.6404 I-1.75 J0.0
G2 Y19.67149 I0.875 J1.51554
G2 X59.90628 Y19.90434 I0.875 J-1.51554
( Profile4 )
S1000
G0 Z3.0
G0 X18.86064 Y60.40461
G0 Z1.0
G1 F300.0 Z-0.5
G2 F500.0 X18.11064 Y59.97159 I-0.5 J0.0
G2 Y60.83762 I0.25 J0.43301
G2 X18.86064 Y60.40461 I0.25 J-0.43301
G1 F300.0 Z-1.0
G2 F500.0 X18.11064 Y59.97159 I-0.5 J0.0
G2 Y60.83762 I0.25 J0.43301
G2 X18.86064 Y60.40461 I0.25 J-0.43301
G1 F300.0 Z-1.5
G2 F500.0 X18.11064 Y59.97159 I-0.5 J0.0
G2 Y60.83762 I0.25 J0.43301
G2 X18.86064 Y60.40461 I0.25 J-0.43301
G1 F300.0 Z-2.0
G2 F500.0 X18.11064 Y59.97159 I-0.5 J0.0
G2 Y60.83762 I0.25 J0.43301
G2 X18.86064 Y60.40461 I0.25 J-0.43301
G1 F300.0 Z-2.5
G2 F500.0 X18.11064 Y59.97159 I-0.5 J0.0
G2 Y60.83762 I0.25 J0.43301
G2 X18.86064 Y60.40461 I0.25 J-0.43301
G1 F300.0 Z-3.0
G2 F500.0 X18.11064 Y59.97159 I-0.5 J0.0
G2 Y60.83762 I0.25 J0.43301
G2 X18.86064 Y60.40461 I0.25 J-0.43301
G1 F300.0 Z-3.5
G2 F500.0 X18.11064 Y59.97159 I-0.5 J0.0
G2 Y60.83762 I0.25 J0.43301
G2 X18.86064 Y60.40461 I0.25 J-0.43301
G1 F300.0 Z-4.0
G2 F500.0 X18.11064 Y59.97159 I-0.5 J0.0
G2 Y60.83762 I0.25 J0.43301
G2 X18.86064 Y60.40461 I0.25 J-0.43301
G0 Z3.0
G0 X25.02041 Y67.03821
G0 Z1.0
G1 F300.0 Z-0.5
G2 F500.0 X25.11064 Y67.83762 I0.34023 J0.3664
G2 X25.86064 Y67.40461 I0.25 J-0.43301
G2 X25.11064 Y66.97159 I-0.5 J0.0
G2 X25.02041 Y67.03821 I0.25 J0.43301
G1 F300.0 Z-1.0
G2 F500.0 X25.11064 Y67.83762 I0.34023 J0.3664
G2 X25.86064 Y67.40461 I0.25 J-0.43301
G2 X25.11064 Y66.97159 I-0.5 J0.0
G2 X25.02041 Y67.03821 I0.25 J0.43301
G1 F300.0 Z-1.5
G2 F500.0 X25.11064 Y67.83762 I0.34023 J0.3664
G2 X25.86064 Y67.40461 I0.25 J-0.43301
G2 X25.11064 Y66.97159 I-0.5 J0.0
G2 X25.02041 Y67.03821 I0.25 J0.43301
G1 F300.0 Z-2.0
G2 F500.0 X25.11064 Y67.83762 I0.34023 J0.3664
G2 X25.86064 Y67.40461 I0.25 J-0.43301
G2 X25.11064 Y66.97159 I-0.5 J0.0
G2 X25.02041 Y67.03821 I0.25 J0.43301
G1 F300.0 Z-2.5
G2 F500.0 X25.11064 Y67.83762 I0.34023 J0.3664
G2 X25.86064 Y67.40461 I0.25 J-0.43301
G2 X25.11064 Y66.97159 I-0.5 J0.0
G2 X25.02041 Y67.03821 I0.25 J0.43301
G1 F300.0 Z-3.0
G2 F500.0 X25.11064 Y67.83762 I0.34023 J0.3664
G2 X25.86064 Y67.40461 I0.25 J-0.43301
G2 X25.11064 Y66.97159 I-0.5 J0.0
G2 X25.02041 Y67.03821 I0.25 J0.43301
G1 F300.0 Z-3.5
G2 F500.0 X25.11064 Y67.83762 I0.34023 J0.3664
G2 X25.86064 Y67.40461 I0.25 J-0.43301
G2 X25.11064 Y66.97159 I-0.5 J0.0
G2 X25.02041 Y67.03821 I0.25 J0.43301
G1 F300.0 Z-4.0
G2 F500.0 X25.11064 Y67.83762 I0.34023 J0.3664
G2 X25.86064 Y67.40461 I0.25 J-0.43301
G2 X25.11064 Y66.97159 I-0.5 J0.0
G2 X25.02041 Y67.03821 I0.25 J0.43301
G0 Z3.0
G0 X31.98968 Y60.73985
G0 Z1.0
G1 F300.0 Z-0.5
G2 F500.0 X32.11064 Y60.83762 I0.37096 J-0.33525
G2 X32.86064 Y60.40461 I0.25 J-0.43301
G2 X32.11064 Y59.97159 I-0.5 J0.0
G2 X31.98968 Y60.73985 I0.25 J0.43301
G1 F300.0 Z-1.0
G2 F500.0 X32.11064 Y60.83762 I0.37096 J-0.33525
G2 X32.86064 Y60.40461 I0.25 J-0.43301
G2 X32.11064 Y59.97159 I-0.5 J0.0
G2 X31.98968 Y60.73985 I0.25 J0.43301
G1 F300.0 Z-1.5
G2 F500.0 X32.11064 Y60.83762 I0.37096 J-0.33525
G2 X32.86064 Y60.40461 I0.25 J-0.43301
G2 X32.11064 Y59.97159 I-0.5 J0.0
G2 X31.98968 Y60.73985 I0.25 J0.43301
G1 F300.0 Z-2.0
G2 F500.0 X32.11064 Y60.83762 I0.37096 J-0.33525
G2 X32.86064 Y60.40461 I0.25 J-0.43301
G2 X32.11064 Y59.97159 I-0.5 J0.0
G2 X31.98968 Y60.73985 I0.25 J0.43301
G1 F300.0 Z-2.5
G2 F500.0 X32.11064 Y60.83762 I0.37096 J-0.33525
G2 X32.86064 Y60.40461 I0.25 J-0.43301
G2 X32.11064 Y59.97159 I-0.5 J0.0
G2 X31.98968 Y60.73985 I0.25 J0.43301
G1 F300.0 Z-3.0
G2 F500.0 X32.11064 Y60.83762 I0.37096 J-0.33525
G2 X32.86064 Y60.40461 I0.25 J-0.43301
G2 X32.11064 Y59.97159 I-0.5 J0.0
G2 X31.98968 Y60.73985 I0.25 J0.43301
G1 F300.0 Z-3.5
G2 F500.0 X32.11064 Y60.83762 I0.37096 J-0.33525
G2 X32.86064 Y60.40461 I0.25 J-0.43301
G2 X32.11064 Y59.97159 I-0.5 J0.0
G2 X31.98968 Y60.73985 I0.25 J0.43301
G1 F300.0 Z-4.0
G2 F500.0 X32.11064 Y60.83762 I0.37096 J-0.33525
G2 X32.86064 Y60.40461 I0.25 J-0.43301
G2 X32.11064 Y59.97159 I-0.5 J0.0
G2 X31.98968 Y60.73985 I0.25 J0.43301
G0 Z3.0
G0 X25.69588 Y53.77557
G0 Z1.0
G1 F300.0 Z-0.5
G2 F500.0 X25.86064 Y53.40461 I-0.33524 J-0.37096
G2 X25.11064 Y52.97159 I-0.5 J0.0
G2 Y53.83762 I0.25 J0.43301
G2 X25.69588 Y53.77557 I0.25 J-0.43301
G1 F300.0 Z-1.0
G2 F500.0 X25.86064 Y53.40461 I-0.33524 J-0.37096
G2 X25.11064 Y52.97159 I-0.5 J0.0
G2 Y53.83762 I0.25 J0.43301
G2 X25.69588 Y53.77557 I0.25 J-0.43301
G1 F300.0 Z-1.5
G2 F500.0 X25.86064 Y53.40461 I-0.33524 J-0.37096
G2 X25.11064 Y52.97159 I-0.5 J0.0
G2 Y53.83762 I0.25 J0.43301
G2 X25.69588 Y53.77557 I0.25 J-0.43301
G1 F300.0 Z-2.0
G2 F500.0 X25.86064 Y53.40461 I-0.33524 J-0.37096
G2 X25.11064 Y52.97159 I-0.5 J0.0
G2 Y53.83762 I0.25 J0.43301
G2 X25.69588 Y53.77557 I0.25 J-0.43301
G1 F300.0 Z-2.5
G2 F500.0 X25.86064 Y53.40461 I-0.33524 J-0.37096
G2 X25.11064 Y52.97159 I-0.5 J0.0
G2 Y53.83762 I0.25 J0.43301
G2 X25.69588 Y53.77557 I0.25 J-0.43301
G1 F300.0 Z-3.0
G2 F500.0 X25.86064 Y53.40461 I-0.33524 J-0.37096
G2 X25.11064 Y52.97159 I-0.5 J0.0
G2 Y53.83762 I0.25 J0.43301
G2 X25.69588 Y53.77557 I0.25 J-0.43301
G1 F300.0 Z-3.5
G2 F500.0 X25.86064 Y53.40461 I-0.33524 J-0.37096
G2 X25.11064 Y52.97159 I-0.5 J0.0
G2 Y53.83762 I0.25 J0.43301
G2 X25.69588 Y53.77557 I0.25 J-0.43301
G1 F300.0 Z-4.0
G2 F500.0 X25.86064 Y53.40461 I-0.33524 J-0.37096
G2 X25.11064 Y52.97159 I-0.5 J0.0
G2 Y53.83762 I0.25 J0.43301
G2 X25.69588 Y53.77557 I0.25 J-0.43301
G0 Z3.0
G0 X41.61219 Y60.21703
G0 Z1.0
G1 F300.0 Z-0.5
G2 F500.0 X41.82567 Y60.83762 I0.46348 J0.18758
G2 X42.57567 Y60.40461 I0.25 J-0.43301
G2 X41.82567 Y59.97159 I-0.5 J0.0
G2 X41.61219 Y60.21703 I0.25 J0.43301
G1 F300.0 Z-1.0
G2 F500.0 X41.82567 Y60.83762 I0.46348 J0.18758
G2 X42.57567 Y60.40461 I0.25 J-0.43301
G2 X41.82567 Y59.97159 I-0.5 J0.0
G2 X41.61219 Y60.21703 I0.25 J0.43301
G1 F300.0 Z-1.5
G2 F500.0 X41.82567 Y60.83762 I0.46348 J0.18758
G2 X42.57567 Y60.40461 I0.25 J-0.43301
G2 X41.82567 Y59.97159 I-0.5 J0.0
G2 X41.61219 Y60.21703 I0.25 J0.43301
G1 F300.0 Z-2.0
G2 F500.0 X41.82567 Y60.83762 I0.46348 J0.18758
G2 X42.57567 Y60.40461 I0.25 J-0.43301
G2 X41.82567 Y59.97159 I-0.5 J0.0
G2 X41.61219 Y60.21703 I0.25 J0.43301
G1 F300.0 Z-2.5
G2 F500.0 X41.82567 Y60.83762 I0.46348 J0.18758
G2 X42.57567 Y60.40461 I0.25 J-0.43301
G2 X41.82567 Y59.97159 I-0.5 J0.0
G2 X41.61219 Y60.21703 I0.25 J0.43301
G1 F300.0 Z-3.0
G2 F500.0 X41.82567 Y60.83762 I0.46348 J0.18758
G2 X42.57567 Y60.40461 I0.25 J-0.43301
G2 X41.82567 Y59.97159 I-0.5 J0.0
G2 X41.61219 Y60.21703 I0.25 J0.43301
G1 F300.0 Z-3.5
G2 F500.0 X41.82567 Y60.83762 I0.46348 J0.18758
G2 X42.57567 Y60.40461 I0.25 J-0.43301
G2 X41.82567 Y59.97159 I-0.5 J0.0
G2 X41.61219 Y60.21703 I0.25 J0.43301
G1 F300.0 Z-4.0
G2 F500.0 X41.82567 Y60.83762 I0.46348 J0.18758
G2 X42.57567 Y60.40461 I0.25 J-0.43301
G2 X41.82567 Y59.97159 I-0.5 J0.0
G2 X41.61219 Y60.21703 I0.25 J0.43301
G0 Z3.0
G0 X48.70638 Y53.74169
G0 Z1.0
G1 F300.0 Z-0.5
G2 F500.0 X48.82567 Y53.83762 I0.36929 J-0.33708
G2 X49.57567 Y53.40461 I0.25 J-0.43301
G2 X48.82567 Y52.97159 I-0.5 J0.0
G2 X48.70638 Y53.74169 I0.25 J0.43301
G1 F300.0 Z-1.0
G2 F500.0 X48.82567 Y53.83762 I0.36929 J-0.33708
G2 X49.57567 Y53.40461 I0.25 J-0.43301
G2 X48.82567 Y52.97159 I-0.5 J0.0
G2 X48.70638 Y53.74169 I0.25 J0.43301
G1 F300.0 Z-1.5
G2 F500.0 X48.82567 Y53.83762 I0.36929 J-0.33708
G2 X49.57567 Y53.40461 I0.25 J-0.43301
G2 X48.82567 Y52.97159 I-0.5 J0.0
G2 X48.70638 Y53.74169 I0.25 J0.43301
G1 F300.0 Z-2.0
G2 F500.0 X48.82567 Y53.83762 I0.36929 J-0.33708
G2 X49.57567 Y53.40461 I0.25 J-0.43301
G2 X48.82567 Y52.97159 I-0.5 J0.0
G2 X48.70638 Y53.74169 I0.25 J0.43301
G1 F300.0 Z-2.5
G2 F500.0 X48.82567 Y53.83762 I0.36929 J-0.33708
G2 X49.57567 Y53.40461 I0.25 J-0.43301
G2 X48.82567 Y52.97159 I-0.5 J0.0
G2 X48.70638 Y53.74169 I0.25 J0.43301
G1 F300.0 Z-3.0
G2 F500.0 X48.82567 Y53.83762 I0.36929 J-0.33708
G2 X49.57567 Y53.40461 I0.25 J-0.43301
G2 X48.82567 Y52.97159 I-0.5 J0.0
G2 X48.70638 Y53.74169 I0.25 J0.43301
G1 F300.0 Z-3.5
G2 F500.0 X48.82567 Y53.83762 I0.36929 J-0.33708
G2 X49.57567 Y53.40461 I0.25 J-0.43301
G2 X48.82567 Y52.97159 I-0.5 J0.0
G2 X48.70638 Y53.74169 I0.25 J0.43301
G1 F300.0 Z-4.0
G2 F500.0 X48.82567 Y53.83762 I0.36929 J-0.33708
G2 X49.57567 Y53.40461 I0.25 J-0.43301
G2 X48.82567 Y52.97159 I-0.5 J0.0
G2 X48.70638 Y53.74169 I0.25 J0.43301
G0 Z3.0
G0 X55.70479 Y60.06928
G0 Z1.0
G1 F300.0 Z-0.5
G2 F500.0 X55.82567 Y60.83762 I0.37088 J0.33533
G2 X56.57567 Y60.40461 I0.25 J-0.43301
G2 X55.82567 Y59.97159 I-0.5 J0.0
G2 X55.70479 Y60.06928 I0.25 J0.43301
G1 F300.0 Z-1.0
G2 F500.0 X55.82567 Y60.83762 I0.37088 J0.33533
G2 X56.57567 Y60.40461 I0.25 J-0.43301
G2 X55.82567 Y59.97159 I-0.5 J0.0
G2 X55.70479 Y60.06928 I0.25 J0.43301
G1 F300.0 Z-1.5
G2 F500.0 X55.82567 Y60.83762 I0.37088 J0.33533
G2 X56.57567 Y60.40461 I0.25 J-0.43301
G2 X55.82567 Y59.97159 I-0.5 J0.0
G2 X55.70479 Y60.06928 I0.25 J0.43301
G1 F300.0 Z-2.0
G2 F500.0 X55.82567 Y60.83762 I0.37088 J0.33533
G2 X56.57567 Y60.40461 I0.25 J-0.43301
G2 X55.82567 Y59.97159 I-0.5 J0.0
G2 X55.70479 Y60.06928 I0.25 J0.43301
G1 F300.0 Z-2.5
G2 F500.0 X55.82567 Y60.83762 I0.37088 J0.33533
G2 X56.57567 Y60.40461 I0.25 J-0.43301
G2 X55.82567 Y59.97159 I-0.5 J0.0
G2 X55.70479 Y60.06928 I0.25 J0.43301
G1 F300.0 Z-3.0
G2 F500.0 X55.82567 Y60.83762 I0.37088 J0.33533
G2 X56.57567 Y60.40461 I0.25 J-0.43301
G2 X55.82567 Y59.97159 I-0.5 J0.0
G2 X55.70479 Y60.06928 I0.25 J0.43301
G1 F300.0 Z-3.5
G2 F500.0 X55.82567 Y60.83762 I0.37088 J0.33533
G2 X56.57567 Y60.40461 I0.25 J-0.43301
G2 X55.82567 Y59.97159 I-0.5 J0.0
G2 X55.70479 Y60.06928 I0.25 J0.43301
G1 F300.0 Z-4.0
G2 F500.0 X55.82567 Y60.83762 I0.37088 J0.33533
G2 X56.57567 Y60.40461 I0.25 J-0.43301
G2 X55.82567 Y59.97159 I-0.5 J0.0
G2 X55.70479 Y60.06928 I0.25 J0.43301
G0 Z3.0
G0 X49.41092 Y67.03365
G0 Z1.0
G1 F300.0 Z-0.5
G2 F500.0 X48.82567 Y66.97159 I-0.33524 J0.37096
G2 Y67.83762 I0.25 J0.43301
G2 X49.57567 Y67.40461 I0.25 J-0.43301
G2 X49.41092 Y67.03365 I-0.5 J0.0
G1 F300.0 Z-1.0
G2 F500.0 X48.82567 Y66.97159 I-0.33524 J0.37096
G2 Y67.83762 I0.25 J0.43301
G2 X49.57567 Y67.40461 I0.25 J-0.43301
G2 X49.41092 Y67.03365 I-0.5 J0.0
G1 F300.0 Z-1.5
G2 F500.0 X48.82567 Y66.97159 I-0.33524 J0.37096
G2 Y67.83762 I0.25 J0.43301
G2 X49.57567 Y67.40461 I0.25 J-0.43301
G2 X49.41092 Y67.03365 I-0.5 J0.0
G1 F300.0 Z-2.0
G2 F500.0 X48.82567 Y66.97159 I-0.33524 J0.37096
G2 Y67.83762 I0.25 J0.43301
G2 X49.57567 Y67.40461 I0.25 J-0.43301
G2 X49.41092 Y67.03365 I-0.5 J0.0
G1 F300.0 Z-2.5
G2 F500.0 X48.82567 Y66.97159 I-0.33524 J0.37096
G2 Y67.83762 I0.25 J0.43301
G2 X49.57567 Y67.40461 I0.25 J-0.43301
G2 X49.41092 Y67.03365 I-0.5 J0.0
G1 F300.0 Z-3.0
G2 F500.0 X48.82567 Y66.97159 I-0.33524 J0.37096
G2 Y67.83762 I0.25 J0.43301
G2 X49.57567 Y67.40461 I0.25 J-0.43301
G2 X49.41092 Y67.03365 I-0.5 J0.0
G1 F300.0 Z-3.5
G2 F500.0 X48.82567 Y66.97159 I-0.33524 J0.37096
G2 Y67.83762 I0.25 J0.43301
G2 X49.57567 Y67.40461 I0.25 J-0.43301
G2 X49.41092 Y67.03365 I-0.5 J0.0
G1 F300.0 Z-4.0
G2 F500.0 X48.82567 Y66.97159 I-0.33524 J0.37096
G2 Y67.83762 I0.25 J0.43301
G2 X49.57567 Y67.40461 I0.25 J-0.43301
G2 X49.41092 Y67.03365 I-0.5 J0.0
G0 Z3.0
G0 X61.64989 Y48.48471
G0 Z1.0
G1 F300.0 Z-0.5
G2 F500.0 X61.67526 Y48.50038 I0.27537 J-0.41734
G2 X62.42526 Y48.06737 I0.25 J-0.43301
G2 X61.67526 Y47.63436 I-0.5 J0.0
G2 X61.64989 Y48.48471 I0.25 J0.43301
G1 F300.0 Z-1.0
G2 F500.0 X61.67526 Y48.50038 I0.27537 J-0.41734
G2 X62.42526 Y48.06737 I0.25 J-0.43301
G2 X61.67526 Y47.63436 I-0.5 J0.0
G2 X61.64989 Y48.48471 I0.25 J0.43301
G1 F300.0 Z-1.5
G2 F500.0 X61.67526 Y48.50038 I0.27537 J-0.41734
G2 X62.42526 Y48.06737 I0.25 J-0.43301
G2 X61.67526 Y47.63436 I-0.5 J0.0
G2 X61.64989 Y48.48471 I0.25 J0.43301
G1 F300.0 Z-2.0
G2 F500.0 X61.67526 Y48.50038 I0.27537 J-0.41734
G2 X62.42526 Y48.06737 I0.25 J-0.43301
G2 X61.67526 Y47.63436 I-0.5 J0.0
G2 X61.64989 Y48.48471 I0.25 J0.43301
G1 F300.0 Z-2.5
G2 F500.0 X61.67526 Y48.50038 I0.27537 J-0.41734
G2 X62.42526 Y48.06737 I0.25 J-0.43301
G2 X61.67526 Y47.63436 I-0.5 J0.0
G2 X61.64989 Y48.48471 I0.25 J0.43301
G1 F300.0 Z-3.0
G2 F500.0 X61.67526 Y48.50038 I0.27537 J-0.41734
G2 X62.42526 Y48.06737 I0.25 J-0.43301
G2 X61.67526 Y47.63436 I-0.5 J0.0
G2 X61.64989 Y48.48471 I0.25 J0.43301
G1 F300.0 Z-3.5
G2 F500.0 X61.67526 Y48.50038 I0.27537 J-0.41734
G2 X62.42526 Y48.06737 I0.25 J-0.43301
G2 X61.67526 Y47.63436 I-0.5 J0.0
G2 X61.64989 Y48.48471 I0.25 J0.43301
G1 F300.0 Z-4.0
G2 F500.0 X61.67526 Y48.50038 I0.27537 J-0.41734
G2 X62.42526 Y48.06737 I0.25 J-0.43301
G2 X61.67526 Y47.63436 I-0.5 J0.0
G2 X61.64989 Y48.48471 I0.25 J0.43301
G0 Z3.0
G0 X55.26109 Y41.4378
G0 Z1.0
G1 F300.0 Z-0.5
G2 F500.0 X55.42526 Y41.06737 I-0.33583 J-0.37043
G2 X54.67526 Y40.63436 I-0.5 J0.0
G2 Y41.50038 I0.25 J0.43301
G2 X55.26109 Y41.4378 I0.25 J-0.43301
G1 F300.0 Z-1.0
G2 F500.0 X55.42526 Y41.06737 I-0.33583 J-0.37043
G2 X54.67526 Y40.63436 I-0.5 J0.0
G2 Y41.50038 I0.25 J0.43301
G2 X55.26109 Y41.4378 I0.25 J-0.43301
G1 F300.0 Z-1.5
G2 F500.0 X55.42526 Y41.06737 I-0.33583 J-0.37043
G2 X54.67526 Y40.63436 I-0.5 J0.0
G2 Y41.50038 I0.25 J0.43301
G2 X55.26109 Y41.4378 I0.25 J-0.43301
G1 F300.0 Z-2.0
G2 F500.0 X55.42526 Y41.06737 I-0.33583 J-0.37043
G2 X54.67526 Y40.63436 I-0.5 J0.0
G2 Y41.50038 I0.25 J0.43301
G2 X55.26109 Y41.4378 I0.25 J-0.43301
G1 F300.0 Z-2.5
G2 F500.0 X55.42526 Y41.06737 I-0.33583 J-0.37043
G2 X54.67526 Y40.63436 I-0.5 J0.0
G2 Y41.50038 I0.25 J0.43301
G2 X55.26109 Y41.4378 I0.25 J-0.43301
G1 F300.0 Z-3.0
G2 F500.0 X55.42526 Y41.06737 I-0.33583 J-0.37043
G2 X54.67526 Y40.63436 I-0.5 J0.0
G2 Y41.50038 I0.25 J0.43301
G2 X55.26109 Y41.4378 I0.25 J-0.43301
G1 F300.0 Z-3.5
G2 F500.0 X55.42526 Y41.06737 I-0.33583 J-0.37043
G2 X54.67526 Y40.63436 I-0.5 J0.0
G2 Y41.50038 I0.25 J0.43301
G2 X55.26109 Y41.4378 I0.25 J-0.43301
G1 F300.0 Z-4.0
G2 F500.0 X55.42526 Y41.06737 I-0.33583 J-0.37043
G2 X54.67526 Y40.63436 I-0.5 J0.0
G2 Y41.50038 I0.25 J0.43301
G2 X55.26109 Y41.4378 I0.25 J-0.43301
G0 Z3.0
G0 X61.58992 Y34.43824
G0 Z1.0
G1 F300.0 Z-0.5
G2 F500.0 X61.67526 Y34.50038 I0.33534 J-0.37088
G2 X62.42526 Y34.06737 I0.25 J-0.43301
G2 X61.67526 Y33.63436 I-0.5 J0.0
G2 X61.58992 Y34.43824 I0.25 J0.43301
G1 F300.0 Z-1.0
G2 F500.0 X61.67526 Y34.50038 I0.33534 J-0.37088
G2 X62.42526 Y34.06737 I0.25 J-0.43301
G2 X61.67526 Y33.63436 I-0.5 J0.0
G2 X61.58992 Y34.43824 I0.25 J0.43301
G1 F300.0 Z-1.5
G2 F500.0 X61.67526 Y34.50038 I0.33534 J-0.37088
G2 X62.42526 Y34.06737 I0.25 J-0.43301
G2 X61.67526 Y33.63436 I-0.5 J0.0
G2 X61.58992 Y34.43824 I0.25 J0.43301
G1 F300.0 Z-2.0
G2 F500.0 X61.67526 Y34.50038 I0.33534 J-0.37088
G2 X62.42526 Y34.06737 I0.25 J-0.43301
G2 X61.67526 Y33.63436 I-0.5 J0.0
G2 X61.58992 Y34.43824 I0.25 J0.43301
G1 F300.0 Z-2.5
G2 F500.0 X61.67526 Y34.50038 I0.33534 J-0.37088
G2 X62.42526 Y34.06737 I0.25 J-0.43301
G2 X61.67526 Y33.63436 I-0.5 J0.0
G2 X61.58992 Y34.43824 I0.25 J0.43301
G1 F300.0 Z-3.0
G2 F500.0 X61.67526 Y34.50038 I0.33534 J-0.37088
G2 X62.42526 Y34.06737 I0.25 J-0.43301
G2 X61.67526 Y33.63436 I-0.5 J0.0
G2 X61.58992 Y34.43824 I0.25 J0.43301
G1 F300.0 Z-3.5
G2 F500.0 X61.67526 Y34.50038 I0.33534 J-0.37088
G2 X62.42526 Y34.06737 I0.25 J-0.43301
G2 X61.67526 Y33.63436 I-0.5 J0.0
G2 X61.58992 Y34.43824 I0.25 J0.43301
G1 F300.0 Z-4.0
G2 F500.0 X61.67526 Y34.50038 I0.33534 J-0.37088
G2 X62.42526 Y34.06737 I0.25 J-0.43301
G2 X61.67526 Y33.63436 I-0.5 J0.0
G2 X61.58992 Y34.43824 I0.25 J0.43301
G0 Z3.0
G0 X59.92459 Y25.6472
G0 Z1.0
G1 F300.0 Z-0.5
G2 F500.0 X60.33153 Y25.15594 I-0.09306 J-0.49126
G2 X59.58153 Y24.72293 I-0.5 J0.0
G2 Y25.58895 I0.25 J0.43301
G2 X59.92459 Y25.6472 I0.25 J-0.43301
G1 F300.0 Z-1.0
G2 F500.0 X60.33153 Y25.15594 I-0.09306 J-0.49126
G2 X59.58153 Y24.72293 I-0.5 J0.0
G2 Y25.58895 I0.25 J0.43301
G2 X59.92459 Y25.6472 I0.25 J-0.43301
G1 F300.0 Z-1.5
G2 F500.0 X60.33153 Y25.15594 I-0.09306 J-0.49126
G2 X59.58153 Y24.72293 I-0.5 J0.0
G2 Y25.58895 I0.25 J0.43301
G2 X59.92459 Y25.6472 I0.25 J-0.43301
G1 F300.0 Z-2.0
G2 F500.0 X60.33153 Y25.15594 I-0.09306 J-0.49126
G2 X59.58153 Y24.72293 I-0.5 J0.0
G2 Y25.58895 I0.25 J0.43301
G2 X59.92459 Y25.6472 I0.25 J-0.43301
G1 F300.0 Z-2.5
G2 F500.0 X60.33153 Y25.15594 I-0.09306 J-0.49126
G2 X59.58153 Y24.72293 I-0.5 J0.0
G2 Y25.58895 I0.25 J0.43301
G2 X59.92459 Y25.6472 I0.25 J-0.43301
G1 F300.0 Z-3.0
G2 F500.0 X60.33153 Y25.15594 I-0.09306 J-0.49126
G2 X59.58153 Y24.72293 I-0.5 J0.0
G2 Y25.58895 I0.25 J0.43301
G2 X59.92459 Y25.6472 I0.25 J-0.43301
G1 F300.0 Z-3.5
G2 F500.0 X60.33153 Y25.15594 I-0.09306 J-0.49126
G2 X59.58153 Y24.72293 I-0.5 J0.0
G2 Y25.58895 I0.25 J0.43301
G2 X59.92459 Y25.6472 I0.25 J-0.43301
G1 F300.0 Z-4.0
G2 F500.0 X60.33153 Y25.15594 I-0.09306 J-0.49126
G2 X59.58153 Y24.72293 I-0.5 J0.0
G2 Y25.58895 I0.25 J0.43301
G2 X59.92459 Y25.6472 I0.25 J-0.43301
G0 Z3.0
G0 X66.49261 Y18.52354
G0 Z1.0
G1 F300.0 Z-0.5
G2 F500.0 X66.58153 Y18.58895 I0.33893 J-0.3676
G2 X67.33153 Y18.15594 I0.25 J-0.43301
G2 X66.58153 Y17.72293 I-0.5 J0.0
G2 X66.49261 Y18.52354 I0.25 J0.43301
G1 F300.0 Z-1.0
G2 F500.0 X66.58153 Y18.58895 I0.33893 J-0.3676
G2 X67.33153 Y18.15594 I0.25 J-0.43301
G2 X66.58153 Y17.72293 I-0.5 J0.0
G2 X66.49261 Y18.52354 I0.25 J0.43301
G1 F300.0 Z-1.5
G2 F500.0 X66.58153 Y18.58895 I0.33893 J-0.3676
G2 X67.33153 Y18.15594 I0.25 J-0.43301
G2 X66.58153 Y17.72293 I-0.5 J0.0
G2 X66.49261 Y18.52354 I0.25 J0.43301
G1 F300.0 Z-2.0
G2 F500.0 X66.58153 Y18.58895 I0.33893 J-0.3676
G2 X67.33153 Y18.15594 I0.25 J-0.43301
G2 X66.58153 Y17.72293 I-0.5 J0.0
G2 X66.49261 Y18.52354 I0.25 J0.43301
G1 F300.0 Z-2.5
G2 F500.0 X66.58153 Y18.58895 I0.33893 J-0.3676
G2 X67.33153 Y18.15594 I0.25 J-0.43301
G2 X66.58153 Y17.72293 I-0.5 J0.0
G2 X66.49261 Y18.52354 I0.25 J0.43301
G1 F300.0 Z-3.0
G2 F500.0 X66.58153 Y18.58895 I0.33893 J-0.3676
G2 X67.33153 Y18.15594 I0.25 J-0.43301
G2 X66.58153 Y17.72293 I-0.5 J0.0
G2 X66.49261 Y18.52354 I0.25 J0.43301
G1 F300.0 Z-3.5
G2 F500.0 X66.58153 Y18.58895 I0.33893 J-0.3676
G2 X67.33153 Y18.15594 I0.25 J-0.43301
G2 X66.58153 Y17.72293 I-0.5 J0.0
G2 X66.49261 Y18.52354 I0.25 J0.43301
G1 F300.0 Z-4.0
G2 F500.0 X66.58153 Y18.58895 I0.33893 J-0.3676
G2 X67.33153 Y18.15594 I0.25 J-0.43301
G2 X66.58153 Y17.72293 I-0.5 J0.0
G2 X66.49261 Y18.52354 I0.25 J0.43301
G0 Z3.0
G0 X60.16685 Y11.52683
G0 Z1.0
G1 F300.0 Z-0.5
G2 F500.0 X60.33153 Y11.15594 I-0.33532 J-0.37089
G2 X59.58153 Y10.72293 I-0.5 J0.0
G2 Y11.58895 I0.25 J0.43301
G2 X60.16685 Y11.52683 I0.25 J-0.43301
G1 F300.0 Z-1.0
G2 F500.0 X60.33153 Y11.15594 I-0.33532 J-0.37089
G2 X59.58153 Y10.72293 I-0.5 J0.0
G2 Y11.58895 I0.25 J0.43301
G2 X60.16685 Y11.52683 I0.25 J-0.43301
G1 F300.0 Z-1.5
G2 F500.0 X60.33153 Y11.15594 I-0.33532 J-0.37089
G2 X59.58153 Y10.72293 I-0.5 J0.0
G2 Y11.58895 I0.25 J0.43301
G2 X60.16685 Y11.52683 I0.25 J-0.43301
G1 F300.0 Z-2.0
G2 F500.0 X60.33153 Y11.15594 I-0.33532 J-0.37089
G2 X59.58153 Y10.72293 I-0.5 J0.0
G2 Y11.58895 I0.25 J0.43301
G2 X60.16685 Y11.52683 I0.25 J-0.43301
G1 F300.0 Z-2.5
G2 F500.0 X60.33153 Y11.15594 I-0.33532 J-0.37089
G2 X59.58153 Y10.72293 I-0.5 J0.0
G2 Y11.58895 I0.25 J0.43301
G2 X60.16685 Y11.52683 I0.25 J-0.43301
G1 F300.0 Z-3.0
G2 F500.0 X60.33153 Y11.15594 I-0.33532 J-0.37089
G2 X59.58153 Y10.72293 I-0.5 J0.0
G2 Y11.58895 I0.25 J0.43301
G2 X60.16685 Y11.52683 I0.25 J-0.43301
G1 F300.0 Z-3.5
G2 F500.0 X60.33153 Y11.15594 I-0.33532 J-0.37089
G2 X59.58153 Y10.72293 I-0.5 J0.0
G2 Y11.58895 I0.25 J0.43301
G2 X60.16685 Y11.52683 I0.25 J-0.43301
G1 F300.0 Z-4.0
G2 F500.0 X60.33153 Y11.15594 I-0.33532 J-0.37089
G2 X59.58153 Y10.72293 I-0.5 J0.0
G2 Y11.58895 I0.25 J0.43301
G2 X60.16685 Y11.52683 I0.25 J-0.43301
G0 Z3.0
G0 X53.20249 Y17.8207
G0 Z1.0
G1 F300.0 Z-0.5
G2 F500.0 X52.58153 Y17.72293 I-0.37096 J0.33524
G2 Y18.58895 I0.25 J0.43301
G2 X53.33153 Y18.15594 I0.25 J-0.43301
G2 X53.20249 Y17.8207 I-0.5 J0.0
G1 F300.0 Z-1.0
G2 F500.0 X52.58153 Y17.72293 I-0.37096 J0.33524
G2 Y18.58895 I0.25 J0.43301
G2 X53.33153 Y18.15594 I0.25 J-0.43301
G2 X53.20249 Y17.8207 I-0.5 J0.0
G1 F300.0 Z-1.5
G2 F500.0 X52.58153 Y17.72293 I-0.37096 J0.33524
G2 Y18.58895 I0.25 J0.43301
G2 X53.33153 Y18.15594 I0.25 J-0.43301
G2 X53.20249 Y17.8207 I-0.5 J0.0
G1 F300.0 Z-2.0
G2 F500.0 X52.58153 Y17.72293 I-0.37096 J0.33524
G2 Y18.58895 I0.25 J0.43301
G2 X53.33153 Y18.15594 I0.25 J-0.43301
G2 X53.20249 Y17.8207 I-0.5 J0.0
G1 F300.0 Z-2.5
G2 F500.0 X52.58153 Y17.72293 I-0.37096 J0.33524
G2 Y18.58895 I0.25 J0.43301
G2 X53.33153 Y18.15594 I0.25 J-0.43301
G2 X53.20249 Y17.8207 I-0.5 J0.0
G1 F300.0 Z-3.0
G2 F500.0 X52.58153 Y17.72293 I-0.37096 J0.33524
G2 Y18.58895 I0.25 J0.43301
G2 X53.33153 Y18.15594 I0.25 J-0.43301
G2 X53.20249 Y17.8207 I-0.5 J0.0
G1 F300.0 Z-3.5
G2 F500.0 X52.58153 Y17.72293 I-0.37096 J0.33524
G2 Y18.58895 I0.25 J0.43301
G2 X53.33153 Y18.15594 I0.25 J-0.43301
G2 X53.20249 Y17.8207 I-0.5 J0.0
G1 F300.0 Z-4.0
G2 F500.0 X52.58153 Y17.72293 I-0.37096 J0.33524
G2 Y18.58895 I0.25 J0.43301
G2 X53.33153 Y18.15594 I0.25 J-0.43301
G2 X53.20249 Y17.8207 I-0.5 J0.0
G0 Z3.0
G0 X68.64514 Y40.6532
G0 Z1.0
G1 F300.0 Z-0.5
G2 F500.0 X68.67526 Y41.50038 I0.28012 J0.41417
G2 X69.42526 Y41.06737 I0.25 J-0.43301
G2 X68.67526 Y40.63436 I-0.5 J0.0
G2 X68.64514 Y40.6532 I0.25 J0.43301
G1 F300.0 Z-1.0
G2 F500.0 X68.67526 Y41.50038 I0.28012 J0.41417
G2 X69.42526 Y41.06737 I0.25 J-0.43301
G2 X68.67526 Y40.63436 I-0.5 J0.0
G2 X68.64514 Y40.6532 I0.25 J0.43301
G1 F300.0 Z-1.5
G2 F500.0 X68.67526 Y41.50038 I0.28012 J0.41417
G2 X69.42526 Y41.06737 I0.25 J-0.43301
G2 X68.67526 Y40.63436 I-0.5 J0.0
G2 X68.64514 Y40.6532 I0.25 J0.43301
G1 F300.0 Z-2.0
G2 F500.0 X68.67526 Y41.50038 I0.28012 J0.41417
G2 X69.42526 Y41.06737 I0.25 J-0.43301
G2 X68.67526 Y40.63436 I-0.5 J0.0
G2 X68.64514 Y40.6532 I0.25 J0.43301
G1 F300.0 Z-2.5
G2 F500.0 X68.67526 Y41.50038 I0.28012 J0.41417
G2 X69.42526 Y41.06737 I0.25 J-0.43301
G2 X68.67526 Y40.63436 I-0.5 J0.0
G2 X68.64514 Y40.6532 I0.25 J0.43301
G1 F300.0 Z-3.0
G2 F500.0 X68.67526 Y41.50038 I0.28012 J0.41417
G2 X69.42526 Y41.06737 I0.25 J-0.43301
G2 X68.67526 Y40.63436 I-0.5 J0.0
G2 X68.64514 Y40.6532 I0.25 J0.43301
G1 F300.0 Z-3.5
G2 F500.0 X68.67526 Y41.50038 I0.28012 J0.41417
G2 X69.42526 Y41.06737 I0.25 J-0.43301
G2 X68.67526 Y40.63436 I-0.5 J0.0
G2 X68.64514 Y40.6532 I0.25 J0.43301
G1 F300.0 Z-4.0
G2 F500.0 X68.67526 Y41.50038 I0.28012 J0.41417
G2 X69.42526 Y41.06737 I0.25 J-0.43301
G2 X68.67526 Y40.63436 I-0.5 J0.0
G2 X68.64514 Y40.6532 I0.25 J0.43301
( Profile5 )
G0 Z3.0
( T1 : 1.0 )
T1 M6
M3 S1000
G0 X70.33153 Y18.15594
G0 Z1.0
G1 F300.0 Z-0.5
G3 F500.0 X54.58153 Y27.24921 I-10.5 J0.0
G3 Y9.06267 I5.25 J-9.09327
G3 X70.33153 Y18.15594 I5.25 J9.09327
G1 F300.0 Z-1.0
G3 F500.0 X54.58153 Y27.24921 I-10.5 J0.0
G3 Y9.06267 I5.25 J-9.09327
G3 X70.33153 Y18.15594 I5.25 J9.09327
G1 F300.0 Z-1.5
G3 F500.0 X54.58153 Y27.24921 I-10.5 J0.0
G3 Y9.06267 I5.25 J-9.09327
G3 X70.33153 Y18.15594 I5.25 J9.09327
G1 F300.0 Z-2.0
G3 F500.0 X54.58153 Y27.24921 I-10.5 J0.0
G3 Y9.06267 I5.25 J-9.09327
G3 X70.33153 Y18.15594 I5.25 J9.09327
G1 F300.0 Z-2.5
G3 F500.0 X54.58153 Y27.24921 I-10.5 J0.0
G3 Y9.06267 I5.25 J-9.09327
G3 X70.33153 Y18.15594 I5.25 J9.09327
G1 F300.0 Z-3.0
G3 F500.0 X54.58153 Y27.24921 I-10.5 J0.0
G3 Y9.06267 I5.25 J-9.09327
G3 X70.33153 Y18.15594 I5.25 J9.09327
G1 F300.0 Z-3.5
G3 F500.0 X54.58153 Y27.24921 I-10.5 J0.0
G3 Y9.06267 I5.25 J-9.09327
G3 X70.33153 Y18.15594 I5.25 J9.09327
G1 F300.0 Z-4.0
G3 F500.0 X54.58153 Y27.24921 I-10.5 J0.0
G3 Y9.06267 I5.25 J-9.09327
G3 X70.33153 Y18.15594 I5.25 J9.09327
G0 Z3.0
G0 X65.54198 Y31.20992
G0 Z1.0
G1 F300.0 Z-0.5
G3 F500.0 X72.42526 Y41.06737 I-3.61673 J9.85745
G3 X56.67526 Y50.16064 I-10.5 J0.0
G3 Y31.9741 I5.25 J-9.09327
G3 X65.54198 Y31.20992 I5.25 J9.09327
G1 F300.0 Z-1.0
G3 F500.0 X72.42526 Y41.06737 I-3.61673 J9.85745
G3 X56.67526 Y50.16064 I-10.5 J0.0
G3 Y31.9741 I5.25 J-9.09327
G3 X65.54198 Y31.20992 I5.25 J9.09327
G1 F300.0 Z-1.5
G3 F500.0 X72.42526 Y41.06737 I-3.61673 J9.85745
G3 X56.67526 Y50.16064 I-10.5 J0.0
G3 Y31.9741 I5.25 J-9.09327
G3 X65.54198 Y31.20992 I5.25 J9.09327
G1 F300.0 Z-2.0
G3 F500.0 X72.42526 Y41.06737 I-3.61673 J9.85745
G3 X56.67526 Y50.16064 I-10.5 J0.0
G3 Y31.9741 I5.25 J-9.09327
G3 X65.54198 Y31.20992 I5.25 J9.09327
G1 F300.0 Z-2.5
G3 F500.0 X72.42526 Y41.06737 I-3.61673 J9.85745
G3 X56.67526 Y50.16064 I-10.5 J0.0
G3 Y31.9741 I5.25 J-9.09327
G3 X65.54198 Y31.20992 I5.25 J9.09327
G1 F300.0 Z-3.0
G3 F500.0 X72.42526 Y41.06737 I-3.61673 J9.85745
G3 X56.67526 Y50.16064 I-10.5 J0.0
G3 Y31.9741 I5.25 J-9.09327
G3 X65.54198 Y31.20992 I5.25 J9.09327
G1 F300.0 Z-3.5
G3 F500.0 X72.42526 Y41.06737 I-3.61673 J9.85745
G3 X56.67526 Y50.16064 I-10.5 J0.0
G3 Y31.9741 I5.25 J-9.09327
G3 X65.54198 Y31.20992 I5.25 J9.09327
G1 F300.0 Z-4.0
G3 F500.0 X72.42526 Y41.06737 I-3.61673 J9.85745
G3 X56.67526 Y50.16064 I-10.5 J0.0
G3 Y31.9741 I5.25 J-9.09327
G3 X65.54198 Y31.20992 I5.25 J9.09327
G0 Z3.0
G0 X54.23396 Y51.259
G0 Z1.0
G1 F300.0 Z-0.5
G3 F500.0 X59.57567 Y60.40461 I-5.15828 J9.14561
G3 X43.82567 Y69.49787 I-10.5 J0.0
G3 Y51.31134 I5.25 J-9.09327
G3 X54.23396 Y51.259 I5.25 J9.09327
G1 F300.0 Z-1.0
G3 F500.0 X59.57567 Y60.40461 I-5.15828 J9.14561
G3 X43.82567 Y69.49787 I-10.5 J0.0
G3 Y51.31134 I5.25 J-9.09327
G3 X54.23396 Y51.259 I5.25 J9.09327
G1 F300.0 Z-1.5
G3 F500.0 X59.57567 Y60.40461 I-5.15828 J9.14561
G3 X43.82567 Y69.49787 I-10.5 J0.0
G3 Y51.31134 I5.25 J-9.09327
G3 X54.23396 Y51.259 I5.25 J9.09327
G1 F300.0 Z-2.0
G3 F500.0 X59.57567 Y60.40461 I-5.15828 J9.14561
G3 X43.82567 Y69.49787 I-10.5 J0.0
G3 Y51.31134 I5.25 J-9.09327
G3 X54.23396 Y51.259 I5.25 J9.09327
G1 F300.0 Z-2.5
G3 F500.0 X59.57567 Y60.40461 I-5.15828 J9.14561
G3 X43.82567 Y69.49787 I-10.5 J0.0
G3 Y51.31134 I5.25 J-9.09327
G3 X54.23396 Y51.259 I5.25 J9.09327
G1 F300.0 Z-3.0
G3 F500.0 X59.57567 Y60.40461 I-5.15828 J9.14561
G3 X43.82567 Y69.49787 I-10.5 J0.0
G3 Y51.31134 I5.25 J-9.09327
G3 X54.23396 Y51.259 I5.25 J9.09327
G1 F300.0 Z-3.5
G3 F500.0 X59.57567 Y60.40461 I-5.15828 J9.14561
G3 X43.82567 Y69.49787 I-10.5 J0.0
G3 Y51.31134 I5.25 J-9.09327
G3 X54.23396 Y51.259 I5.25 J9.09327
G1 F300.0 Z-4.0
G3 F500.0 X59.57567 Y60.40461 I-5.15828 J9.14561
G3 X43.82567 Y69.49787 I-10.5 J0.0
G3 Y51.31134 I5.25 J-9.09327
G3 X54.23396 Y51.259 I5.25 J9.09327
G0 Z3.0
G0 X35.37049 Y57.23399
G0 Z1.0
G1 F300.0 Z-0.5
G3 F500.0 X35.86064 Y60.40461 I-10.00985 J3.17062
G3 X20.11064 Y69.49787 I-10.5 J0.0
G3 Y51.31134 I5.25 J-9.09327
G3 X35.37049 Y57.23399 I5.25 J9.09327
G1 F300.0 Z-1.0
G3 F500.0 X35.86064 Y60.40461 I-10.00985 J3.17062
G3 X20.11064 Y69.49787 I-10.5 J0.0
G3 Y51.31134 I5.25 J-9.09327
G3 X35.37049 Y57.23399 I5.25 J9.09327
G1 F300.0 Z-1.5
G3 F500.0 X35.86064 Y60.40461 I-10.00985 J3.17062
G3 X20.11064 Y69.49787 I-10.5 J0.0
G3 Y51.31134 I5.25 J-9.09327
G3 X35.37049 Y57.23399 I5.25 J9.09327
G1 F300.0 Z-2.0
G3 F500.0 X35.86064 Y60.40461 I-10.00985 J3.17062
G3 X20.11064 Y69.49787 I-10.5 J0.0
G3 Y51.31134 I5.25 J-9.09327
G3 X35.37049 Y57.23399 I5.25 J9.09327
G1 F300.0 Z-2.5
G3 F500.0 X35.86064 Y60.40461 I-10.00985 J3.17062
G3 X20.11064 Y69.49787 I-10.5 J0.0
G3 Y51.31134 I5.25 J-9.09327
G3 X35.37049 Y57.23399 I5.25 J9.09327
G1 F300.0 Z-3.0
G3 F500.0 X35.86064 Y60.40461 I-10.00985 J3.17062
G3 X20.11064 Y69.49787 I-10.5 J0.0
G3 Y51.31134 I5.25 J-9.09327
G3 X35.37049 Y57.23399 I5.25 J9.09327
G1 F300.0 Z-3.5
G3 F500.0 X35.86064 Y60.40461 I-10.00985 J3.17062
G3 X20.11064 Y69.49787 I-10.5 J0.0
G3 Y51.31134 I5.25 J-9.09327
G3 X35.37049 Y57.23399 I5.25 J9.09327
G1 F300.0 Z-4.0
G3 F500.0 X35.86064 Y60.40461 I-10.00985 J3.17062
G3 X20.11064 Y69.49787 I-10.5 J0.0
G3 Y51.31134 I5.25 J-9.09327
G3 X35.37049 Y57.23399 I5.25 J9.09327
G0 Z3.0
M5
M30
