( Made using CamBam - http://www.cambam.co.uk )
( wallsy 11/29/2015 12:39:00 PM )
( T2 : 2.0 )
G21 G90 G64 G40
G0 Z3.0
( T2 : 2.0 )
T2 M6
( holes )
G17
M3 S1000
G0 X122.23291 Y100.04099
G0 Z1.0
G1 F300.0 Z-0.5
G2 F500.0 X121.03291 Y99.34817 I-0.8 J0.0
G2 Y100.73381 I0.4 J0.69282
G2 X122.23291 Y100.04099 I0.4 J-0.69282
G1 F300.0 Z-1.0
G2 F500.0 X121.03291 Y99.34817 I-0.8 J0.0
G2 Y100.73381 I0.4 J0.69282
G2 X122.23291 Y100.04099 I0.4 J-0.69282
G1 F300.0 Z-1.5
G2 F500.0 X121.03291 Y99.34817 I-0.8 J0.0
G2 Y100.73381 I0.4 J0.69282
G2 X122.23291 Y100.04099 I0.4 J-0.69282
G1 F300.0 Z-2.0
G2 F500.0 X121.03291 Y99.34817 I-0.8 J0.0
G2 Y100.73381 I0.4 J0.69282
G2 X122.23291 Y100.04099 I0.4 J-0.69282
G1 F300.0 Z-2.5
G2 F500.0 X121.03291 Y99.34817 I-0.8 J0.0
G2 Y100.73381 I0.4 J0.69282
G2 X122.23291 Y100.04099 I0.4 J-0.69282
G1 F300.0 Z-3.0
G2 F500.0 X121.03291 Y99.34817 I-0.8 J0.0
G2 Y100.73381 I0.4 J0.69282
G2 X122.23291 Y100.04099 I0.4 J-0.69282
G0 Z3.0
G0 X121.45849 Y75.84058
G0 Z1.0
G1 F300.0 Z-0.5
G2 F500.0 X122.23291 Y75.04099 I-0.02559 J-0.79959
G2 X121.03291 Y74.34817 I-0.8 J0.0
G2 Y75.73381 I0.4 J0.69282
G2 X121.45849 Y75.84058 I0.4 J-0.69282
G1 F300.0 Z-1.0
G2 F500.0 X122.23291 Y75.04099 I-0.02559 J-0.79959
G2 X121.03291 Y74.34817 I-0.8 J0.0
G2 Y75.73381 I0.4 J0.69282
G2 X121.45849 Y75.84058 I0.4 J-0.69282
G1 F300.0 Z-1.5
G2 F500.0 X122.23291 Y75.04099 I-0.02559 J-0.79959
G2 X121.03291 Y74.34817 I-0.8 J0.0
G2 Y75.73381 I0.4 J0.69282
G2 X121.45849 Y75.84058 I0.4 J-0.69282
G1 F300.0 Z-2.0
G2 F500.0 X122.23291 Y75.04099 I-0.02559 J-0.79959
G2 X121.03291 Y74.34817 I-0.8 J0.0
G2 Y75.73381 I0.4 J0.69282
G2 X121.45849 Y75.84058 I0.4 J-0.69282
G1 F300.0 Z-2.5
G2 F500.0 X122.23291 Y75.04099 I-0.02559 J-0.79959
G2 X121.03291 Y74.34817 I-0.8 J0.0
G2 Y75.73381 I0.4 J0.69282
G2 X121.45849 Y75.84058 I0.4 J-0.69282
G1 F300.0 Z-3.0
G2 F500.0 X122.23291 Y75.04099 I-0.02559 J-0.79959
G2 X121.03291 Y74.34817 I-0.8 J0.0
G2 Y75.73381 I0.4 J0.69282
G2 X121.45849 Y75.84058 I0.4 J-0.69282
( dsub )
S1000
G0 Z3.0
G0 X126.06718 Y94.17694
G0 Z1.0
G1 F300.0 Z-0.5
G1 F500.0 Y80.90504
G2 X124.36451 Y79.41879 I-1.5 J0.0
G1 X118.36451 Y80.23697
G2 X117.06718 Y81.72322 I0.20267 J1.48625
G1 Y93.35876
G2 X118.36451 Y94.84501 I1.5 J0.0
G1 X124.36451 Y95.66319
G2 X126.06718 Y94.17694 I0.20267 J-1.48625
G1 F300.0 Z-1.0
G1 F500.0 Y80.90504
G2 X124.36451 Y79.41879 I-1.5 J0.0
G1 X118.36451 Y80.23697
G2 X117.06718 Y81.72322 I0.20267 J1.48625
G1 Y93.35876
G2 X118.36451 Y94.84501 I1.5 J0.0
G1 X124.36451 Y95.66319
G2 X126.06718 Y94.17694 I0.20267 J-1.48625
G1 F300.0 Z-1.5
G1 F500.0 Y89.58613
G1 Y88.58613 Z-1.0
G1 Y86.58613
G1 Y85.58613 Z-1.5
G1 Y80.90504
G2 X124.36451 Y79.41879 I-1.5 J0.0
G1 X124.13196 Y79.4505
G1 X123.14113 Y79.58562 Z-1.0
G1 X121.15947 Y79.85584
G1 X120.16864 Y79.99096 Z-1.5
G1 X118.36451 Y80.23697
G2 X117.06718 Y81.72322 I0.20267 J1.48625
G1 Y85.49584
G1 Y86.49584 Z-1.0
G1 Y88.49584
G1 Y89.49584 Z-1.5
G1 Y93.35876
G2 X118.36451 Y94.84501 I1.5 J0.0
G1 X120.07917 Y95.07882
G1 X121.07 Y95.21394 Z-1.0
G1 X123.05166 Y95.48416
G1 X124.0425 Y95.61928 Z-1.5
G1 X124.36451 Y95.66319
G2 X126.06718 Y94.17694 I0.20267 J-1.48625
G1 F300.0 Z-2.0
G1 F500.0 Y89.58613
G1 Y88.58613 Z-1.0
G1 Y86.58613
G1 Y85.58613 Z-2.0
G1 Y80.90504
G2 X124.36451 Y79.41879 I-1.5 J0.0
G1 X124.13196 Y79.4505
G1 X123.14113 Y79.58562 Z-1.0
G1 X121.15947 Y79.85584
G1 X120.16864 Y79.99096 Z-2.0
G1 X118.36451 Y80.23697
G2 X117.06718 Y81.72322 I0.20267 J1.48625
G1 Y85.49584
G1 Y86.49584 Z-1.0
G1 Y88.49584
G1 Y89.49584 Z-2.0
G1 Y93.35876
G2 X118.36451 Y94.84501 I1.5 J0.0
G1 X120.07917 Y95.07882
G1 X121.07 Y95.21394 Z-1.0
G1 X123.05166 Y95.48416
G1 X124.0425 Y95.61928 Z-2.0
G1 X124.36451 Y95.66319
G2 X126.06718 Y94.17694 I0.20267 J-1.48625
G1 F300.0 Z-2.5
G1 F500.0 Y89.58613
G1 Y88.58613 Z-1.0
G1 Y86.58613
G1 Y85.58613 Z-2.5
G1 Y80.90504
G2 X124.36451 Y79.41879 I-1.5 J0.0
G1 X124.13196 Y79.4505
G1 X123.14113 Y79.58562 Z-1.0
G1 X121.15947 Y79.85584
G1 X120.16864 Y79.99096 Z-2.5
G1 X118.36451 Y80.23697
G2 X117.06718 Y81.72322 I0.20267 J1.48625
G1 Y85.49584
G1 Y86.49584 Z-1.0
G1 Y88.49584
G1 Y89.49584 Z-2.5
G1 Y93.35876
G2 X118.36451 Y94.84501 I1.5 J0.0
G1 X120.07917 Y95.07882
G1 X121.07 Y95.21394 Z-1.0
G1 X123.05166 Y95.48416
G1 X124.0425 Y95.61928 Z-2.5
G1 X124.36451 Y95.66319
G2 X126.06718 Y94.17694 I0.20267 J-1.48625
G1 F300.0 Z-3.0
G1 F500.0 Y89.58613
G1 Y88.58613 Z-1.0
G1 Y86.58613
G1 Y85.58613 Z-3.0
G1 Y80.90504
G2 X124.36451 Y79.41879 I-1.5 J0.0
G1 X124.13196 Y79.4505
G1 X123.14113 Y79.58562 Z-1.0
G1 X121.15947 Y79.85584
G1 X120.16864 Y79.99096 Z-3.0
G1 X118.36451 Y80.23697
G2 X117.06718 Y81.72322 I0.20267 J1.48625
G1 Y85.49584
G1 Y86.49584 Z-1.0
G1 Y88.49584
G1 Y89.49584 Z-3.0
G1 Y93.35876
G2 X118.36451 Y94.84501 I1.5 J0.0
G1 X120.07917 Y95.07882
G1 X121.07 Y95.21394 Z-1.0
G1 X123.05166 Y95.48416
G1 X124.0425 Y95.61928 Z-3.0
G1 X124.36451 Y95.66319
G2 X126.06718 Y94.17694 I0.20267 J-1.48625
( sides )
S1000
G0 Z3.0
G0 X42.56718 Y8.58104
G0 Z1.0
G1 F300.0 Z-0.5
G1 F500.0 Y62.51312
G1 Y64.01312 Z0.0
G1 Y66.01312
G1 Y67.51312 Z-0.5
G1 Y175.37729
G1 Y176.87729 Z0.0
G1 Y178.87729
G1 Y180.37729 Z-0.5
G1 Y264.50094
G1 Y264.5292
G3 X42.14478 Y265.34553 I-1.0 J0.0
G3 X19.04005 Y271.79946 I-20.57759 J-29.08287
G3 X17.5446 Y271.66138 Z0.0 I2.52713 J-35.5368
G3 X15.56451 Y271.37987 I4.02258 J-35.39872
G3 X14.08983 Y271.09568 Z-0.5 I6.00267 J-35.11721
G3 X0.98959 Y265.34553 I7.47735 J-34.83302
G3 X0.56718 Y264.5292 I0.57759 J-0.81633
G1 Y258.14099
G3 X1.56718 Y257.14099 I1.0 J0.0
G1 X20.56718
G1 X20.86008 Y257.43388
G1 X20.56718 Y257.14099
G1 Y256.14099
G1 X20.86008 Y255.8481
G1 X20.56718 Y256.14099
G1 X1.56718
G3 X0.56718 Y255.14099 I0.0 J-1.0
G1 Y210.59712
G1 Y209.09712 Z0.0
G1 Y207.09712
G1 Y205.59712 Z-0.5
G1 Y97.73295
G1 Y96.23295 Z0.0
G1 Y94.23295
G1 Y92.73295 Z-0.5
G1 Y17.94099
G3 X1.56718 Y16.94099 I1.0 J0.0
G1 X20.56718
G1 X20.86008 Y17.23388
G1 X20.56718 Y16.94099
G1 Y15.94099
G1 X20.86008 Y15.6481
G1 X20.56718 Y15.94099
G1 X1.56718
G3 X0.56718 Y14.94099 I0.0 J-1.0
G1 Y8.58104
G3 X0.98959 Y7.76471 I1.0 J0.0
G3 X18.53494 Y1.35031 I20.57759 J29.08287
G3 X20.03367 Y1.25406 Z0.0 I3.03224 J35.49727
G3 X22.03344 Y1.22409 I1.53352 J35.59352
G3 X23.53438 Y1.27539 Z-0.5 I-0.46626 J35.62349
G3 X42.14478 Y7.76471 I-1.9672 J35.57219
G3 X42.56718 Y8.58104 I-0.57759 J0.81633
G1 F300.0 Z-1.0
G1 F500.0 Y62.51312
G1 Y64.01312 Z0.0
G1 Y66.01312
G1 Y67.51312 Z-1.0
G1 Y175.37729
G1 Y176.87729 Z0.0
G1 Y178.87729
G1 Y180.37729 Z-1.0
G1 Y264.50094
G1 Y264.5292
G3 X42.14478 Y265.34553 I-1.0 J0.0
G3 X19.04005 Y271.79946 I-20.57759 J-29.08287
G3 X17.5446 Y271.66138 Z0.0 I2.52713 J-35.5368
G3 X15.56451 Y271.37987 I4.02258 J-35.39872
G3 X14.08983 Y271.09568 Z-1.0 I6.00267 J-35.11721
G3 X0.98959 Y265.34553 I7.47735 J-34.83302
G3 X0.56718 Y264.5292 I0.57759 J-0.81633
G1 Y258.14099
G3 X1.56718 Y257.14099 I1.0 J0.0
G1 X20.56718
G1 X20.86008 Y257.43388
G1 X20.56718 Y257.14099
G1 Y256.14099
G1 X20.86008 Y255.8481
G1 X20.56718 Y256.14099
G1 X1.56718
G3 X0.56718 Y255.14099 I0.0 J-1.0
G1 Y210.59712
G1 Y209.09712 Z0.0
G1 Y207.09712
G1 Y205.59712 Z-1.0
G1 Y97.73295
G1 Y96.23295 Z0.0
G1 Y94.23295
G1 Y92.73295 Z-1.0
G1 Y17.94099
G3 X1.56718 Y16.94099 I1.0 J0.0
G1 X20.56718
G1 X20.86008 Y17.23388
G1 X20.56718 Y16.94099
G1 Y15.94099
G1 X20.86008 Y15.6481
G1 X20.56718 Y15.94099
G1 X1.56718
G3 X0.56718 Y14.94099 I0.0 J-1.0
G1 Y8.58104
G3 X0.98959 Y7.76471 I1.0 J0.0
G3 X18.53494 Y1.35031 I20.57759 J29.08287
G3 X20.03367 Y1.25406 Z0.0 I3.03224 J35.49727
G3 X22.03344 Y1.22409 I1.53352 J35.59352
G3 X23.53438 Y1.27539 Z-1.0 I-0.46626 J35.62349
G3 X42.14478 Y7.76471 I-1.9672 J35.57219
G3 X42.56718 Y8.58104 I-0.57759 J0.81633
G1 F300.0 Z-1.5
G1 F500.0 Y62.51312
G1 Y64.01312 Z0.0
G1 Y66.01312
G1 Y67.51312 Z-1.5
G1 Y175.37729
G1 Y176.87729 Z0.0
G1 Y178.87729
G1 Y180.37729 Z-1.5
G1 Y264.50094
G1 Y264.5292
G3 X42.14478 Y265.34553 I-1.0 J0.0
G3 X19.04005 Y271.79946 I-20.57759 J-29.08287
G3 X17.5446 Y271.66138 Z0.0 I2.52713 J-35.5368
G3 X15.56451 Y271.37987 I4.02258 J-35.39872
G3 X14.08983 Y271.09568 Z-1.5 I6.00267 J-35.11721
G3 X0.98959 Y265.34553 I7.47735 J-34.83302
G3 X0.56718 Y264.5292 I0.57759 J-0.81633
G1 Y258.14099
G3 X1.56718 Y257.14099 I1.0 J0.0
G1 X20.56718
G1 X20.86008 Y257.43388
G1 X20.56718 Y257.14099
G1 Y256.14099
G1 X20.86008 Y255.8481
G1 X20.56718 Y256.14099
G1 X1.56718
G3 X0.56718 Y255.14099 I0.0 J-1.0
G1 Y210.59712
G1 Y209.09712 Z0.0
G1 Y207.09712
G1 Y205.59712 Z-1.5
G1 Y97.73295
G1 Y96.23295 Z0.0
G1 Y94.23295
G1 Y92.73295 Z-1.5
G1 Y17.94099
G3 X1.56718 Y16.94099 I1.0 J0.0
G1 X20.56718
G1 X20.86008 Y17.23388
G1 X20.56718 Y16.94099
G1 Y15.94099
G1 X20.86008 Y15.6481
G1 X20.56718 Y15.94099
G1 X1.56718
G3 X0.56718 Y14.94099 I0.0 J-1.0
G1 Y8.58104
G3 X0.98959 Y7.76471 I1.0 J0.0
G3 X18.53494 Y1.35031 I20.57759 J29.08287
G3 X20.03367 Y1.25406 Z0.0 I3.03224 J35.49727
G3 X22.03344 Y1.22409 I1.53352 J35.59352
G3 X23.53438 Y1.27539 Z-1.5 I-0.46626 J35.62349
G3 X42.14478 Y7.76471 I-1.9672 J35.57219
G3 X42.56718 Y8.58104 I-0.57759 J0.81633
G1 F300.0 Z-2.0
G1 F500.0 Y62.51312
G1 Y64.01312 Z0.0
G1 Y66.01312
G1 Y67.51312 Z-2.0
G1 Y175.37729
G1 Y176.87729 Z0.0
G1 Y178.87729
G1 Y180.37729 Z-2.0
G1 Y264.50094
G1 Y264.5292
G3 X42.14478 Y265.34553 I-1.0 J0.0
G3 X19.04005 Y271.79946 I-20.57759 J-29.08287
G3 X17.5446 Y271.66138 Z0.0 I2.52713 J-35.5368
G3 X15.56451 Y271.37987 I4.02258 J-35.39872
G3 X14.08983 Y271.09568 Z-2.0 I6.00267 J-35.11721
G3 X0.98959 Y265.34553 I7.47735 J-34.83302
G3 X0.56718 Y264.5292 I0.57759 J-0.81633
G1 Y258.14099
G3 X1.56718 Y257.14099 I1.0 J0.0
G1 X20.56718
G1 X20.86008 Y257.43388
G1 X20.56718 Y257.14099
G1 Y256.14099
G1 X20.86008 Y255.8481
G1 X20.56718 Y256.14099
G1 X1.56718
G3 X0.56718 Y255.14099 I0.0 J-1.0
G1 Y210.59712
G1 Y209.09712 Z0.0
G1 Y207.09712
G1 Y205.59712 Z-2.0
G1 Y97.73295
G1 Y96.23295 Z0.0
G1 Y94.23295
G1 Y92.73295 Z-2.0
G1 Y17.94099
G3 X1.56718 Y16.94099 I1.0 J0.0
G1 X20.56718
G1 X20.86008 Y17.23388
G1 X20.56718 Y16.94099
G1 Y15.94099
G1 X20.86008 Y15.6481
G1 X20.56718 Y15.94099
G1 X1.56718
G3 X0.56718 Y14.94099 I0.0 J-1.0
G1 Y8.58104
G3 X0.98959 Y7.76471 I1.0 J0.0
G3 X18.53494 Y1.35031 I20.57759 J29.08287
G3 X20.03367 Y1.25406 Z0.0 I3.03224 J35.49727
G3 X22.03344 Y1.22409 I1.53352 J35.59352
G3 X23.53438 Y1.27539 Z-2.0 I-0.46626 J35.62349
G3 X42.14478 Y7.76471 I-1.9672 J35.57219
G3 X42.56718 Y8.58104 I-0.57759 J0.81633
G1 F300.0 Z-2.5
G1 F500.0 Y62.51312
G1 Y64.01312 Z0.0
G1 Y66.01312
G1 Y67.51312 Z-2.5
G1 Y175.37729
G1 Y176.87729 Z0.0
G1 Y178.87729
G1 Y180.37729 Z-2.5
G1 Y264.50094
G1 Y264.5292
G3 X42.14478 Y265.34553 I-1.0 J0.0
G3 X19.04005 Y271.79946 I-20.57759 J-29.08287
G3 X17.5446 Y271.66138 Z0.0 I2.52713 J-35.5368
G3 X15.56451 Y271.37987 I4.02258 J-35.39872
G3 X14.08983 Y271.09568 Z-2.5 I6.00267 J-35.11721
G3 X0.98959 Y265.34553 I7.47735 J-34.83302
G3 X0.56718 Y264.5292 I0.57759 J-0.81633
G1 Y258.14099
G3 X1.56718 Y257.14099 I1.0 J0.0
G1 X20.56718
G1 X20.86008 Y257.43388
G1 X20.56718 Y257.14099
G1 Y256.14099
G1 X20.86008 Y255.8481
G1 X20.56718 Y256.14099
G1 X1.56718
G3 X0.56718 Y255.14099 I0.0 J-1.0
G1 Y210.59712
G1 Y209.09712 Z0.0
G1 Y207.09712
G1 Y205.59712 Z-2.5
G1 Y97.73295
G1 Y96.23295 Z0.0
G1 Y94.23295
G1 Y92.73295 Z-2.5
G1 Y17.94099
G3 X1.56718 Y16.94099 I1.0 J0.0
G1 X20.56718
G1 X20.86008 Y17.23388
G1 X20.56718 Y16.94099
G1 Y15.94099
G1 X20.86008 Y15.6481
G1 X20.56718 Y15.94099
G1 X1.56718
G3 X0.56718 Y14.94099 I0.0 J-1.0
G1 Y8.58104
G3 X0.98959 Y7.76471 I1.0 J0.0
G3 X18.53494 Y1.35031 I20.57759 J29.08287
G3 X20.03367 Y1.25406 Z0.0 I3.03224 J35.49727
G3 X22.03344 Y1.22409 I1.53352 J35.59352
G3 X23.53438 Y1.27539 Z-2.5 I-0.46626 J35.62349
G3 X42.14478 Y7.76471 I-1.9672 J35.57219
G3 X42.56718 Y8.58104 I-0.57759 J0.81633
G1 F300.0 Z-3.0
G1 F500.0 Y62.51312
G1 Y64.01312 Z0.0
G1 Y66.01312
G1 Y67.51312 Z-3.0
G1 Y175.37729
G1 Y176.87729 Z0.0
G1 Y178.87729
G1 Y180.37729 Z-3.0
G1 Y264.50094
G1 Y264.5292
G3 X42.14478 Y265.34553 I-1.0 J0.0
G3 X19.04005 Y271.79946 I-20.57759 J-29.08287
G3 X17.5446 Y271.66138 Z0.0 I2.52713 J-35.5368
G3 X15.56451 Y271.37987 I4.02258 J-35.39872
G3 X14.08983 Y271.09568 Z-3.0 I6.00267 J-35.11721
G3 X0.98959 Y265.34553 I7.47735 J-34.83302
G3 X0.56718 Y264.5292 I0.57759 J-0.81633
G1 Y258.14099
G3 X1.56718 Y257.14099 I1.0 J0.0
G1 X20.56718
G1 X20.86008 Y257.43388
G1 X20.56718 Y257.14099
G1 Y256.14099
G1 X20.86008 Y255.8481
G1 X20.56718 Y256.14099
G1 X1.56718
G3 X0.56718 Y255.14099 I0.0 J-1.0
G1 Y210.59712
G1 Y209.09712 Z0.0
G1 Y207.09712
G1 Y205.59712 Z-3.0
G1 Y97.73295
G1 Y96.23295 Z0.0
G1 Y94.23295
G1 Y92.73295 Z-3.0
G1 Y17.94099
G3 X1.56718 Y16.94099 I1.0 J0.0
G1 X20.56718
G1 X20.86008 Y17.23388
G1 X20.56718 Y16.94099
G1 Y15.94099
G1 X20.86008 Y15.6481
G1 X20.56718 Y15.94099
G1 X1.56718
G3 X0.56718 Y14.94099 I0.0 J-1.0
G1 Y8.58104
G3 X0.98959 Y7.76471 I1.0 J0.0
G3 X18.53494 Y1.35031 I20.57759 J29.08287
G3 X20.03367 Y1.25406 Z0.0 I3.03224 J35.49727
G3 X22.03344 Y1.22409 I1.53352 J35.59352
G3 X23.53438 Y1.27539 Z-3.0 I-0.46626 J35.62349
G3 X42.14478 Y7.76471 I-1.9672 J35.57219
G3 X42.56718 Y8.58104 I-0.57759 J0.81633
G0 Z3.0
G0 X50.56718
G0 Z1.0
G1 F300.0 Z-0.5
G3 F500.0 X50.98959 Y7.76471 I1.0 J0.0
G3 X69.49642 Y1.28127 I20.57759 J29.08287
G3 X70.9972 Y1.2256 Z0.0 I2.07076 J35.56631
G3 X72.99706 Y1.24974 I0.56998 J35.62198
G3 X74.49606 Y1.34163 Z-0.5 I-1.42987 J35.59784
G3 X92.14478 Y7.76471 I-2.92887 J35.50594
G3 X92.56718 Y8.58104 I-0.57759 J0.81633
G1 Y92.73295
G1 Y94.23295 Z0.0
G1 Y96.23295
G1 Y97.73295 Z-0.5
G1 Y205.59712
G1 Y207.09712 Z0.0
G1 Y209.09712
G1 Y210.59712 Z-0.5
G1 Y264.50094
G1 Y264.5292
G3 X92.14478 Y265.34553 I-1.0 J0.0
G3 X73.46945 Y271.83838 I-20.57759 J-29.08287
G3 X71.96842 Y271.88694 Z0.0 I-1.90226 J-35.57572
G3 X69.9687 Y271.85332 I-0.40123 J-35.62428
G3 X68.47015 Y271.75433 Z-0.5 I1.59848 J-35.59066
G3 X50.98959 Y265.34553 I3.09703 J-35.49167
G3 X50.56718 Y264.5292 I0.57759 J-0.81633
G1 Y258.14099
G3 X51.56718 Y257.14099 I1.0 J0.0
G1 X70.56718
G1 X70.86008 Y257.43388
G1 X70.56718 Y257.14099
G1 Y256.14099
G1 X70.86008 Y255.8481
G1 X70.56718 Y256.14099
G1 X51.56718
G3 X50.56718 Y255.14099 I0.0 J-1.0
G1 Y180.37729
G1 Y178.87729 Z0.0
G1 Y176.87729
G1 Y175.37729 Z-0.5
G1 Y67.51312
G1 Y66.01312 Z0.0
G1 Y64.01312
G1 Y62.51312 Z-0.5
G1 Y17.94099
G3 X51.56718 Y16.94099 I1.0 J0.0
G1 X70.56718
G1 X70.86008 Y17.23388
G1 X70.56718 Y16.94099
G1 Y15.94099
G1 X70.86008 Y15.6481
G1 X70.56718 Y15.94099
G1 X51.56718
G3 X50.56718 Y14.94099 I0.0 J-1.0
G1 Y8.58104
G1 F300.0 Z-1.0
G3 F500.0 X50.98959 Y7.76471 I1.0 J0.0
G3 X69.49642 Y1.28127 I20.57759 J29.08287
G3 X70.9972 Y1.2256 Z0.0 I2.07076 J35.56631
G3 X72.99706 Y1.24974 I0.56998 J35.62198
G3 X74.49606 Y1.34163 Z-1.0 I-1.42987 J35.59784
G3 X92.14478 Y7.76471 I-2.92887 J35.50594
G3 X92.56718 Y8.58104 I-0.57759 J0.81633
G1 Y92.73295
G1 Y94.23295 Z0.0
G1 Y96.23295
G1 Y97.73295 Z-1.0
G1 Y205.59712
G1 Y207.09712 Z0.0
G1 Y209.09712
G1 Y210.59712 Z-1.0
G1 Y264.50094
G1 Y264.5292
G3 X92.14478 Y265.34553 I-1.0 J0.0
G3 X73.46945 Y271.83838 I-20.57759 J-29.08287
G3 X71.96842 Y271.88694 Z0.0 I-1.90226 J-35.57572
G3 X69.9687 Y271.85332 I-0.40123 J-35.62428
G3 X68.47015 Y271.75433 Z-1.0 I1.59848 J-35.59066
G3 X50.98959 Y265.34553 I3.09703 J-35.49167
G3 X50.56718 Y264.5292 I0.57759 J-0.81633
G1 Y258.14099
G3 X51.56718 Y257.14099 I1.0 J0.0
G1 X70.56718
G1 X70.86008 Y257.43388
G1 X70.56718 Y257.14099
G1 Y256.14099
G1 X70.86008 Y255.8481
G1 X70.56718 Y256.14099
G1 X51.56718
G3 X50.56718 Y255.14099 I0.0 J-1.0
G1 Y180.37729
G1 Y178.87729 Z0.0
G1 Y176.87729
G1 Y175.37729 Z-1.0
G1 Y67.51312
G1 Y66.01312 Z0.0
G1 Y64.01312
G1 Y62.51312 Z-1.0
G1 Y17.94099
G3 X51.56718 Y16.94099 I1.0 J0.0
G1 X70.56718
G1 X70.86008 Y17.23388
G1 X70.56718 Y16.94099
G1 Y15.94099
G1 X70.86008 Y15.6481
G1 X70.56718 Y15.94099
G1 X51.56718
G3 X50.56718 Y14.94099 I0.0 J-1.0
G1 Y8.58104
G1 F300.0 Z-1.5
G3 F500.0 X50.98959 Y7.76471 I1.0 J0.0
G3 X69.49642 Y1.28127 I20.57759 J29.08287
G3 X70.9972 Y1.2256 Z0.0 I2.07076 J35.56631
G3 X72.99706 Y1.24974 I0.56998 J35.62198
G3 X74.49606 Y1.34163 Z-1.5 I-1.42987 J35.59784
G3 X92.14478 Y7.76471 I-2.92887 J35.50594
G3 X92.56718 Y8.58104 I-0.57759 J0.81633
G1 Y92.73295
G1 Y94.23295 Z0.0
G1 Y96.23295
G1 Y97.73295 Z-1.5
G1 Y205.59712
G1 Y207.09712 Z0.0
G1 Y209.09712
G1 Y210.59712 Z-1.5
G1 Y264.50094
G1 Y264.5292
G3 X92.14478 Y265.34553 I-1.0 J0.0
G3 X73.46945 Y271.83838 I-20.57759 J-29.08287
G3 X71.96842 Y271.88694 Z0.0 I-1.90226 J-35.57572
G3 X69.9687 Y271.85332 I-0.40123 J-35.62428
G3 X68.47015 Y271.75433 Z-1.5 I1.59848 J-35.59066
G3 X50.98959 Y265.34553 I3.09703 J-35.49167
G3 X50.56718 Y264.5292 I0.57759 J-0.81633
G1 Y258.14099
G3 X51.56718 Y257.14099 I1.0 J0.0
G1 X70.56718
G1 X70.86008 Y257.43388
G1 X70.56718 Y257.14099
G1 Y256.14099
G1 X70.86008 Y255.8481
G1 X70.56718 Y256.14099
G1 X51.56718
G3 X50.56718 Y255.14099 I0.0 J-1.0
G1 Y180.37729
G1 Y178.87729 Z0.0
G1 Y176.87729
G1 Y175.37729 Z-1.5
G1 Y67.51312
G1 Y66.01312 Z0.0
G1 Y64.01312
G1 Y62.51312 Z-1.5
G1 Y17.94099
G3 X51.56718 Y16.94099 I1.0 J0.0
G1 X70.56718
G1 X70.86008 Y17.23388
G1 X70.56718 Y16.94099
G1 Y15.94099
G1 X70.86008 Y15.6481
G1 X70.56718 Y15.94099
G1 X51.56718
G3 X50.56718 Y14.94099 I0.0 J-1.0
G1 Y8.58104
G1 F300.0 Z-2.0
G3 F500.0 X50.98959 Y7.76471 I1.0 J0.0
G3 X69.49642 Y1.28127 I20.57759 J29.08287
G3 X70.9972 Y1.2256 Z0.0 I2.07076 J35.56631
G3 X72.99706 Y1.24974 I0.56998 J35.62198
G3 X74.49606 Y1.34163 Z-2.0 I-1.42987 J35.59784
G3 X92.14478 Y7.76471 I-2.92887 J35.50594
G3 X92.56718 Y8.58104 I-0.57759 J0.81633
G1 Y92.73295
G1 Y94.23295 Z0.0
G1 Y96.23295
G1 Y97.73295 Z-2.0
G1 Y205.59712
G1 Y207.09712 Z0.0
G1 Y209.09712
G1 Y210.59712 Z-2.0
G1 Y264.50094
G1 Y264.5292
G3 X92.14478 Y265.34553 I-1.0 J0.0
G3 X73.46945 Y271.83838 I-20.57759 J-29.08287
G3 X71.96842 Y271.88694 Z0.0 I-1.90226 J-35.57572
G3 X69.9687 Y271.85332 I-0.40123 J-35.62428
G3 X68.47015 Y271.75433 Z-2.0 I1.59848 J-35.59066
G3 X50.98959 Y265.34553 I3.09703 J-35.49167
G3 X50.56718 Y264.5292 I0.57759 J-0.81633
G1 Y258.14099
G3 X51.56718 Y257.14099 I1.0 J0.0
G1 X70.56718
G1 X70.86008 Y257.43388
G1 X70.56718 Y257.14099
G1 Y256.14099
G1 X70.86008 Y255.8481
G1 X70.56718 Y256.14099
G1 X51.56718
G3 X50.56718 Y255.14099 I0.0 J-1.0
G1 Y180.37729
G1 Y178.87729 Z0.0
G1 Y176.87729
G1 Y175.37729 Z-2.0
G1 Y67.51312
G1 Y66.01312 Z0.0
G1 Y64.01312
G1 Y62.51312 Z-2.0
G1 Y17.94099
G3 X51.56718 Y16.94099 I1.0 J0.0
G1 X70.56718
G1 X70.86008 Y17.23388
G1 X70.56718 Y16.94099
G1 Y15.94099
G1 X70.86008 Y15.6481
G1 X70.56718 Y15.94099
G1 X51.56718
G3 X50.56718 Y14.94099 I0.0 J-1.0
G1 Y8.58104
G1 F300.0 Z-2.5
G3 F500.0 X50.98959 Y7.76471 I1.0 J0.0
G3 X69.49642 Y1.28127 I20.57759 J29.08287
G3 X70.9972 Y1.2256 Z0.0 I2.07076 J35.56631
G3 X72.99706 Y1.24974 I0.56998 J35.62198
G3 X74.49606 Y1.34163 Z-2.5 I-1.42987 J35.59784
G3 X92.14478 Y7.76471 I-2.92887 J35.50594
G3 X92.56718 Y8.58104 I-0.57759 J0.81633
G1 Y92.73295
G1 Y94.23295 Z0.0
G1 Y96.23295
G1 Y97.73295 Z-2.5
G1 Y205.59712
G1 Y207.09712 Z0.0
G1 Y209.09712
G1 Y210.59712 Z-2.5
G1 Y264.50094
G1 Y264.5292
G3 X92.14478 Y265.34553 I-1.0 J0.0
G3 X73.46945 Y271.83838 I-20.57759 J-29.08287
G3 X71.96842 Y271.88694 Z0.0 I-1.90226 J-35.57572
G3 X69.9687 Y271.85332 I-0.40123 J-35.62428
G3 X68.47015 Y271.75433 Z-2.5 I1.59848 J-35.59066
G3 X50.98959 Y265.34553 I3.09703 J-35.49167
G3 X50.56718 Y264.5292 I0.57759 J-0.81633
G1 Y258.14099
G3 X51.56718 Y257.14099 I1.0 J0.0
G1 X70.56718
G1 X70.86008 Y257.43388
G1 X70.56718 Y257.14099
G1 Y256.14099
G1 X70.86008 Y255.8481
G1 X70.56718 Y256.14099
G1 X51.56718
G3 X50.56718 Y255.14099 I0.0 J-1.0
G1 Y180.37729
G1 Y178.87729 Z0.0
G1 Y176.87729
G1 Y175.37729 Z-2.5
G1 Y67.51312
G1 Y66.01312 Z0.0
G1 Y64.01312
G1 Y62.51312 Z-2.5
G1 Y17.94099
G3 X51.56718 Y16.94099 I1.0 J0.0
G1 X70.56718
G1 X70.86008 Y17.23388
G1 X70.56718 Y16.94099
G1 Y15.94099
G1 X70.86008 Y15.6481
G1 X70.56718 Y15.94099
G1 X51.56718
G3 X50.56718 Y14.94099 I0.0 J-1.0
G1 Y8.58104
G1 F300.0 Z-3.0
G3 F500.0 X50.98959 Y7.76471 I1.0 J0.0
G3 X69.49642 Y1.28127 I20.57759 J29.08287
G3 X70.9972 Y1.2256 Z0.0 I2.07076 J35.56631
G3 X72.99706 Y1.24974 I0.56998 J35.62198
G3 X74.49606 Y1.34163 Z-3.0 I-1.42987 J35.59784
G3 X92.14478 Y7.76471 I-2.92887 J35.50594
G3 X92.56718 Y8.58104 I-0.57759 J0.81633
G1 Y92.73295
G1 Y94.23295 Z0.0
G1 Y96.23295
G1 Y97.73295 Z-3.0
G1 Y205.59712
G1 Y207.09712 Z0.0
G1 Y209.09712
G1 Y210.59712 Z-3.0
G1 Y264.50094
G1 Y264.5292
G3 X92.14478 Y265.34553 I-1.0 J0.0
G3 X73.46945 Y271.83838 I-20.57759 J-29.08287
G3 X71.96842 Y271.88694 Z0.0 I-1.90226 J-35.57572
G3 X69.9687 Y271.85332 I-0.40123 J-35.62428
G3 X68.47015 Y271.75433 Z-3.0 I1.59848 J-35.59066
G3 X50.98959 Y265.34553 I3.09703 J-35.49167
G3 X50.56718 Y264.5292 I0.57759 J-0.81633
G1 Y258.14099
G3 X51.56718 Y257.14099 I1.0 J0.0
G1 X70.56718
G1 X70.86008 Y257.43388
G1 X70.56718 Y257.14099
G1 Y256.14099
G1 X70.86008 Y255.8481
G1 X70.56718 Y256.14099
G1 X51.56718
G3 X50.56718 Y255.14099 I0.0 J-1.0
G1 Y180.37729
G1 Y178.87729 Z0.0
G1 Y176.87729
G1 Y175.37729 Z-3.0
G1 Y67.51312
G1 Y66.01312 Z0.0
G1 Y64.01312
G1 Y62.51312 Z-3.0
G1 Y17.94099
G3 X51.56718 Y16.94099 I1.0 J0.0
G1 X70.56718
G1 X70.86008 Y17.23388
G1 X70.56718 Y16.94099
G1 Y15.94099
G1 X70.86008 Y15.6481
G1 X70.56718 Y15.94099
G1 X51.56718
G3 X50.56718 Y14.94099 I0.0 J-1.0
G1 Y8.58104
G0 Z3.0
G0 X100.56718
G0 Z1.0
G1 F300.0 Z-0.5
G3 F500.0 X100.98959 Y7.76471 I1.0 J0.0
G3 X115.65435 Y1.71513 I20.57759 J29.08287
G3 X117.14026 Y1.49715 Z0.0 I5.91283 J35.13245
G3 X119.13096 Y1.30443 I4.42692 J35.35043
G3 X120.63109 Y1.23334 Z-0.5 I2.43623 J35.54315
G3 X142.14478 Y7.76471 I0.9361 J35.61424
G3 X142.56718 Y8.58104 I-0.57759 J0.81633
G1 Y14.94099
G3 X141.56718 Y15.94099 I-1.0 J0.0
G1 X122.56718
G1 X122.27429 Y15.6481
G1 X122.56718 Y15.94099
G1 Y16.94099
G1 X122.27429 Y17.23388
G1 X122.56718 Y16.94099
G1 X141.56718
G3 X142.56718 Y17.94099 I0.0 J1.0
G1 Y30.5
G1 Y32.0 Z0.0
G1 Y34.0
G1 Y35.5 Z-0.5
G1 Y139.5
G1 Y141.0 Z0.0
G1 Y143.0
G1 Y144.5 Z-0.5
G1 Y157.14099
G3 X141.56718 Y158.14099 I-1.0 J0.0
G1 X122.56718
G1 X122.27429 Y157.8481
G1 X122.56718 Y158.14099
G1 Y159.14099
G1 X122.27429 Y159.43388
G1 X122.56718 Y159.14099
G1 X141.56718
G3 X142.56718 Y160.14099 I0.0 J1.0
G1 Y166.50094
G3 X142.14478 Y167.31727 I-1.0 J0.0
G3 X125.57164 Y173.63518 I-20.57759 J-29.08287
G3 X124.07611 Y173.77249 Z0.0 I-4.00445 J-35.40077
G3 X122.07791 Y173.85728 I-2.50893 J-35.53809
G3 X120.57613 Y173.84716 Z-0.5 I-0.51073 J-35.62288
G3 X100.98959 Y167.31727 I0.99105 J-35.61275
G3 X100.56718 Y166.50094 I0.57759 J-0.81633
G1 Y145.5
G1 Y144.0 Z0.0
G1 Y142.0
G1 Y140.5 Z-0.5
G1 Y37.5
G1 Y36.0 Z0.0
G1 Y34.0
G1 Y32.5 Z-0.5
G1 Y8.58104
G1 F300.0 Z-1.0
G3 F500.0 X100.98959 Y7.76471 I1.0 J0.0
G3 X115.65435 Y1.71513 I20.57759 J29.08287
G3 X117.14026 Y1.49715 Z0.0 I5.91283 J35.13245
G3 X119.13096 Y1.30443 I4.42692 J35.35043
G3 X120.63109 Y1.23334 Z-1.0 I2.43623 J35.54315
G3 X142.14478 Y7.76471 I0.9361 J35.61424
G3 X142.56718 Y8.58104 I-0.57759 J0.81633
G1 Y14.94099
G3 X141.56718 Y15.94099 I-1.0 J0.0
G1 X122.56718
G1 X122.27429 Y15.6481
G1 X122.56718 Y15.94099
G1 Y16.94099
G1 X122.27429 Y17.23388
G1 X122.56718 Y16.94099
G1 X141.56718
G3 X142.56718 Y17.94099 I0.0 J1.0
G1 Y30.5
G1 Y32.0 Z0.0
G1 Y34.0
G1 Y35.5 Z-1.0
G1 Y139.5
G1 Y141.0 Z0.0
G1 Y143.0
G1 Y144.5 Z-1.0
G1 Y157.14099
G3 X141.56718 Y158.14099 I-1.0 J0.0
G1 X122.56718
G1 X122.27429 Y157.8481
G1 X122.56718 Y158.14099
G1 Y159.14099
G1 X122.27429 Y159.43388
G1 X122.56718 Y159.14099
G1 X141.56718
G3 X142.56718 Y160.14099 I0.0 J1.0
G1 Y166.50094
G3 X142.14478 Y167.31727 I-1.0 J0.0
G3 X125.57164 Y173.63518 I-20.57759 J-29.08287
G3 X124.07611 Y173.77249 Z0.0 I-4.00445 J-35.40077
G3 X122.07791 Y173.85728 I-2.50893 J-35.53809
G3 X120.57613 Y173.84716 Z-1.0 I-0.51073 J-35.62288
G3 X100.98959 Y167.31727 I0.99105 J-35.61275
G3 X100.56718 Y166.50094 I0.57759 J-0.81633
G1 Y145.5
G1 Y144.0 Z0.0
G1 Y142.0
G1 Y140.5 Z-1.0
G1 Y37.5
G1 Y36.0 Z0.0
G1 Y34.0
G1 Y32.5 Z-1.0
G1 Y8.58104
G1 F300.0 Z-1.5
G3 F500.0 X100.98959 Y7.76471 I1.0 J0.0
G3 X115.65435 Y1.71513 I20.57759 J29.08287
G3 X117.14026 Y1.49715 Z0.0 I5.91283 J35.13245
G3 X119.13096 Y1.30443 I4.42692 J35.35043
G3 X120.63109 Y1.23334 Z-1.5 I2.43623 J35.54315
G3 X142.14478 Y7.76471 I0.9361 J35.61424
G3 X142.56718 Y8.58104 I-0.57759 J0.81633
G1 Y14.94099
G3 X141.56718 Y15.94099 I-1.0 J0.0
G1 X122.56718
G1 X122.27429 Y15.6481
G1 X122.56718 Y15.94099
G1 Y16.94099
G1 X122.27429 Y17.23388
G1 X122.56718 Y16.94099
G1 X141.56718
G3 X142.56718 Y17.94099 I0.0 J1.0
G1 Y30.5
G1 Y32.0 Z0.0
G1 Y34.0
G1 Y35.5 Z-1.5
G1 Y139.5
G1 Y141.0 Z0.0
G1 Y143.0
G1 Y144.5 Z-1.5
G1 Y157.14099
G3 X141.56718 Y158.14099 I-1.0 J0.0
G1 X122.56718
G1 X122.27429 Y157.8481
G1 X122.56718 Y158.14099
G1 Y159.14099
G1 X122.27429 Y159.43388
G1 X122.56718 Y159.14099
G1 X141.56718
G3 X142.56718 Y160.14099 I0.0 J1.0
G1 Y166.50094
G3 X142.14478 Y167.31727 I-1.0 J0.0
G3 X125.57164 Y173.63518 I-20.57759 J-29.08287
G3 X124.07611 Y173.77249 Z0.0 I-4.00445 J-35.40077
G3 X122.07791 Y173.85728 I-2.50893 J-35.53809
G3 X120.57613 Y173.84716 Z-1.5 I-0.51073 J-35.62288
G3 X100.98959 Y167.31727 I0.99105 J-35.61275
G3 X100.56718 Y166.50094 I0.57759 J-0.81633
G1 Y145.5
G1 Y144.0 Z0.0
G1 Y142.0
G1 Y140.5 Z-1.5
G1 Y37.5
G1 Y36.0 Z0.0
G1 Y34.0
G1 Y32.5 Z-1.5
G1 Y8.58104
G1 F300.0 Z-2.0
G3 F500.0 X100.98959 Y7.76471 I1.0 J0.0
G3 X115.65435 Y1.71513 I20.57759 J29.08287
G3 X117.14026 Y1.49715 Z0.0 I5.91283 J35.13245
G3 X119.13096 Y1.30443 I4.42692 J35.35043
G3 X120.63109 Y1.23334 Z-2.0 I2.43623 J35.54315
G3 X142.14478 Y7.76471 I0.9361 J35.61424
G3 X142.56718 Y8.58104 I-0.57759 J0.81633
G1 Y14.94099
G3 X141.56718 Y15.94099 I-1.0 J0.0
G1 X122.56718
G1 X122.27429 Y15.6481
G1 X122.56718 Y15.94099
G1 Y16.94099
G1 X122.27429 Y17.23388
G1 X122.56718 Y16.94099
G1 X141.56718
G3 X142.56718 Y17.94099 I0.0 J1.0
G1 Y30.5
G1 Y32.0 Z0.0
G1 Y34.0
G1 Y35.5 Z-2.0
G1 Y139.5
G1 Y141.0 Z0.0
G1 Y143.0
G1 Y144.5 Z-2.0
G1 Y157.14099
G3 X141.56718 Y158.14099 I-1.0 J0.0
G1 X122.56718
G1 X122.27429 Y157.8481
G1 X122.56718 Y158.14099
G1 Y159.14099
G1 X122.27429 Y159.43388
G1 X122.56718 Y159.14099
G1 X141.56718
G3 X142.56718 Y160.14099 I0.0 J1.0
G1 Y166.50094
G3 X142.14478 Y167.31727 I-1.0 J0.0
G3 X125.57164 Y173.63518 I-20.57759 J-29.08287
G3 X124.07611 Y173.77249 Z0.0 I-4.00445 J-35.40077
G3 X122.07791 Y173.85728 I-2.50893 J-35.53809
G3 X120.57613 Y173.84716 Z-2.0 I-0.51073 J-35.62288
G3 X100.98959 Y167.31727 I0.99105 J-35.61275
G3 X100.56718 Y166.50094 I0.57759 J-0.81633
G1 Y145.5
G1 Y144.0 Z0.0
G1 Y142.0
G1 Y140.5 Z-2.0
G1 Y37.5
G1 Y36.0 Z0.0
G1 Y34.0
G1 Y32.5 Z-2.0
G1 Y8.58104
G1 F300.0 Z-2.5
G3 F500.0 X100.98959 Y7.76471 I1.0 J0.0
G3 X115.65435 Y1.71513 I20.57759 J29.08287
G3 X117.14026 Y1.49715 Z0.0 I5.91283 J35.13245
G3 X119.13096 Y1.30443 I4.42692 J35.35043
G3 X120.63109 Y1.23334 Z-2.5 I2.43623 J35.54315
G3 X142.14478 Y7.76471 I0.9361 J35.61424
G3 X142.56718 Y8.58104 I-0.57759 J0.81633
G1 Y14.94099
G3 X141.56718 Y15.94099 I-1.0 J0.0
G1 X122.56718
G1 X122.27429 Y15.6481
G1 X122.56718 Y15.94099
G1 Y16.94099
G1 X122.27429 Y17.23388
G1 X122.56718 Y16.94099
G1 X141.56718
G3 X142.56718 Y17.94099 I0.0 J1.0
G1 Y30.5
G1 Y32.0 Z0.0
G1 Y34.0
G1 Y35.5 Z-2.5
G1 Y139.5
G1 Y141.0 Z0.0
G1 Y143.0
G1 Y144.5 Z-2.5
G1 Y157.14099
G3 X141.56718 Y158.14099 I-1.0 J0.0
G1 X122.56718
G1 X122.27429 Y157.8481
G1 X122.56718 Y158.14099
G1 Y159.14099
G1 X122.27429 Y159.43388
G1 X122.56718 Y159.14099
G1 X141.56718
G3 X142.56718 Y160.14099 I0.0 J1.0
G1 Y166.50094
G3 X142.14478 Y167.31727 I-1.0 J0.0
G3 X125.57164 Y173.63518 I-20.57759 J-29.08287
G3 X124.07611 Y173.77249 Z0.0 I-4.00445 J-35.40077
G3 X122.07791 Y173.85728 I-2.50893 J-35.53809
G3 X120.57613 Y173.84716 Z-2.5 I-0.51073 J-35.62288
G3 X100.98959 Y167.31727 I0.99105 J-35.61275
G3 X100.56718 Y166.50094 I0.57759 J-0.81633
G1 Y145.5
G1 Y144.0 Z0.0
G1 Y142.0
G1 Y140.5 Z-2.5
G1 Y37.5
G1 Y36.0 Z0.0
G1 Y34.0
G1 Y32.5 Z-2.5
G1 Y8.58104
G1 F300.0 Z-3.0
G3 F500.0 X100.98959 Y7.76471 I1.0 J0.0
G3 X115.65435 Y1.71513 I20.57759 J29.08287
G3 X117.14026 Y1.49715 Z0.0 I5.91283 J35.13245
G3 X119.13096 Y1.30443 I4.42692 J35.35043
G3 X120.63109 Y1.23334 Z-3.0 I2.43623 J35.54315
G3 X142.14478 Y7.76471 I0.9361 J35.61424
G3 X142.56718 Y8.58104 I-0.57759 J0.81633
G1 Y14.94099
G3 X141.56718 Y15.94099 I-1.0 J0.0
G1 X122.56718
G1 X122.27429 Y15.6481
G1 X122.56718 Y15.94099
G1 Y16.94099
G1 X122.27429 Y17.23388
G1 X122.56718 Y16.94099
G1 X141.56718
G3 X142.56718 Y17.94099 I0.0 J1.0
G1 Y30.5
G1 Y32.0 Z0.0
G1 Y34.0
G1 Y35.5 Z-3.0
G1 Y139.5
G1 Y141.0 Z0.0
G1 Y143.0
G1 Y144.5 Z-3.0
G1 Y157.14099
G3 X141.56718 Y158.14099 I-1.0 J0.0
G1 X122.56718
G1 X122.27429 Y157.8481
G1 X122.56718 Y158.14099
G1 Y159.14099
G1 X122.27429 Y159.43388
G1 X122.56718 Y159.14099
G1 X141.56718
G3 X142.56718 Y160.14099 I0.0 J1.0
G1 Y166.50094
G3 X142.14478 Y167.31727 I-1.0 J0.0
G3 X125.57164 Y173.63518 I-20.57759 J-29.08287
G3 X124.07611 Y173.77249 Z0.0 I-4.00445 J-35.40077
G3 X122.07791 Y173.85728 I-2.50893 J-35.53809
G3 X120.57613 Y173.84716 Z-3.0 I-0.51073 J-35.62288
G3 X100.98959 Y167.31727 I0.99105 J-35.61275
G3 X100.56718 Y166.50094 I0.57759 J-0.81633
G1 Y145.5
G1 Y144.0 Z0.0
G1 Y142.0
G1 Y140.5 Z-3.0
G1 Y37.5
G1 Y36.0 Z0.0
G1 Y34.0
G1 Y32.5 Z-3.0
G1 Y8.58104
G0 Z3.0
G0 X150.56718
G0 Z1.0
G1 F300.0 Z-0.5
G3 F500.0 X150.98959 Y7.76471 I1.0 J0.0
G3 X168.50527 Y1.35286 I20.57759 J29.08287
G3 X170.00392 Y1.25535 Z0.0 I3.06191 J35.49472
G3 X172.00366 Y1.22371 I1.56327 J35.59223
G3 X173.50464 Y1.27376 Z-0.5 I-0.43648 J35.62387
G3 X192.14478 Y7.76471 I-1.93746 J35.57382
G3 X192.56718 Y8.58104 I-0.57759 J0.81633
G1 Y14.94099
G3 X191.56718 Y15.94099 I-1.0 J0.0
G1 X172.56718
G1 X172.27429 Y15.6481
G1 X172.56718 Y15.94099
G1 Y16.94099
G1 X172.27429 Y17.23388
G1 X172.56718 Y16.94099
G1 X191.56718
G3 X192.56718 Y17.94099 I0.0 J1.0
G1 Y29.5
G1 Y31.0 Z0.0
G1 Y33.0
G1 Y34.5 Z-0.5
G1 Y139.5
G1 Y141.0 Z0.0
G1 Y143.0
G1 Y144.5 Z-0.5
G1 Y157.14099
G3 X191.56718 Y158.14099 I-1.0 J0.0
G1 X172.56718
G1 X172.27429 Y157.8481
G1 X172.56718 Y158.14099
G1 Y159.14099
G1 X172.27429 Y159.43388
G1 X172.56718 Y159.14099
G1 X191.56718
G3 X192.56718 Y160.14099 I0.0 J1.0
G1 Y166.50094
G3 X192.14478 Y167.31727 I-1.0 J0.0
G3 X174.48535 Y173.74123 I-20.57759 J-29.08287
G3 X172.98633 Y173.83267 Z0.0 I-2.91817 J-35.50683
G3 X170.98647 Y173.85621 I-1.41914 J-35.59826
G3 X169.4857 Y173.80009 Z-0.5 I0.58072 J-35.62181
G3 X150.98959 Y167.31727 I2.08148 J-35.56568
G3 X150.56718 Y166.50094 I0.57759 J-0.81633
G1 Y144.5
G1 Y143.0 Z0.0
G1 Y141.0
G1 Y139.5 Z-0.5
G1 Y35.5
G1 Y34.0 Z0.0
G1 Y32.0
G1 Y30.5 Z-0.5
G1 Y8.58104
G1 F300.0 Z-1.0
G3 F500.0 X150.98959 Y7.76471 I1.0 J0.0
G3 X168.50527 Y1.35286 I20.57759 J29.08287
G3 X170.00392 Y1.25535 Z0.0 I3.06191 J35.49472
G3 X172.00366 Y1.22371 I1.56327 J35.59223
G3 X173.50464 Y1.27376 Z-1.0 I-0.43648 J35.62387
G3 X192.14478 Y7.76471 I-1.93746 J35.57382
G3 X192.56718 Y8.58104 I-0.57759 J0.81633
G1 Y14.94099
G3 X191.56718 Y15.94099 I-1.0 J0.0
G1 X172.56718
G1 X172.27429 Y15.6481
G1 X172.56718 Y15.94099
G1 Y16.94099
G1 X172.27429 Y17.23388
G1 X172.56718 Y16.94099
G1 X191.56718
G3 X192.56718 Y17.94099 I0.0 J1.0
G1 Y29.5
G1 Y31.0 Z0.0
G1 Y33.0
G1 Y34.5 Z-1.0
G1 Y139.5
G1 Y141.0 Z0.0
G1 Y143.0
G1 Y144.5 Z-1.0
G1 Y157.14099
G3 X191.56718 Y158.14099 I-1.0 J0.0
G1 X172.56718
G1 X172.27429 Y157.8481
G1 X172.56718 Y158.14099
G1 Y159.14099
G1 X172.27429 Y159.43388
G1 X172.56718 Y159.14099
G1 X191.56718
G3 X192.56718 Y160.14099 I0.0 J1.0
G1 Y166.50094
G3 X192.14478 Y167.31727 I-1.0 J0.0
G3 X174.48535 Y173.74123 I-20.57759 J-29.08287
G3 X172.98633 Y173.83267 Z0.0 I-2.91817 J-35.50683
G3 X170.98647 Y173.85621 I-1.41914 J-35.59826
G3 X169.4857 Y173.80009 Z-1.0 I0.58072 J-35.62181
G3 X150.98959 Y167.31727 I2.08148 J-35.56568
G3 X150.56718 Y166.50094 I0.57759 J-0.81633
G1 Y144.5
G1 Y143.0 Z0.0
G1 Y141.0
G1 Y139.5 Z-1.0
G1 Y35.5
G1 Y34.0 Z0.0
G1 Y32.0
G1 Y30.5 Z-1.0
G1 Y8.58104
G1 F300.0 Z-1.5
G3 F500.0 X150.98959 Y7.76471 I1.0 J0.0
G3 X168.50527 Y1.35286 I20.57759 J29.08287
G3 X170.00392 Y1.25535 Z0.0 I3.06191 J35.49472
G3 X172.00366 Y1.22371 I1.56327 J35.59223
G3 X173.50464 Y1.27376 Z-1.5 I-0.43648 J35.62387
G3 X192.14478 Y7.76471 I-1.93746 J35.57382
G3 X192.56718 Y8.58104 I-0.57759 J0.81633
G1 Y14.94099
G3 X191.56718 Y15.94099 I-1.0 J0.0
G1 X172.56718
G1 X172.27429 Y15.6481
G1 X172.56718 Y15.94099
G1 Y16.94099
G1 X172.27429 Y17.23388
G1 X172.56718 Y16.94099
G1 X191.56718
G3 X192.56718 Y17.94099 I0.0 J1.0
G1 Y29.5
G1 Y31.0 Z0.0
G1 Y33.0
G1 Y34.5 Z-1.5
G1 Y139.5
G1 Y141.0 Z0.0
G1 Y143.0
G1 Y144.5 Z-1.5
G1 Y157.14099
G3 X191.56718 Y158.14099 I-1.0 J0.0
G1 X172.56718
G1 X172.27429 Y157.8481
G1 X172.56718 Y158.14099
G1 Y159.14099
G1 X172.27429 Y159.43388
G1 X172.56718 Y159.14099
G1 X191.56718
G3 X192.56718 Y160.14099 I0.0 J1.0
G1 Y166.50094
G3 X192.14478 Y167.31727 I-1.0 J0.0
G3 X174.48535 Y173.74123 I-20.57759 J-29.08287
G3 X172.98633 Y173.83267 Z0.0 I-2.91817 J-35.50683
G3 X170.98647 Y173.85621 I-1.41914 J-35.59826
G3 X169.4857 Y173.80009 Z-1.5 I0.58072 J-35.62181
G3 X150.98959 Y167.31727 I2.08148 J-35.56568
G3 X150.56718 Y166.50094 I0.57759 J-0.81633
G1 Y144.5
G1 Y143.0 Z0.0
G1 Y141.0
G1 Y139.5 Z-1.5
G1 Y35.5
G1 Y34.0 Z0.0
G1 Y32.0
G1 Y30.5 Z-1.5
G1 Y8.58104
G1 F300.0 Z-2.0
G3 F500.0 X150.98959 Y7.76471 I1.0 J0.0
G3 X168.50527 Y1.35286 I20.57759 J29.08287
G3 X170.00392 Y1.25535 Z0.0 I3.06191 J35.49472
G3 X172.00366 Y1.22371 I1.56327 J35.59223
G3 X173.50464 Y1.27376 Z-2.0 I-0.43648 J35.62387
G3 X192.14478 Y7.76471 I-1.93746 J35.57382
G3 X192.56718 Y8.58104 I-0.57759 J0.81633
G1 Y14.94099
G3 X191.56718 Y15.94099 I-1.0 J0.0
G1 X172.56718
G1 X172.27429 Y15.6481
G1 X172.56718 Y15.94099
G1 Y16.94099
G1 X172.27429 Y17.23388
G1 X172.56718 Y16.94099
G1 X191.56718
G3 X192.56718 Y17.94099 I0.0 J1.0
G1 Y29.5
G1 Y31.0 Z0.0
G1 Y33.0
G1 Y34.5 Z-2.0
G1 Y139.5
G1 Y141.0 Z0.0
G1 Y143.0
G1 Y144.5 Z-2.0
G1 Y157.14099
G3 X191.56718 Y158.14099 I-1.0 J0.0
G1 X172.56718
G1 X172.27429 Y157.8481
G1 X172.56718 Y158.14099
G1 Y159.14099
G1 X172.27429 Y159.43388
G1 X172.56718 Y159.14099
G1 X191.56718
G3 X192.56718 Y160.14099 I0.0 J1.0
G1 Y166.50094
G3 X192.14478 Y167.31727 I-1.0 J0.0
G3 X174.48535 Y173.74123 I-20.57759 J-29.08287
G3 X172.98633 Y173.83267 Z0.0 I-2.91817 J-35.50683
G3 X170.98647 Y173.85621 I-1.41914 J-35.59826
G3 X169.4857 Y173.80009 Z-2.0 I0.58072 J-35.62181
G3 X150.98959 Y167.31727 I2.08148 J-35.56568
G3 X150.56718 Y166.50094 I0.57759 J-0.81633
G1 Y144.5
G1 Y143.0 Z0.0
G1 Y141.0
G1 Y139.5 Z-2.0
G1 Y35.5
G1 Y34.0 Z0.0
G1 Y32.0
G1 Y30.5 Z-2.0
G1 Y8.58104
G1 F300.0 Z-2.5
G3 F500.0 X150.98959 Y7.76471 I1.0 J0.0
G3 X168.50527 Y1.35286 I20.57759 J29.08287
G3 X170.00392 Y1.25535 Z0.0 I3.06191 J35.49472
G3 X172.00366 Y1.22371 I1.56327 J35.59223
G3 X173.50464 Y1.27376 Z-2.5 I-0.43648 J35.62387
G3 X192.14478 Y7.76471 I-1.93746 J35.57382
G3 X192.56718 Y8.58104 I-0.57759 J0.81633
G1 Y14.94099
G3 X191.56718 Y15.94099 I-1.0 J0.0
G1 X172.56718
G1 X172.27429 Y15.6481
G1 X172.56718 Y15.94099
G1 Y16.94099
G1 X172.27429 Y17.23388
G1 X172.56718 Y16.94099
G1 X191.56718
G3 X192.56718 Y17.94099 I0.0 J1.0
G1 Y29.5
G1 Y31.0 Z0.0
G1 Y33.0
G1 Y34.5 Z-2.5
G1 Y139.5
G1 Y141.0 Z0.0
G1 Y143.0
G1 Y144.5 Z-2.5
G1 Y157.14099
G3 X191.56718 Y158.14099 I-1.0 J0.0
G1 X172.56718
G1 X172.27429 Y157.8481
G1 X172.56718 Y158.14099
G1 Y159.14099
G1 X172.27429 Y159.43388
G1 X172.56718 Y159.14099
G1 X191.56718
G3 X192.56718 Y160.14099 I0.0 J1.0
G1 Y166.50094
G3 X192.14478 Y167.31727 I-1.0 J0.0
G3 X174.48535 Y173.74123 I-20.57759 J-29.08287
G3 X172.98633 Y173.83267 Z0.0 I-2.91817 J-35.50683
G3 X170.98647 Y173.85621 I-1.41914 J-35.59826
G3 X169.4857 Y173.80009 Z-2.5 I0.58072 J-35.62181
G3 X150.98959 Y167.31727 I2.08148 J-35.56568
G3 X150.56718 Y166.50094 I0.57759 J-0.81633
G1 Y144.5
G1 Y143.0 Z0.0
G1 Y141.0
G1 Y139.5 Z-2.5
G1 Y35.5
G1 Y34.0 Z0.0
G1 Y32.0
G1 Y30.5 Z-2.5
G1 Y8.58104
G1 F300.0 Z-3.0
G3 F500.0 X150.98959 Y7.76471 I1.0 J0.0
G3 X168.50527 Y1.35286 I20.57759 J29.08287
G3 X170.00392 Y1.25535 Z0.0 I3.06191 J35.49472
G3 X172.00366 Y1.22371 I1.56327 J35.59223
G3 X173.50464 Y1.27376 Z-3.0 I-0.43648 J35.62387
G3 X192.14478 Y7.76471 I-1.93746 J35.57382
G3 X192.56718 Y8.58104 I-0.57759 J0.81633
G1 Y14.94099
G3 X191.56718 Y15.94099 I-1.0 J0.0
G1 X172.56718
G1 X172.27429 Y15.6481
G1 X172.56718 Y15.94099
G1 Y16.94099
G1 X172.27429 Y17.23388
G1 X172.56718 Y16.94099
G1 X191.56718
G3 X192.56718 Y17.94099 I0.0 J1.0
G1 Y29.5
G1 Y31.0 Z0.0
G1 Y33.0
G1 Y34.5 Z-3.0
G1 Y139.5
G1 Y141.0 Z0.0
G1 Y143.0
G1 Y144.5 Z-3.0
G1 Y157.14099
G3 X191.56718 Y158.14099 I-1.0 J0.0
G1 X172.56718
G1 X172.27429 Y157.8481
G1 X172.56718 Y158.14099
G1 Y159.14099
G1 X172.27429 Y159.43388
G1 X172.56718 Y159.14099
G1 X191.56718
G3 X192.56718 Y160.14099 I0.0 J1.0
G1 Y166.50094
G3 X192.14478 Y167.31727 I-1.0 J0.0
G3 X174.48535 Y173.74123 I-20.57759 J-29.08287
G3 X172.98633 Y173.83267 Z0.0 I-2.91817 J-35.50683
G3 X170.98647 Y173.85621 I-1.41914 J-35.59826
G3 X169.4857 Y173.80009 Z-3.0 I0.58072 J-35.62181
G3 X150.98959 Y167.31727 I2.08148 J-35.56568
G3 X150.56718 Y166.50094 I0.57759 J-0.81633
G1 Y144.5
G1 Y143.0 Z0.0
G1 Y141.0
G1 Y139.5 Z-3.0
G1 Y35.5
G1 Y34.0 Z0.0
G1 Y32.0
G1 Y30.5 Z-3.0
G1 Y8.58104
G0 Z3.0
M5
M30
